;FLAVOR:Marlin
;TIME:15756
;Filament used: 18.9074m
;Layer height: 0.2
;MINX:2.2
;MINY:65.2
;MINZ:0.2
;MAXX:229.8
;MAXY:169.8
;MAXZ:3
;TARGET_MACHINE.NAME:Creality Ender-3
;Generated with Cura_SteamEngine 5.6.0
M140 S55
M105
M190 S55
M104 S210
M105
M109 S210
M82 ;absolute extrusion mode
; Ender 3 Custom Start G-code
G92 E0 ; Reset Extruder
G28 ; Home all axes
G1 Z2.0 F3000 ; Move Z Axis up little to prevent scratching of Heat Bed
G1 X0.1 Y20 Z0.3 F5000.0 ; Move to start position
G1 X0.1 Y200.0 Z0.3 F1500.0 E15 ; Draw the first line
G1 X0.4 Y200.0 Z0.3 F5000.0 ; Move to side a little
G1 X0.4 Y20 Z0.3 F1500.0 E30 ; Draw the second line
G92 E0 ; Reset Extruder
G1 Z2.0 F3000 ; Move Z Axis up little to prevent scratching of Heat Bed
G1 X5 Y20 Z0.3 F5000.0 ; Move over to prevent blob squish
G92 E0
G92 E0
G1 F2700 E-5
;LAYER_COUNT:15
;LAYER:0
M107
;MESH:Borg_Lid.stl
G0 F9000 X229.4 Y169.4 Z0.2
;TYPE:WALL-INNER
G1 F2700 E0
G1 F2250 X229.4 Y65.6 E3.4524
G1 X2.6 Y65.6 E10.9958
G1 X2.6 Y169.4 E14.4482
G1 X229.4 Y169.4 E21.9916
G0 F9000 X229.8 Y169.8
;TYPE:WALL-OUTER
G1 F2250 X229.8 Y65.2 E25.47061
G1 X2.2 Y65.2 E33.04062
G1 X2.2 Y169.8 E36.51963
G1 X229.8 Y169.8 E44.08964
G0 F9000 X229.53 Y169.53
G0 X229.04 Y169.04
;TYPE:SKIN
G1 F2250 X2.96 Y169.04 E51.60909
G1 X2.96 Y65.96 E55.03754
G1 X229.04 Y65.96 E62.55699
G1 X229.04 Y169.04 E65.98545
G1 F2700 E60.98545
G0 F9000 X228.839 Y66.487
G1 F2700 E65.98545
G1 F2250 X228.511 Y66.159 E66.00088
G0 F9000 X227.945 Y66.159
G1 F2250 X228.839 Y67.053 E66.04293
G0 F9000 X228.839 Y67.619
G1 F2250 X227.38 Y66.159 E66.11158
G0 F9000 X226.814 Y66.159
G1 F2250 X228.839 Y68.184 E66.20683
G0 F9000 X228.839 Y68.75
G1 F2250 X226.248 Y66.159 E66.3287
G0 F9000 X225.683 Y66.159
G1 F2250 X228.839 Y69.316 E66.47717
G0 F9000 X228.839 Y69.881
G1 F2250 X225.117 Y66.159 E66.65224
G0 F9000 X224.551 Y66.159
G1 F2250 X228.839 Y70.447 E66.85394
G0 F9000 X228.839 Y71.013
G1 F2250 X223.985 Y66.159 E67.08225
G0 F9000 X223.42 Y66.159
G1 F2250 X228.839 Y71.579 E67.33717
G0 F9000 X228.839 Y72.144
G1 F2250 X222.854 Y66.159 E67.61869
G0 F9000 X222.288 Y66.159
G1 F2250 X228.839 Y72.71 E67.92683
G0 F9000 X228.839 Y73.276
G1 F2250 X221.723 Y66.159 E68.26156
G0 F9000 X221.157 Y66.159
G1 F2250 X228.839 Y73.841 E68.6229
G0 F9000 X228.839 Y74.407
G1 F2250 X220.591 Y66.159 E69.01086
G0 F9000 X220.026 Y66.159
G1 F2250 X228.839 Y74.973 E69.42542
G0 F9000 X228.839 Y75.538
G1 F2250 X219.46 Y66.159 E69.86658
G0 F9000 X218.894 Y66.159
G1 F2250 X228.839 Y76.104 E70.33436
G0 F9000 X228.839 Y76.67
G1 F2250 X218.329 Y66.159 E70.82875
G0 F9000 X217.763 Y66.159
G1 F2250 X228.839 Y77.235 E71.34973
G0 F9000 X228.839 Y77.801
G1 F2250 X217.197 Y66.159 E71.89733
G0 F9000 X216.632 Y66.159
G1 F2250 X228.839 Y78.367 E72.47153
G0 F9000 X228.839 Y78.932
G1 F2250 X216.066 Y66.159 E73.07234
G0 F9000 X215.5 Y66.159
G1 F2250 X228.839 Y79.498 E73.69976
G0 F9000 X228.839 Y80.064
G1 F2250 X214.935 Y66.159 E74.35379
G0 F9000 X214.369 Y66.159
G1 F2250 X228.839 Y80.629 E75.03441
G0 F9000 X228.839 Y81.195
G1 F2250 X213.803 Y66.159 E75.74166
G0 F9000 X213.237 Y66.159
G1 F2250 X228.839 Y81.761 E76.47553
G0 F9000 X228.839 Y82.327
G1 F2250 X212.672 Y66.159 E77.236
G0 F9000 X212.106 Y66.159
G1 F2250 X228.839 Y82.892 E78.02307
G0 F9000 X228.839 Y83.458
G1 F2250 X211.54 Y66.159 E78.83676
G0 F9000 X210.975 Y66.159
G1 F2250 X228.839 Y84.024 E79.67705
G0 F9000 X228.839 Y84.589
G1 F2250 X210.409 Y66.159 E80.54394
G0 F9000 X209.843 Y66.159
G1 F2250 X228.839 Y85.155 E81.43746
G0 F9000 X228.839 Y85.721
G1 F2250 X209.278 Y66.159 E82.35757
G0 F9000 X208.712 Y66.159
G1 F2250 X228.839 Y86.286 E83.30428
G0 F9000 X228.839 Y86.852
G1 F2250 X208.146 Y66.159 E84.27762
G0 F9000 X207.581 Y66.159
G1 F2250 X228.839 Y87.418 E85.27755
G0 F9000 X228.839 Y87.983
G1 F2250 X207.015 Y66.159 E86.30409
G0 F9000 X206.449 Y66.159
G1 F2250 X228.839 Y88.549 E87.35724
G0 F9000 X228.839 Y89.115
G1 F2250 X205.884 Y66.159 E88.437
G0 F9000 X205.318 Y66.159
G1 F2250 X228.839 Y89.68 E89.54335
G0 F9000 X228.839 Y90.246
G1 F2250 X204.752 Y66.159 E90.67633
G0 F9000 X204.186 Y66.159
G1 F2250 X228.839 Y90.812 E91.83593
G0 F9000 X228.839 Y91.377
G1 F2250 X203.621 Y66.159 E93.02211
G0 F9000 X203.055 Y66.159
G1 F2250 X228.839 Y91.943 E94.23491
G0 F9000 X228.839 Y92.509
G1 F2250 X202.489 Y66.159 E95.47434
G0 F9000 X201.924 Y66.159
G1 F2250 X228.839 Y93.075 E96.74036
G0 F9000 X228.839 Y93.64
G1 F2250 X201.358 Y66.159 E98.03298
G0 F9000 X200.792 Y66.159
G1 F2250 X228.839 Y94.206 E99.35223
G0 F9000 X228.839 Y94.772
G1 F2250 X200.227 Y66.159 E100.69807
G0 F9000 X199.661 Y66.159
G1 F2250 X228.839 Y95.337 E102.07051
G0 F9000 X228.839 Y95.903
G1 F2250 X199.095 Y66.159 E103.46958
G0 F9000 X198.53 Y66.159
G1 F2250 X228.839 Y96.469 E104.89525
G0 F9000 X228.839 Y97.034
G1 F2250 X197.964 Y66.159 E106.34751
G0 F9000 X197.398 Y66.159
G1 F2250 X228.839 Y97.6 E107.8264
G0 F9000 X228.839 Y98.166
G1 F2250 X196.833 Y66.159 E109.33189
G0 F9000 X196.267 Y66.159
G1 F2250 X228.839 Y98.731 E110.86397
G0 F9000 X228.839 Y99.297
G1 F2250 X195.701 Y66.159 E112.42268
G0 F9000 X195.136 Y66.159
G1 F2250 X228.839 Y99.863 E114.00799
G0 F9000 X228.839 Y100.428
G1 F2250 X194.57 Y66.159 E115.6199
G0 F9000 X194.004 Y66.159
G1 F2250 X228.839 Y100.994 E117.25843
G0 F9000 X228.839 Y101.56
G1 F2250 X193.438 Y66.159 E118.92359
G0 F9000 X192.873 Y66.159
G1 F2250 X228.839 Y102.126 E120.61534
G0 F9000 X228.839 Y102.691
G1 F2250 X192.307 Y66.159 E122.3337
G0 F9000 X191.741 Y66.159
G1 F2250 X228.839 Y103.257 E124.07867
G0 F9000 X228.839 Y103.823
G1 F2250 X191.176 Y66.159 E125.85025
G0 F9000 X190.61 Y66.159
G1 F2250 X228.839 Y104.388 E127.64842
G0 F9000 X228.839 Y104.954
G1 F2250 X190.044 Y66.159 E129.47322
G0 F9000 X189.479 Y66.159
G1 F2250 X228.839 Y105.52 E131.32462
G0 F9000 X228.839 Y106.085
G1 F2250 X188.913 Y66.159 E133.20261
G0 F9000 X188.347 Y66.159
G1 F2250 X228.839 Y106.651 E135.10723
G0 F9000 X228.839 Y107.217
G1 F2250 X187.782 Y66.159 E137.03845
G0 F9000 X187.216 Y66.159
G1 F2250 X228.839 Y107.782 E138.99627
G0 F9000 X228.839 Y108.348
G1 F2250 X186.65 Y66.159 E140.98071
G0 F9000 X186.085 Y66.159
G1 F2250 X228.839 Y108.914 E142.99175
G0 F9000 X228.839 Y109.479
G1 F2250 X185.519 Y66.159 E145.02939
G0 F9000 X184.953 Y66.159
G1 F2250 X228.839 Y110.045 E147.09365
G0 F9000 X228.839 Y110.611
G1 F2250 X184.387 Y66.159 E149.18454
G0 F9000 X183.822 Y66.159
G1 F2250 X228.839 Y111.176 E151.302
G0 F9000 X228.839 Y111.742
G1 F2250 X183.256 Y66.159 E153.44609
G0 F9000 X182.69 Y66.159
G1 F2250 X228.839 Y112.308 E155.61679
G0 F9000 X228.839 Y112.874
G1 F2250 X182.125 Y66.159 E157.8141
G0 F9000 X181.559 Y66.159
G1 F2250 X228.839 Y113.439 E160.03801
G0 F9000 X228.839 Y114.005
G1 F2250 X180.993 Y66.159 E162.28854
G0 F9000 X180.428 Y66.159
G1 F2250 X228.839 Y114.571 E164.56567
G0 F9000 X228.839 Y115.136
G1 F2250 X179.862 Y66.159 E166.86939
G0 F9000 X179.296 Y66.159
G1 F2250 X228.839 Y115.702 E169.19974
G0 F9000 X228.839 Y116.268
G1 F2250 X178.731 Y66.159 E171.55669
G0 F9000 X178.165 Y66.159
G1 F2250 X228.839 Y116.833 E173.94024
G0 F9000 X228.839 Y117.399
G1 F2250 X177.599 Y66.159 E176.35042
G0 F9000 X177.034 Y66.159
G1 F2250 X228.839 Y117.965 E178.78719
G0 F9000 X228.839 Y118.53
G1 F2250 X176.468 Y66.159 E181.25056
G0 F9000 X175.902 Y66.159
G1 F2250 X228.839 Y119.096 E183.74055
G0 F9000 X228.839 Y119.662
G1 F2250 X175.337 Y66.159 E186.25715
G0 F9000 X174.771 Y66.159
G1 F2250 X228.839 Y120.227 E188.80034
G0 F9000 X228.839 Y120.793
G1 F2250 X174.205 Y66.159 E191.37016
G0 F9000 X173.639 Y66.159
G1 F2250 X228.839 Y121.359 E193.96659
G0 F9000 X228.839 Y121.925
G1 F2250 X173.074 Y66.159 E196.58963
G0 F9000 X172.508 Y66.159
G1 F2250 X228.839 Y122.49 E199.23927
G0 F9000 X228.839 Y123.056
G1 F2250 X171.942 Y66.159 E201.91553
G0 F9000 X171.377 Y66.159
G1 F2250 X228.839 Y123.622 E204.61839
G0 F9000 X228.839 Y124.187
G1 F2250 X170.811 Y66.159 E207.34785
G0 F9000 X170.245 Y66.159
G1 F2250 X228.839 Y124.753 E210.10393
G0 F9000 X228.839 Y125.319
G1 F2250 X169.68 Y66.159 E212.88661
G0 F9000 X169.114 Y66.159
G1 F2250 X228.839 Y125.884 E215.69589
G0 F9000 X228.839 Y126.45
G1 F2250 X168.548 Y66.159 E218.5318
G0 F9000 X167.983 Y66.159
G1 F2250 X228.839 Y127.016 E221.3943
G0 F9000 X228.839 Y127.581
G1 F2250 X167.417 Y66.159 E224.2834
G0 F9000 X166.851 Y66.159
G1 F2250 X228.839 Y128.147 E227.19913
G0 F9000 X228.839 Y128.713
G1 F2250 X166.286 Y66.159 E230.14145
G0 F9000 X165.72 Y66.159
G1 F2250 X228.839 Y129.278 E233.11038
G0 F9000 X228.839 Y129.844
G1 F2250 X165.154 Y66.159 E236.10593
G0 F9000 X164.589 Y66.159
G1 F2250 X228.839 Y130.41 E239.12807
G0 F9000 X228.839 Y130.975
G1 F2250 X164.023 Y66.159 E242.17682
G0 F9000 X163.457 Y66.159
G1 F2250 X228.839 Y131.541 E245.25219
G0 F9000 X228.839 Y132.107
G1 F2250 X162.891 Y66.159 E248.35418
G0 F9000 X162.326 Y66.159
G1 F2250 X228.839 Y132.673 E251.48277
G0 F9000 X228.839 Y133.238
G1 F2250 X161.76 Y66.159 E254.63796
G0 F9000 X161.194 Y66.159
G1 F2250 X228.839 Y133.804 E257.81977
G0 F9000 X228.839 Y134.37
G1 F2250 X160.629 Y66.159 E261.02819
G0 F9000 X160.063 Y66.159
G1 F2250 X228.839 Y134.935 E264.2632
G0 F9000 X228.839 Y135.501
G1 F2250 X159.497 Y66.159 E267.52483
G0 F9000 X158.932 Y66.159
G1 F2250 X228.839 Y136.067 E270.81307
G0 F9000 X228.839 Y136.632
G1 F2250 X158.366 Y66.159 E274.1279
G0 F9000 X157.8 Y66.159
G1 F2250 X228.839 Y137.198 E277.46936
G0 F9000 X228.839 Y137.764
G1 F2250 X157.235 Y66.159 E280.83741
G0 F9000 X156.669 Y66.159
G1 F2250 X228.839 Y138.329 E284.23207
G0 F9000 X228.839 Y138.895
G1 F2250 X156.103 Y66.159 E287.65335
G0 F9000 X155.538 Y66.159
G1 F2250 X228.839 Y139.461 E291.10123
G0 F9000 X228.839 Y140.026
G1 F2250 X154.972 Y66.159 E294.5757
G0 F9000 X154.406 Y66.159
G1 F2250 X228.839 Y140.592 E298.0768
G0 F9000 X228.839 Y141.158
G1 F2250 X153.84 Y66.159 E301.60453
G0 F9000 X153.275 Y66.159
G1 F2250 X228.839 Y141.723 E305.15883
G0 F9000 X228.839 Y142.289
G1 F2250 X152.709 Y66.159 E308.73975
G0 F9000 X152.143 Y66.159
G1 F2250 X228.839 Y142.855 E312.34729
G0 F9000 X228.839 Y143.421
G1 F2250 X151.578 Y66.159 E315.98144
G0 F9000 X151.012 Y66.159
G1 F2250 X228.839 Y143.986 E319.64218
G0 F9000 X228.839 Y144.552
G1 F2250 X150.446 Y66.159 E323.32955
G0 F9000 X149.881 Y66.159
G1 F2250 X228.839 Y145.118 E327.04351
G0 F9000 X228.839 Y145.683
G1 F2250 X149.315 Y66.159 E330.78408
G0 F9000 X148.749 Y66.159
G1 F2250 X228.839 Y146.249 E334.55127
G0 F9000 X228.839 Y146.815
G1 F2250 X148.184 Y66.159 E338.34505
G0 F9000 X147.618 Y66.159
G1 F2250 X228.839 Y147.38 E342.16544
G0 F9000 X228.839 Y147.946
G1 F2250 X147.052 Y66.159 E346.01245
G0 F9000 X146.487 Y66.159
G1 F2250 X228.839 Y148.512 E349.88606
G0 F9000 X228.839 Y149.077
G1 F2250 X145.921 Y66.159 E353.78627
G0 F9000 X145.355 Y66.159
G1 F2250 X228.839 Y149.643 E357.7131
G0 F9000 X228.839 Y150.209
G1 F2250 X144.79 Y66.159 E361.66653
G0 F9000 X144.224 Y66.159
G1 F2250 X228.839 Y150.774 E365.64656
G0 F9000 X228.839 Y151.34
G1 F2250 X143.658 Y66.159 E369.65321
G0 F9000 X143.092 Y66.159
G1 F2250 X228.839 Y151.906 E373.68649
G0 F9000 X228.839 Y152.472
G1 F2250 X142.527 Y66.159 E377.74636
G0 F9000 X141.961 Y66.159
G1 F2250 X228.839 Y153.037 E381.83284
G0 F9000 X228.839 Y153.603
G1 F2250 X141.395 Y66.159 E385.94594
G0 F9000 X140.83 Y66.159
G1 F2250 X228.839 Y154.169 E390.08563
G0 F9000 X228.839 Y154.734
G1 F2250 X140.264 Y66.159 E394.25193
G0 F9000 X139.698 Y66.159
G1 F2250 X228.839 Y155.3 E398.44485
G0 F9000 X228.839 Y155.866
G1 F2250 X139.133 Y66.159 E402.66437
G0 F9000 X138.567 Y66.159
G1 F2250 X228.839 Y156.431 E406.91049
G0 F9000 X228.839 Y156.997
G1 F2250 X138.001 Y66.159 E411.18323
G0 F9000 X137.436 Y66.159
G1 F2250 X228.839 Y157.563 E415.48257
G0 F9000 X228.839 Y158.128
G1 F2250 X136.87 Y66.159 E419.80851
G0 F9000 X136.304 Y66.159
G1 F2250 X228.839 Y158.694 E424.16107
G0 F9000 X228.839 Y159.26
G1 F2250 X135.739 Y66.159 E428.54023
G0 F9000 X135.173 Y66.159
G1 F2250 X228.839 Y159.825 E432.94599
G0 F9000 X228.839 Y160.391
G1 F2250 X134.607 Y66.159 E437.37838
G0 F9000 X134.041 Y66.159
G1 F2250 X228.839 Y160.957 E441.83738
G0 F9000 X228.839 Y161.522
G1 F2250 X133.476 Y66.159 E446.32297
G0 F9000 X132.91 Y66.159
G1 F2250 X228.839 Y162.088 E450.83517
G0 F9000 X228.839 Y162.654
G1 F2250 X132.344 Y66.159 E455.374
G0 F9000 X131.779 Y66.159
G1 F2250 X228.839 Y163.22 E459.93943
G0 F9000 X228.839 Y163.785
G1 F2250 X131.213 Y66.159 E464.53146
G0 F9000 X130.647 Y66.159
G1 F2250 X228.839 Y164.351 E469.15011
G0 F9000 X228.839 Y164.917
G1 F2250 X130.082 Y66.159 E473.79536
G0 F9000 X129.516 Y66.159
G1 F2250 X228.839 Y165.482 E478.46721
G0 F9000 X228.839 Y166.048
G1 F2250 X128.95 Y66.159 E483.16568
G0 F9000 X128.385 Y66.159
G1 F2250 X228.839 Y166.614 E487.89075
G0 F9000 X228.839 Y167.179
G1 F2250 X127.819 Y66.159 E492.64242
G0 F9000 X127.253 Y66.159
G1 F2250 X228.839 Y167.745 E497.42072
G0 F9000 X228.839 Y168.311
G1 F2250 X126.688 Y66.159 E502.22561
G0 F9000 X126.122 Y66.159
G1 F2250 X228.802 Y168.839 E507.05536
G0 F9000 X228.236 Y168.839
G1 F2250 X125.556 Y66.159 E511.88512
G0 F9000 X124.991 Y66.159
G1 F2250 X227.67 Y168.839 E516.71485
G0 F9000 X227.105 Y168.839
G1 F2250 X124.425 Y66.159 E521.5446
G0 F9000 X123.859 Y66.159
G1 F2250 X226.539 Y168.839 E526.37435
G0 F9000 X225.973 Y168.839
G1 F2250 X123.293 Y66.159 E531.2041
G0 F9000 X122.728 Y66.159
G1 F2250 X225.407 Y168.839 E536.03383
G0 F9000 X224.842 Y168.839
G1 F2250 X122.162 Y66.159 E540.86358
G0 F9000 X121.596 Y66.159
G1 F2250 X224.276 Y168.839 E545.69334
G0 F9000 X223.71 Y168.839
G1 F2250 X121.031 Y66.159 E550.52306
G0 F9000 X120.465 Y66.159
G1 F2250 X223.145 Y168.839 E555.35282
G0 F9000 X222.579 Y168.839
G1 F2250 X119.899 Y66.159 E560.18257
G0 F9000 X119.334 Y66.159
G1 F2250 X222.013 Y168.839 E565.0123
G0 F9000 X221.448 Y168.839
G1 F2250 X118.768 Y66.159 E569.84205
G0 F9000 X118.202 Y66.159
G1 F2250 X220.882 Y168.839 E574.6718
G0 F9000 X220.316 Y168.839
G1 F2250 X117.637 Y66.159 E579.50153
G0 F9000 X117.071 Y66.159
G1 F2250 X219.751 Y168.839 E584.33128
G0 F9000 X219.185 Y168.839
G1 F2250 X116.505 Y66.159 E589.16104
G0 F9000 X115.94 Y66.159
G1 F2250 X218.619 Y168.839 E593.99077
G0 F9000 X218.054 Y168.839
G1 F2250 X115.374 Y66.159 E598.82052
G0 F9000 X114.808 Y66.159
G1 F2250 X217.488 Y168.839 E603.65027
G0 F9000 X216.922 Y168.839
G1 F2250 X114.242 Y66.159 E608.48002
G0 F9000 X113.677 Y66.159
G1 F2250 X216.356 Y168.839 E613.30975
G0 F9000 X215.791 Y168.839
G1 F2250 X113.111 Y66.159 E618.1395
G0 F9000 X112.545 Y66.159
G1 F2250 X215.225 Y168.839 E622.96926
G0 F9000 X214.659 Y168.839
G1 F2250 X111.98 Y66.159 E627.79899
G0 F9000 X111.414 Y66.159
G1 F2250 X214.094 Y168.839 E632.62874
G0 F9000 X213.528 Y168.839
G1 F2250 X110.848 Y66.159 E637.45849
G0 F9000 X110.283 Y66.159
G1 F2250 X212.962 Y168.839 E642.28822
G0 F9000 X212.397 Y168.839
G1 F2250 X109.717 Y66.159 E647.11797
G0 F9000 X109.151 Y66.159
G1 F2250 X211.831 Y168.839 E651.94772
G0 F9000 X211.265 Y168.839
G1 F2250 X108.586 Y66.159 E656.77745
G0 F9000 X108.02 Y66.159
G1 F2250 X210.7 Y168.839 E661.60721
G0 F9000 X210.134 Y168.839
G1 F2250 X107.454 Y66.159 E666.43696
G0 F9000 X106.889 Y66.159
G1 F2250 X209.568 Y168.839 E671.26669
G0 F9000 X209.003 Y168.839
G1 F2250 X106.323 Y66.159 E676.09644
G0 F9000 X105.757 Y66.159
G1 F2250 X208.437 Y168.839 E680.92619
G0 F9000 X207.871 Y168.839
G1 F2250 X105.192 Y66.159 E685.75592
G0 F9000 X104.626 Y66.159
G1 F2250 X207.306 Y168.839 E690.58567
G0 F9000 X206.74 Y168.839
G1 F2250 X104.06 Y66.159 E695.41542
G0 F9000 X103.494 Y66.159
G1 F2250 X206.174 Y168.839 E700.24518
G0 F9000 X205.608 Y168.839
G1 F2250 X102.929 Y66.159 E705.07491
G0 F9000 X102.363 Y66.159
G1 F2250 X205.043 Y168.839 E709.90466
G0 F9000 X204.477 Y168.839
G1 F2250 X101.797 Y66.159 E714.73441
G0 F9000 X101.232 Y66.159
G1 F2250 X203.911 Y168.839 E719.56414
G0 F9000 X203.346 Y168.839
G1 F2250 X100.666 Y66.159 E724.39389
G0 F9000 X100.1 Y66.159
G1 F2250 X202.78 Y168.839 E729.22364
G0 F9000 X202.214 Y168.839
G1 F2250 X99.535 Y66.159 E734.05337
G0 F9000 X98.969 Y66.159
G1 F2250 X201.649 Y168.839 E738.88313
G0 F9000 X201.083 Y168.839
G1 F2250 X98.403 Y66.159 E743.71288
