;FLAVOR:Marlin
;TIME:7818
;Filament used: 6.40488m
;Layer height: 0.2
;MINX:64.438
;MINY:58.046
;MINZ:0.2
;MAXX:186.11
;MAXY:177.051
;MAXZ:23
;TARGET_MACHINE.NAME:Creality Ender-3
;Generated with Cura_SteamEngine 5.6.0
M140 S55
M105
M190 S55
M104 S210
M105
M109 S210
M82 ;absolute extrusion mode
; Ender 3 Custom Start G-code
G92 E0 ; Reset Extruder
G28 ; Home all axes
G1 Z2.0 F3000 ; Move Z Axis up little to prevent scratching of Heat Bed
G1 X0.1 Y20 Z0.3 F5000.0 ; Move to start position
G1 X0.1 Y200.0 Z0.3 F1500.0 E15 ; Draw the first line
G1 X0.4 Y200.0 Z0.3 F5000.0 ; Move to side a little
G1 X0.4 Y20 Z0.3 F1500.0 E30 ; Draw the second line
G92 E0 ; Reset Extruder
G1 Z2.0 F3000 ; Move Z Axis up little to prevent scratching of Heat Bed
G1 X5 Y20 Z0.3 F5000.0 ; Move over to prevent blob squish
G92 E0
G92 E0
G1 F2700 E-5
;LAYER_COUNT:115
;LAYER:0
M107
G0 F9000 X71.256 Y78.539 Z0.2
;TYPE:SKIRT
G1 F2700 E0
G1 F3000 X72.167 Y77.758 E0.03991
G1 X73.143 Y76.959 E0.08186
G1 X74.262 Y76.155 E0.12769
G1 X75.491 Y75.39 E0.17584
G1 X76.331 Y74.902 E0.20815
G1 X76.9 Y74.592 E0.2297
G1 X77.541 Y74.276 E0.25347
G1 X78.956 Y73.621 E0.30533
G1 X79.56 Y73.364 E0.32717
G1 X80.192 Y73.124 E0.34965
G1 X81.035 Y72.826 E0.37939
G1 X82.282 Y72.404 E0.42317
G1 X84.768 Y71.526 E0.51086
G1 X87.099 Y70.626 E0.59397
G1 X89.413 Y69.657 E0.67741
G1 X91.7 Y68.621 E0.76092
G1 X93.992 Y67.506 E0.84569
G1 X96.192 Y66.356 E0.92826
G1 X98.426 Y65.108 E1.01337
G1 X100.545 Y63.842 E1.09547
G1 X102.705 Y62.47 E1.18058
G1 X104.803 Y61.053 E1.26478
G1 X106.222 Y60.048 E1.32262
G1 X107.043 Y59.523 E1.35503
G1 X107.907 Y59.074 E1.38742
G1 X108.773 Y58.715 E1.4186
G1 X109.737 Y58.411 E1.45221
G1 X110.687 Y58.205 E1.48455
G1 X111.654 Y58.082 E1.51697
G1 X112.556 Y58.046 E1.54699
G1 X113.961 Y58.137 E1.59382
G1 X116.856 Y58.512 E1.69091
G1 X119.403 Y58.766 E1.77605
G1 X121.839 Y58.939 E1.85727
G1 X124.415 Y59.049 E1.94303
G1 X126.915 Y59.086 E2.02619
G1 X129.414 Y59.051 E2.10931
G1 X131.945 Y58.944 E2.19357
G1 X134.475 Y58.766 E2.27793
G1 X136.965 Y58.519 E2.36115
G1 X139.789 Y58.16 E2.45583
G1 X140.76 Y58.074 E2.48825
G1 X141.734 Y58.075 E2.52065
G1 X142.704 Y58.162 E2.55304
G1 X143.661 Y58.335 E2.58539
G1 X144.601 Y58.591 E2.61779
G1 X145.515 Y58.929 E2.6502
G1 X146.332 Y59.314 E2.68024
G1 X147.243 Y59.85 E2.7154
G1 X148.299 Y60.629 E2.75904
G1 X150.111 Y62.146 E2.83764
G1 X152.037 Y63.676 E2.91945
G1 X154.086 Y65.208 E3.00455
G1 X156.161 Y66.672 E3.08901
G1 X158.24 Y68.054 E3.17204
G1 X160.337 Y69.363 E3.25426
G1 X162.555 Y70.66 E3.33972
G1 X164.756 Y71.866 E3.42319
G1 X166.999 Y73.014 E3.507
G1 X169.235 Y74.08 E3.58939
G1 X172.593 Y75.553 E3.71135
G1 X173.486 Y75.967 E3.74409
G1 X174.21 Y76.336 E3.77112
G1 X175.07 Y76.82 E3.80394
G1 X176.027 Y77.381 E3.84083
G1 X176.557 Y77.713 E3.86163
G1 X177.2 Y78.152 E3.88753
G1 X178.518 Y79.111 E3.94174
G1 X179.059 Y79.531 E3.96452
G1 X179.574 Y79.971 E3.98705
G1 X179.956 Y80.317 E4.00419
G1 X180.599 Y80.952 E4.03425
G1 X181.274 Y81.75 E4.06901
G1 X181.833 Y82.547 E4.10139
G1 X182.286 Y83.329 E4.13145
G1 X182.728 Y84.277 E4.16624
G1 X183.058 Y85.192 E4.19859
G1 X183.29 Y86.065 E4.22864
G1 X183.468 Y87.096 E4.26344
G1 X183.544 Y88.066 E4.2958
G1 X183.537 Y89.028 E4.32779
G1 X183.487 Y89.651 E4.34858
G1 X183.403 Y90.4 E4.37365
G1 X183.207 Y91.957 E4.42584
G1 X182.964 Y94.46 E4.50949
G1 X182.794 Y96.951 E4.59253
G1 X182.69 Y99.517 E4.67794
G1 X182.66 Y101.995 E4.76037
G1 X182.702 Y104.512 E4.8441
G1 X182.814 Y107.043 E4.92836
G1 X182.995 Y109.526 E5.01116
G1 X183.251 Y112.04 E5.09521
G1 X183.574 Y114.527 E5.17863
G1 X183.972 Y117.04 E5.26325
G1 X184.437 Y119.511 E5.34688
G1 X184.96 Y121.924 E5.429
G1 X185.757 Y125.104 E5.53804
G1 X185.96 Y126.057 E5.57045
G1 X186.077 Y127.021 E5.60274
G1 X186.11 Y127.924 E5.6328
G1 X186.022 Y129.26 E5.67733
G1 X185.619 Y132.414 E5.78308
G1 X185.38 Y134.882 E5.86555
G1 X185.211 Y137.361 E5.9482
G1 X185.107 Y139.937 E6.03395
G1 X185.077 Y142.411 E6.11624
G1 X185.12 Y144.938 E6.2003
G1 X185.233 Y147.468 E6.28453
G1 X185.413 Y149.946 E6.36717
G1 X185.671 Y152.483 E6.45198
G1 X186.014 Y155.146 E6.54129
G1 X186.092 Y156.118 E6.57372
G1 X186.084 Y157.091 E6.60608
G1 X185.99 Y158.059 E6.63843
G1 X185.813 Y159.017 E6.67083
G1 X185.572 Y159.888 E6.70089
G1 X185.204 Y160.865 E6.73561
G1 X184.797 Y161.712 E6.76687
G1 X184.28 Y162.578 E6.80041
G1 X183.73 Y163.339 E6.83164
G1 X183.068 Y164.102 E6.86524
G1 X182.407 Y164.74 E6.8958
G1 X181.865 Y165.215 E6.91977
G1 X181.063 Y165.885 E6.95452
G1 X180.315 Y166.494 E6.98661
G1 X179.356 Y167.191 E7.02604
G1 X178.834 Y167.524 E7.04663
G1 X177.859 Y168.11 E7.08447
G1 X177.183 Y168.501 E7.11044
G1 X176.452 Y168.889 E7.13797
G1 X175.374 Y169.406 E7.17773
G1 X174.504 Y169.803 E7.20954
G1 X173.975 Y170.024 E7.22861
G1 X173.28 Y170.287 E7.25332
G1 X171.752 Y170.815 E7.30709
G1 X171.108 Y171.015 E7.32952
G1 X170.45 Y171.189 E7.35216
G1 X168.912 Y171.557 E7.40475
G1 X168.265 Y171.69 E7.42672
G1 X167.587 Y171.801 E7.44957
G1 X166.225 Y171.991 E7.49531
G1 X165.611 Y172.058 E7.51586
G1 X162.608 Y172.298 E7.61606
G1 X160.074 Y172.577 E7.70085
G1 X157.592 Y172.921 E7.78419
G1 X155.149 Y173.331 E7.86658
G1 X152.641 Y173.825 E7.9516
G1 X150.22 Y174.372 E8.03415
G1 X147.749 Y175.007 E8.11901
G1 X145.338 Y175.699 E8.20243
G1 X142.629 Y176.556 E8.29694
G1 X141.687 Y176.807 E8.32936
G1 X140.726 Y176.973 E8.3618
G1 X139.758 Y177.051 E8.3941
G1 X138.821 Y177.047 E8.42526
G1 X137.953 Y176.972 E8.45424
G1 X134.803 Y176.571 E8.55985
G1 X132.283 Y176.328 E8.64406
G1 X129.821 Y176.16 E8.72614
G1 X127.244 Y176.057 E8.81191
G1 X124.785 Y176.028 E8.89371
G1 X122.246 Y176.072 E8.97817
G1 X119.716 Y176.185 E9.0624
G1 X117.193 Y176.369 E9.14654
G1 X114.74 Y176.62 E9.22855
G1 X112.048 Y176.966 E9.31882
G1 X111.078 Y177.043 E9.35119
G1 X110.104 Y177.035 E9.38358
G1 X109.135 Y176.94 E9.41597
G1 X108.178 Y176.761 E9.44835
G1 X107.25 Y176.502 E9.48039
G1 X106.617 Y176.273 E9.50278
G1 X105.027 Y175.641 E9.55969
G1 X102.582 Y174.725 E9.64653
G1 X100.252 Y173.927 E9.72845
G1 X97.812 Y173.167 E9.81345
G1 X95.399 Y172.49 E9.8968
G1 X92.973 Y171.883 E9.97998
G1 X90.48 Y171.334 E10.06488
G1 X88.014 Y170.862 E10.14839
G1 X85.469 Y170.451 E10.23414
G1 X82.869 Y170.083 E10.32147
G1 X82.135 Y169.953 E10.34627
G1 X80.97 Y169.7 E10.38592
G1 X80.149 Y169.499 E10.41403
G1 X79.478 Y169.311 E10.43721
G1 X78.065 Y168.864 E10.4865
G1 X77.353 Y168.615 E10.51159
G1 X76.696 Y168.361 E10.53502
G1 X75.73 Y167.952 E10.56991
G1 X74.509 Y167.392 E10.61458
G1 X73.937 Y167.108 E10.63583
G1 X73.365 Y166.793 E10.65754
G1 X71.945 Y165.966 E10.7122
G1 X71.356 Y165.595 E10.73535
G1 X70.835 Y165.239 E10.75634
G1 X70.142 Y164.744 E10.78467
G1 X69.288 Y164.111 E10.82002
G1 X68.461 Y163.431 E10.85563
G1 X68.005 Y163.015 E10.87616
G1 X67.316 Y162.326 E10.90857
G1 X66.69 Y161.579 E10.94099
G1 X66.134 Y160.781 E10.97333
G1 X65.667 Y159.967 E11.00455
G1 X65.271 Y159.116 E11.03577
G1 X64.917 Y158.133 E11.07052
G1 X64.687 Y157.26 E11.10054
G1 X64.512 Y156.229 E11.13533
G1 X64.438 Y155.26 E11.16765
G1 X64.445 Y154.356 E11.19772
G1 X64.519 Y153.507 E11.22606
G1 X64.928 Y150.306 E11.33339
G1 X65.167 Y147.847 E11.41556
G1 X65.337 Y145.35 E11.49881
G1 X65.441 Y142.785 E11.58419
G1 X65.471 Y140.308 E11.66658
G1 X65.429 Y137.763 E11.75124
G1 X65.316 Y135.255 E11.83474
G1 X65.134 Y132.754 E11.91814
G1 X64.877 Y130.227 E12.00263
G1 X64.533 Y127.55 E12.0924
G1 X64.456 Y126.58 E12.12476
G1 X64.464 Y125.605 E12.15719
G1 X64.555 Y124.665 E12.1886
G1 X64.809 Y123.395 E12.23168
G1 X65.168 Y122.049 E12.27801
G1 X65.791 Y119.564 E12.36322
G1 X66.339 Y117.085 E12.44766
G1 X66.812 Y114.626 E12.53095
G1 X67.216 Y112.136 E12.61485
G1 X67.548 Y109.66 E12.69794
G1 X67.814 Y107.133 E12.78245
G1 X68.005 Y104.629 E12.86598
G1 X68.126 Y102.113 E12.94975
G1 X68.176 Y99.594 E13.03355
G1 X68.155 Y97.066 E13.11764
G1 X68.062 Y94.566 E13.20085
G1 X67.899 Y92.049 E13.28474
G1 X67.658 Y89.484 E13.37042
G1 X67.501 Y88.047 E13.4185
G1 X67.439 Y87.074 E13.45093
G1 X67.464 Y86.102 E13.48327
G1 X67.57 Y85.168 E13.51454
G1 X67.773 Y84.179 E13.54812
G1 X68.052 Y83.246 E13.58051
G1 X68.399 Y82.374 E13.61172
G1 X68.854 Y81.474 E13.64526
G1 X69.369 Y80.647 E13.67767
G1 X69.954 Y79.87 E13.71001
G1 X70.606 Y79.147 E13.7424
G1 X71.256 Y78.539 E13.772
G0 F9000 X71.516 Y78.843
G1 F3000 X72.42 Y78.068 E13.8116
G1 X73.396 Y77.269 E13.85355
G1 X74.473 Y76.495 E13.89767
G1 X75.692 Y75.736 E13.94543
G1 X76.522 Y75.253 E13.97737
G1 X77.077 Y74.951 E13.99838
G1 X77.709 Y74.639 E14.02182
G1 X79.113 Y73.989 E14.07328
G1 X79.702 Y73.738 E14.09458
G1 X80.325 Y73.501 E14.11675
G1 X81.163 Y73.205 E14.14631
G1 X82.41 Y72.783 E14.19009
G1 X84.909 Y71.9 E14.27825
G1 X87.243 Y70.999 E14.36146
G1 X89.567 Y70.026 E14.44526
G1 X91.875 Y68.981 E14.52952
G1 X94.167 Y67.866 E14.6143
G1 X96.377 Y66.711 E14.69724
G1 X98.621 Y65.457 E14.78273
G1 X100.759 Y64.18 E14.86556
G1 X102.919 Y62.808 E14.95067
G1 X105.027 Y61.384 E15.03528
G1 X106.438 Y60.385 E15.09279
G1 X107.228 Y59.878 E15.12401
G1 X108.06 Y59.444 E15.15522
G1 X108.926 Y59.085 E15.1864
G1 X109.822 Y58.802 E15.21765
G1 X110.738 Y58.602 E15.24883
G1 X111.67 Y58.482 E15.28009
G1 X112.572 Y58.446 E15.31011
G1 X113.91 Y58.534 E15.35471
G1 X116.805 Y58.909 E15.4518
G1 X119.368 Y59.165 E15.53747
G1 X121.822 Y59.339 E15.6193
G1 X124.398 Y59.449 E15.70506
G1 X126.915 Y59.486 E15.78878
G1 X129.431 Y59.451 E15.87247
G1 X131.962 Y59.344 E15.95673
G1 X134.506 Y59.165 E16.04155
G1 X137.016 Y58.916 E16.12544
G1 X139.825 Y58.558 E16.21963
G1 X140.76 Y58.474 E16.25085
G1 X141.699 Y58.473 E16.28208
G1 X142.634 Y58.556 E16.3133
G1 X143.557 Y58.721 E16.34449
G1 X144.463 Y58.966 E16.3757
G1 X145.344 Y59.291 E16.40694
G1 X146.161 Y59.676 E16.43698
G1 X147.006 Y60.172 E16.46956
G1 X148.042 Y60.936 E16.51238
G1 X149.854 Y62.453 E16.59098
G1 X151.797 Y63.996 E16.6735
G1 X153.855 Y65.535 E16.75897
G1 X155.93 Y66.999 E16.84344
G1 X158.028 Y68.393 E16.92722
G1 X160.135 Y69.708 E17.00982
G1 X162.363 Y71.011 E17.09567
G1 X164.564 Y72.217 E17.17914
G1 X166.827 Y73.375 E17.26369
G1 X169.068 Y74.443 E17.34626
G1 X172.425 Y75.916 E17.46819
G1 X173.304 Y76.323 E17.50041
G1 X174.014 Y76.685 E17.52691
G1 X174.868 Y77.165 E17.5595
G1 X175.815 Y77.72 E17.59601
G1 X176.331 Y78.043 E17.61625
G1 X176.965 Y78.476 E17.64179
G1 X178.273 Y79.427 E17.69558
G1 X178.799 Y79.835 E17.71772
G1 X179.306 Y80.268 E17.73989
G1 X179.675 Y80.602 E17.75645
G1 X180.318 Y81.237 E17.7865
G1 X180.947 Y81.98 E17.81888
G1 X181.487 Y82.748 E17.85011
G1 X181.94 Y83.53 E17.88017
G1 X182.352 Y84.413 E17.91258
G1 X182.671 Y85.295 E17.94377
G1 X182.903 Y86.168 E17.97381
G1 X183.069 Y87.128 E18.00622
G1 X183.144 Y88.063 E18.03742
G1 X183.138 Y88.996 E18.06845
G1 X183.089 Y89.607 E18.08884
G1 X183.006 Y90.35 E18.1137
G1 X182.81 Y91.907 E18.1659
G1 X182.566 Y94.421 E18.24991
G1 X182.394 Y96.935 E18.33372
G1 X182.29 Y99.501 E18.41913
G1 X182.26 Y101.99 E18.50192
G1 X182.302 Y104.53 E18.58642
G1 X182.414 Y107.061 E18.67068
G1 X182.597 Y109.566 E18.75422
G1 X182.854 Y112.092 E18.83867
G1 X183.177 Y114.579 E18.92208
G1 X183.579 Y117.114 E19.00745
G1 X184.046 Y119.596 E19.09145
G1 X184.569 Y122.009 E19.17357
G1 X185.217 Y124.619 E19.26301
G1 X185.366 Y125.188 E19.28258
G1 X185.563 Y126.106 E19.3138
G1 X185.677 Y127.036 E19.34497
G1 X185.71 Y127.939 E19.37502
G1 X185.625 Y129.209 E19.41736
G1 X185.222 Y132.363 E19.52311
G1 X184.982 Y134.843 E19.60598
G1 X184.811 Y137.345 E19.68939
G1 X184.707 Y139.921 E19.77514
G1 X184.677 Y142.406 E19.8578
G1 X184.72 Y144.956 E19.94262
G1 X184.833 Y147.486 E20.02685
G1 X185.015 Y149.986 E20.11023
G1 X185.274 Y152.534 E20.19541
G1 X185.615 Y155.179 E20.28411
G1 X185.692 Y156.115 E20.31535
G1 X185.686 Y157.053 E20.34655
G1 X185.597 Y157.987 E20.37775
G1 X185.427 Y158.91 E20.40897
G1 X185.186 Y159.781 E20.43902
G1 X184.843 Y160.692 E20.4714
G1 X184.436 Y161.539 E20.50266
G1 X183.955 Y162.344 E20.53385
G1 X183.427 Y163.077 E20.56389
G1 X182.79 Y163.814 E20.59629
G1 X182.129 Y164.452 E20.62685
G1 X181.608 Y164.908 E20.64988
G1 X180.81 Y165.575 E20.68447
G1 X180.062 Y166.184 E20.71655
G1 X179.141 Y166.854 E20.75443
G1 X178.628 Y167.181 E20.77466
G1 X177.659 Y167.764 E20.81228
G1 X176.995 Y168.148 E20.83779
G1 X176.279 Y168.528 E20.86475
G1 X175.208 Y169.042 E20.90426
G1 X174.349 Y169.434 E20.93566
G1 X173.834 Y169.65 E20.95424
G1 X173.149 Y169.909 E20.9786
G1 X171.633 Y170.433 E21.03195
G1 X171.005 Y170.628 E21.05382
G1 X170.357 Y170.8 E21.07612
G1 X168.831 Y171.165 E21.1283
G1 X168.2 Y171.295 E21.14973
G1 X167.532 Y171.405 E21.17225
G1 X166.181 Y171.593 E21.21762
G1 X165.579 Y171.659 E21.23776
G1 X162.565 Y171.9 E21.33832
G1 X160.03 Y172.179 E21.42315
G1 X157.537 Y172.525 E21.50686
G1 X155.077 Y172.938 E21.58982
G1 X152.553 Y173.435 E21.67539
G1 X150.132 Y173.982 E21.75794
G1 X147.649 Y174.62 E21.84321
G1 X145.217 Y175.318 E21.92736
G1 X142.525 Y176.17 E22.02127
G1 X141.618 Y176.413 E22.0525
G1 X140.693 Y176.574 E22.08373
G1 X139.759 Y176.651 E22.1149
G1 X138.855 Y176.648 E22.14497
G1 X138.004 Y176.575 E22.17338
G1 X134.854 Y176.174 E22.27899
G1 X132.312 Y175.929 E22.36393
G1 X129.837 Y175.76 E22.44644
G1 X127.26 Y175.657 E22.53222
G1 X124.783 Y175.628 E22.61461
G1 X122.228 Y175.672 E22.69961
G1 X119.698 Y175.785 E22.78384
G1 X117.156 Y175.971 E22.86861
G1 X114.689 Y176.223 E22.95109
G1 X112.016 Y176.567 E23.04073
G1 X111.081 Y176.643 E23.07193
G1 X110.142 Y176.637 E23.10316
G1 X109.208 Y176.547 E23.13437
G1 X108.285 Y176.376 E23.16559
G1 X107.386 Y176.126 E23.19663
G1 X106.765 Y175.901 E23.2186
G1 X105.175 Y175.269 E23.2755
G1 X102.722 Y174.35 E23.36263
G1 X100.371 Y173.545 E23.44528
G1 X97.931 Y172.785 E23.53028
G1 X95.496 Y172.102 E23.61439
G1 X93.059 Y171.492 E23.69795
G1 X90.566 Y170.943 E23.78285
G1 X88.081 Y170.468 E23.867
G1 X85.533 Y170.056 E23.95285
G1 X82.939 Y169.689 E24.03999
G1 X82.22 Y169.562 E24.06427
G1 X81.065 Y169.311 E24.10358
G1 X80.257 Y169.114 E24.13124
G1 X79.599 Y168.93 E24.15397
G1 X78.197 Y168.486 E24.20288
G1 X77.497 Y168.242 E24.22754
G1 X76.852 Y167.993 E24.25053
G1 X75.897 Y167.588 E24.28503
G1 X74.687 Y167.034 E24.3293
G1 X74.13 Y166.757 E24.34999
G1 X73.566 Y166.447 E24.37139
G1 X72.158 Y165.627 E24.42559
G1 X71.582 Y165.265 E24.44821
G1 X71.068 Y164.914 E24.46891
G1 X70.38 Y164.422 E24.49705
G1 X69.542 Y163.802 E24.53172
G1 X68.73 Y163.135 E24.56667
G1 X68.287 Y162.732 E24.58659
G1 X67.622 Y162.069 E24.61782
G1 X67.018 Y161.35 E24.64905
G1 X66.481 Y160.581 E24.68025
G1 X66.03 Y159.798 E24.7103
G1 X65.634 Y158.947 E24.74152
G1 X65.304 Y158.031 E24.7739
G1 X65.074 Y157.158 E24.80393
G1 X64.911 Y156.198 E24.83632
G1 X64.838 Y155.263 E24.86751
G1 X64.845 Y154.359 E24.89758
G1 X64.916 Y153.558 E24.92432
G1 X65.325 Y150.357 E25.03166
G1 X65.565 Y147.886 E25.11423
G1 X65.737 Y145.366 E25.19824
G1 X65.841 Y142.801 E25.28362
G1 X65.871 Y140.313 E25.36638
G1 X65.829 Y137.756 E25.45144
G1 X65.716 Y135.237 E25.5353
G1 X65.533 Y132.725 E25.61907
G1 X65.275 Y130.187 E25.70392
G1 X64.932 Y127.518 E25.79342
G1 X64.856 Y126.583 E25.82462
G1 X64.862 Y125.644 E25.85586
G1 X64.953 Y124.704 E25.88727
G1 X65.201 Y123.474 E25.929
G1 X65.554 Y122.152 E25.97451
G1 X66.182 Y119.65 E26.06031
G1 X66.73 Y117.171 E26.14475
G1 X67.205 Y114.702 E26.22838
G1 X67.611 Y112.2 E26.31268
G1 X67.946 Y109.702 E26.39651
G1 X68.212 Y107.175 E26.48102
G1 X68.404 Y104.659 E26.56495
G1 X68.526 Y102.132 E26.64909
G1 X68.576 Y99.602 E26.73326
G1 X68.555 Y97.063 E26.81771
G1 X68.462 Y94.551 E26.90132
G1 X68.298 Y92.023 E26.98557
G1 X68.056 Y89.44 E27.07186
G1 X67.9 Y88.021 E27.11934
G1 X67.839 Y87.084 E27.15057
G1 X67.862 Y86.146 E27.18178
G1 X67.962 Y85.248 E27.21183
G1 X68.156 Y84.293 E27.24424
G1 X68.424 Y83.394 E27.27545
G1 X68.771 Y82.522 E27.30666
G1 X69.194 Y81.685 E27.33785
G1 X69.689 Y80.887 E27.36909
G1 X70.252 Y80.137 E27.40028
G1 X70.879 Y79.439 E27.43148
G1 X71.516 Y78.843 E27.4605
G0 F9000 X71.776 Y79.147
G1 F3000 X72.673 Y78.378 E27.4998
G1 X73.649 Y77.579 E27.54175
G1 X74.684 Y76.835 E27.58414
G1 X75.893 Y76.082 E27.63152
G1 X76.713 Y75.604 E27.66308
