;FLAVOR:Marlin
;TIME:1354
;Filament used: 0.935996m
;Layer height: 0.2
;MINX:95.018
;MINY:90.83
;MINZ:0.2
;MAXX:154.986
;MAXY:144.159
;MAXZ:23
;TARGET_MACHINE.NAME:Creality Ender-3
;Generated with Cura_SteamEngine 5.6.0
M140 S55
M105
M190 S55
M104 S210
M105
M109 S210
M82 ;absolute extrusion mode
; Ender 3 Custom Start G-code
G92 E0 ; Reset Extruder
G28 ; Home all axes
G1 Z2.0 F3000 ; Move Z Axis up little to prevent scratching of Heat Bed
G1 X0.1 Y20 Z0.3 F5000.0 ; Move to start position
G1 X0.1 Y200.0 Z0.3 F1500.0 E15 ; Draw the first line
G1 X0.4 Y200.0 Z0.3 F5000.0 ; Move to side a little
G1 X0.4 Y20 Z0.3 F1500.0 E30 ; Draw the second line
G92 E0 ; Reset Extruder
G1 Z2.0 F3000 ; Move Z Axis up little to prevent scratching of Heat Bed
G1 X5 Y20 Z0.3 F5000.0 ; Move over to prevent blob squish
G92 E0
G92 E0
G1 F2700 E-5
;LAYER_COUNT:115
;LAYER:0
M107
G0 F9000 X103.209 Y100.221 Z0.2
;TYPE:SKIRT
G1 F2700 E0
G1 F3000 X104.133 Y99.311 E0.04313
G1 X105.013 Y98.548 E0.08187
G1 X106.921 Y96.96 E0.16444
G1 X107.476 Y96.513 E0.18814
G1 X108.494 Y95.788 E0.22971
G1 X109.72 Y95.025 E0.27774
G1 X110.579 Y94.526 E0.31078
G1 X111.308 Y94.139 E0.33823
G1 X112.554 Y93.541 E0.3842
G1 X113.279 Y93.212 E0.41068
G1 X114.087 Y92.882 E0.43971
G1 X115.362 Y92.426 E0.48474
G1 X116.092 Y92.179 E0.51038
G1 X116.686 Y91.998 E0.53103
G1 X117.359 Y91.82 E0.55418
G1 X118.665 Y91.508 E0.59884
G1 X119.41 Y91.358 E0.62412
G1 X120.719 Y91.144 E0.66823
G1 X121.641 Y91.018 E0.69918
G1 X122.301 Y90.954 E0.72124
G1 X123.838 Y90.855 E0.77247
G1 X124.401 Y90.835 E0.7912
G1 X125.005 Y90.83 E0.81129
G1 X126.132 Y90.854 E0.84879
G1 X127.255 Y90.912 E0.88619
G1 X127.884 Y90.967 E0.90719
G1 X128.89 Y91.085 E0.94088
G1 X130.028 Y91.251 E0.97913
G1 X130.739 Y91.381 E1.00317
G1 X131.805 Y91.616 E1.03947
G1 X132.715 Y91.839 E1.07064
G1 X133.324 Y92.009 E1.09167
G1 X134.354 Y92.331 E1.12756
G1 X135.402 Y92.69 E1.1644
G1 X136.116 Y92.965 E1.18985
G1 X137.163 Y93.414 E1.22774
G1 X138.27 Y93.923 E1.26827
G1 X138.836 Y94.207 E1.28933
G1 X139.4 Y94.515 E1.3107
G1 X140.918 Y95.399 E1.36913
G1 X141.45 Y95.738 E1.39011
G1 X142.04 Y96.144 E1.41393
G1 X143.329 Y97.082 E1.46695
G1 X143.88 Y97.512 E1.4902
G1 X144.374 Y97.933 E1.51179
G1 X145.589 Y99.018 E1.56597
G1 X146.505 Y99.948 E1.60938
G1 X147.256 Y100.812 E1.64746
G1 X148.893 Y102.785 E1.73273
G1 X149.297 Y103.286 E1.75413
G1 X150.032 Y104.317 E1.79625
G1 X150.77 Y105.504 E1.84273
G1 X151.263 Y106.344 E1.87513
G1 X151.587 Y106.943 E1.89778
G1 X151.913 Y107.605 E1.92232
G1 X152.56 Y109.006 E1.97365
G1 X152.811 Y109.596 E1.99497
G1 X153.028 Y110.168 E2.01532
G1 X153.384 Y111.173 E2.05078
G1 X153.629 Y111.899 E2.07627
G1 X153.81 Y112.485 E2.09667
G1 X153.986 Y113.151 E2.11958
G1 X154.347 Y114.666 E2.17138
G1 X154.487 Y115.357 E2.19483
G1 X154.603 Y116.072 E2.21892
G1 X154.784 Y117.375 E2.26267
G1 X154.862 Y118.165 E2.28908
G1 X154.971 Y119.97 E2.34922
G1 X154.986 Y120.535 E2.36802
G1 X154.985 Y121.174 E2.38927
G1 X154.94 Y122.413 E2.43051
G1 X154.901 Y123.072 E2.45247
G1 X154.848 Y123.683 E2.47287
G1 X154.703 Y124.887 E2.5132
G1 X154.561 Y125.849 E2.54554
G1 X154.449 Y126.473 E2.56663
G1 X154.285 Y127.24 E2.59272
G1 X154.001 Y128.426 E2.63328
G1 X153.809 Y129.118 E2.65716
G1 X153.471 Y130.199 E2.69483
G1 X153.158 Y131.12 E2.72719
G1 X152.881 Y131.842 E2.75291
G1 X152.279 Y133.247 E2.80375
G1 X151.904 Y134.06 E2.83353
G1 X151.595 Y134.674 E2.85639
G1 X151.259 Y135.285 E2.87958
G1 X150.471 Y136.636 E2.9316
G1 X150.092 Y137.239 E2.95529
G1 X149.66 Y137.869 E2.98069
G1 X148.739 Y139.136 E3.03279
G1 X148.328 Y139.664 E3.05505
G1 X147.865 Y140.202 E3.07865
G1 X147.509 Y140.592 E3.09622
G1 X146.821 Y141.281 E3.1286
G1 X146.074 Y141.907 E3.16102
G1 X145.276 Y142.463 E3.19337
G1 X144.462 Y142.93 E3.22458
G1 X143.611 Y143.326 E3.2558
G1 X142.628 Y143.68 E3.29055
G1 X141.755 Y143.91 E3.32058
G1 X140.724 Y144.085 E3.35536
G1 X139.754 Y144.159 E3.38771
G1 X138.851 Y144.152 E3.41775
G1 X138.006 Y144.078 E3.44596
G1 X134.803 Y143.67 E3.55335
G1 X132.283 Y143.427 E3.63756
G1 X129.821 Y143.259 E3.71964
G1 X127.244 Y143.156 E3.80541
G1 X124.785 Y143.127 E3.88721
G1 X122.246 Y143.171 E3.97167
G1 X119.716 Y143.284 E4.0559
G1 X117.193 Y143.468 E4.14004
G1 X114.714 Y143.722 E4.22292
G1 X112.065 Y144.063 E4.31175
G1 X111.093 Y144.141 E4.34419
G1 X110.12 Y144.133 E4.37655
G1 X109.15 Y144.039 E4.40896
G1 X108.194 Y143.86 E4.44131
G1 X107.256 Y143.597 E4.47371
G1 X106.345 Y143.252 E4.50611
G1 X105.469 Y142.828 E4.53848
G1 X104.632 Y142.327 E4.57093
G1 X103.845 Y141.755 E4.60329
G1 X103.108 Y141.113 E4.6358
G1 X102.366 Y140.336 E4.67153
G1 X101.586 Y139.427 E4.71137
G1 X100.744 Y138.397 E4.75562
G1 X100.004 Y137.369 E4.79775
G1 X99.286 Y136.218 E4.84287
G1 X98.743 Y135.292 E4.87857
G1 X98.453 Y134.762 E4.89866
G1 X98.131 Y134.117 E4.92264
G1 X97.532 Y132.827 E4.96995
G1 X97.227 Y132.099 E4.9962
G1 X96.774 Y130.899 E5.03886
G1 X96.385 Y129.771 E5.07855
G1 X96.2 Y129.168 E5.09952
G1 X96.01 Y128.458 E5.12397
G1 X95.696 Y127.147 E5.16881
G1 X95.544 Y126.393 E5.19439
G1 X95.298 Y124.874 E5.24557
G1 X95.207 Y124.175 E5.26902
G1 X95.139 Y123.471 E5.29254
G1 X95.039 Y121.873 E5.34579
G1 X95.019 Y121.236 E5.36699
G1 X95.018 Y120.601 E5.38811
G1 X95.061 Y119.248 E5.43313
G1 X95.106 Y118.502 E5.45799
G1 X95.16 Y117.887 E5.47852
G1 X95.308 Y116.665 E5.51947
G1 X95.422 Y115.896 E5.54532
G1 X95.547 Y115.213 E5.56842
G1 X95.88 Y113.688 E5.62033
G1 X96.02 Y113.126 E5.6396
G1 X96.191 Y112.524 E5.66041
G1 X96.642 Y111.095 E5.71025
G1 X96.898 Y110.365 E5.73598
G1 X97.152 Y109.708 E5.75941
G1 X97.536 Y108.801 E5.79217
G1 X98.093 Y107.587 E5.83659
G1 X98.356 Y107.059 E5.85621
G1 X98.744 Y106.345 E5.88324
G1 X99.561 Y104.947 E5.9371
G1 X99.917 Y104.378 E5.95942
G1 X100.301 Y103.82 E5.98195
G1 X101.273 Y102.483 E6.03693
G1 X101.696 Y101.941 E6.05979
G1 X102.185 Y101.364 E6.08495
G1 X103.209 Y100.221 E6.13599
G0 F9000 X103.49 Y100.506
G1 F3000 X104.414 Y99.596 E6.17913
G1 X105.269 Y98.855 E6.21676
G1 X107.172 Y97.271 E6.29911
G1 X107.708 Y96.839 E6.322
G1 X108.705 Y96.128 E6.36273
G1 X109.921 Y95.371 E6.41037
G1 X110.767 Y94.879 E6.44293
G1 X111.481 Y94.5 E6.46981
G1 X112.72 Y93.905 E6.51553
G1 X113.43 Y93.582 E6.54147
G1 X114.222 Y93.259 E6.56992
G1 X115.49 Y92.805 E6.61471
G1 X116.209 Y92.562 E6.63996
G1 X116.789 Y92.385 E6.66013
G1 X117.452 Y92.209 E6.68294
G1 X118.744 Y91.9 E6.72712
G1 X119.475 Y91.753 E6.75192
G1 X120.773 Y91.54 E6.79567
G1 X121.68 Y91.416 E6.82612
G1 X122.327 Y91.353 E6.84774
G1 X123.853 Y91.255 E6.8986
G1 X124.404 Y91.235 E6.91694
G1 X124.997 Y91.23 E6.93666
G1 X126.111 Y91.253 E6.97372
G1 X127.22 Y91.31 E7.01066
G1 X127.837 Y91.364 E7.03126
G1 X128.832 Y91.481 E7.06458
G1 X129.956 Y91.645 E7.10236
G1 X130.653 Y91.772 E7.12592
G1 X131.71 Y92.004 E7.16192
G1 X132.607 Y92.224 E7.19264
G1 X133.205 Y92.391 E7.21329
G1 X134.225 Y92.71 E7.24883
G1 X135.258 Y93.063 E7.28514
G1 X135.958 Y93.333 E7.31009
G1 X137.005 Y93.782 E7.34798
G1 X138.091 Y94.281 E7.38774
G1 X138.644 Y94.558 E7.40831
G1 X139.199 Y94.861 E7.42934
G1 X140.703 Y95.736 E7.48721
G1 X141.223 Y96.067 E7.50771
G1 X141.805 Y96.468 E7.53122
G1 X143.083 Y97.397 E7.58377
G1 X143.621 Y97.817 E7.60647
G1 X144.108 Y98.231 E7.62773
G1 X145.304 Y99.299 E7.68106
G1 X146.22 Y100.229 E7.72448
G1 X146.948 Y101.068 E7.76142
G1 X148.582 Y103.036 E7.8465
G1 X148.971 Y103.518 E7.8671
G1 X149.692 Y104.528 E7.90838
G1 X150.425 Y105.706 E7.95452
G1 X150.911 Y106.535 E7.98648
G1 X151.228 Y107.12 E8.00861
G1 X151.55 Y107.773 E8.03283
G1 X152.192 Y109.163 E8.08375
G1 X152.437 Y109.738 E8.10454
G1 X152.651 Y110.301 E8.12458
G1 X153.005 Y111.301 E8.15986
G1 X153.247 Y112.017 E8.185
G1 X153.423 Y112.588 E8.20487
G1 X153.597 Y113.244 E8.22744
G1 X153.955 Y114.746 E8.2788
G1 X154.092 Y115.421 E8.30171
G1 X154.207 Y116.127 E8.3255
G1 X154.386 Y117.415 E8.36875
G1 X154.463 Y118.189 E8.39462
G1 X154.571 Y119.981 E8.45433
G1 X154.586 Y120.534 E8.47273
G1 X154.585 Y121.16 E8.49355
G1 X154.541 Y122.39 E8.53449
G1 X154.503 Y123.037 E8.55604
G1 X154.451 Y123.635 E8.57601
G1 X154.307 Y124.829 E8.61601
G1 X154.167 Y125.779 E8.64795
G1 X154.058 Y126.389 E8.66856
G1 X153.896 Y127.147 E8.69434
G1 X153.615 Y128.319 E8.73442
G1 X153.427 Y128.999 E8.75789
G1 X153.092 Y130.07 E8.79521
G1 X152.779 Y130.991 E8.82756
G1 X152.513 Y131.684 E8.85225
G1 X151.911 Y133.089 E8.90309
G1 X151.547 Y133.88 E8.93205
G1 X151.245 Y134.481 E8.95442
G1 X150.913 Y135.083 E8.97729
G1 X150.125 Y136.434 E9.02931
G1 X149.762 Y137.013 E9.05204
G1 X149.336 Y137.634 E9.07709
G1 X148.423 Y138.89 E9.12873
G1 X148.012 Y139.418 E9.15099
G1 X147.569 Y139.933 E9.17358
G1 X147.226 Y140.31 E9.19053
G1 X146.564 Y140.975 E9.22174
G1 X145.845 Y141.579 E9.25297
G1 X145.076 Y142.116 E9.28417
G1 X144.293 Y142.567 E9.31422
G1 X143.442 Y142.963 E9.34544
G1 X142.526 Y143.293 E9.37783
G1 X141.653 Y143.523 E9.40785
G1 X140.693 Y143.686 E9.44024
G1 X139.757 Y143.759 E9.47146
G1 X138.854 Y143.752 E9.5015
G1 X138.057 Y143.681 E9.52811
G1 X134.854 Y143.273 E9.63551
G1 X132.312 Y143.028 E9.72044
G1 X129.837 Y142.859 E9.80296
G1 X127.26 Y142.756 E9.88874
G1 X124.783 Y142.727 E9.97113
G1 X122.228 Y142.771 E10.05612
G1 X119.698 Y142.884 E10.14035
G1 X117.156 Y143.07 E10.22512
G1 X114.663 Y143.325 E10.30847
G1 X112.032 Y143.664 E10.3967
G1 X111.096 Y143.741 E10.42794
G1 X110.158 Y143.735 E10.45914
G1 X109.223 Y143.646 E10.49038
G1 X108.301 Y143.475 E10.52157
G1 X107.397 Y143.223 E10.55278
G1 X106.519 Y142.892 E10.58399
G1 X105.674 Y142.484 E10.6152
G1 X104.867 Y142.003 E10.64645
G1 X104.107 Y141.453 E10.67765
G1 X103.397 Y140.837 E10.70891
G1 X102.67 Y140.076 E10.74392
G1 X101.896 Y139.174 E10.78345
G1 X101.069 Y138.163 E10.82689
G1 X100.329 Y137.135 E10.86902
G1 X99.631 Y136.016 E10.91289
G1 X99.094 Y135.1 E10.9482
G1 X98.811 Y134.583 E10.9678
G1 X98.494 Y133.948 E10.99141
G1 X97.901 Y132.672 E11.03821
G1 X97.601 Y131.958 E11.06397
G1 X97.152 Y130.769 E11.10624
G1 X96.767 Y129.653 E11.14551
G1 X96.586 Y129.065 E11.16597
G1 X96.399 Y128.365 E11.19007
G1 X96.088 Y127.068 E11.23443
G1 X95.939 Y126.329 E11.2595
G1 X95.695 Y124.822 E11.31028
G1 X95.605 Y124.136 E11.33329
G1 X95.538 Y123.446 E11.35635
G1 X95.439 Y121.86 E11.4092
G1 X95.419 Y121.235 E11.43
G1 X95.418 Y120.614 E11.45065
G1 X95.46 Y119.272 E11.49531
G1 X95.504 Y118.537 E11.5198
G1 X95.557 Y117.935 E11.5399
G1 X95.704 Y116.724 E11.58047
G1 X95.818 Y115.955 E11.60633
G1 X95.938 Y115.298 E11.62854
G1 X96.268 Y113.785 E11.68005
G1 X96.405 Y113.235 E11.6989
G1 X96.572 Y112.645 E11.7193
G1 X97.02 Y111.227 E11.76876
G1 X97.271 Y110.509 E11.79405
G1 X97.52 Y109.864 E11.81705
G1 X97.9 Y108.968 E11.84942
G1 X98.451 Y107.765 E11.89343
G1 X98.707 Y107.25 E11.91256
G1 X99.089 Y106.547 E11.93917
G1 X99.9 Y105.159 E11.99264
G1 X100.246 Y104.605 E12.01436
G1 X100.625 Y104.055 E12.03658
G1 X101.589 Y102.729 E12.0911
G1 X102.001 Y102.2 E12.1134
G1 X102.483 Y101.631 E12.13821
G1 X103.49 Y100.506 E12.18842
G0 F9000 X103.771 Y100.791
G1 F3000 X104.695 Y99.881 E12.23156
G1 X105.525 Y99.162 E12.26808
G1 X107.423 Y97.582 E12.35022
G1 X107.94 Y97.165 E12.37231
G1 X108.916 Y96.468 E12.4122
G1 X110.122 Y95.717 E12.45946
G1 X110.955 Y95.232 E12.49152
G1 X111.654 Y94.861 E12.51784
G1 X112.886 Y94.269 E12.5633
G1 X113.581 Y93.952 E12.5887
G1 X114.357 Y93.636 E12.61657
G1 X115.618 Y93.184 E12.66113
G1 X116.326 Y92.945 E12.68598
G1 X116.892 Y92.772 E12.70566
G1 X117.545 Y92.598 E12.72814
G1 X118.823 Y92.292 E12.77185
G1 X119.54 Y92.148 E12.79617
G1 X120.827 Y91.936 E12.83956
G1 X121.719 Y91.814 E12.8695
G1 X122.353 Y91.752 E12.89069
G1 X123.868 Y91.655 E12.94118
G1 X124.407 Y91.635 E12.95912
G1 X124.989 Y91.63 E12.97848
G1 X126.091 Y91.652 E13.01514
G1 X127.185 Y91.708 E13.05157
G1 X127.79 Y91.761 E13.07177
G1 X128.775 Y91.877 E13.10476
G1 X129.884 Y92.038 E13.14203
G1 X130.567 Y92.163 E13.16513
G1 X131.615 Y92.393 E13.20081
G1 X132.499 Y92.609 E13.23108
G1 X133.086 Y92.773 E13.25135
G1 X134.096 Y93.089 E13.28655
G1 X135.114 Y93.436 E13.32232
G1 X135.801 Y93.701 E13.34681
G1 X136.838 Y94.145 E13.38433
G1 X137.912 Y94.639 E13.42365
G1 X138.452 Y94.909 E13.44373
G1 X139 Y95.208 E13.46449
G1 X139.892 Y95.72 E13.4987
G1 X140.488 Y96.074 E13.52176
G1 X140.996 Y96.397 E13.54178
G1 X141.57 Y96.792 E13.56495
G1 X142.837 Y97.713 E13.61705
G1 X143.362 Y98.122 E13.63919
G1 X143.842 Y98.529 E13.66012
G1 X145.019 Y99.58 E13.7126
G1 X145.935 Y100.51 E13.75602
G1 X146.64 Y101.324 E13.79183
G1 X148.271 Y103.287 E13.87672
G1 X148.646 Y103.751 E13.89656
G1 X149.352 Y104.739 E13.93695
G1 X150.08 Y105.908 E13.98275
G1 X150.559 Y106.726 E14.01428
G1 X150.869 Y107.297 E14.03589
G1 X151.187 Y107.941 E14.05978
G1 X151.824 Y109.32 E14.1103
G1 X152.063 Y109.88 E14.13055
G1 X152.274 Y110.435 E14.1503
G1 X152.626 Y111.429 E14.18538
G1 X152.865 Y112.135 E14.21017
G1 X153.036 Y112.691 E14.22951
G1 X153.208 Y113.337 E14.25175
G1 X153.563 Y114.826 E14.30266
G1 X153.697 Y115.486 E14.32506
G1 X153.811 Y116.182 E14.34852
G1 X153.988 Y117.455 E14.39126
G1 X154.064 Y118.213 E14.4166
G1 X154.171 Y119.992 E14.47588
G1 X154.186 Y120.533 E14.49388
G1 X154.185 Y121.146 E14.51427
G1 X154.142 Y122.367 E14.5549
G1 X154.105 Y123.002 E14.57606
G1 X154.054 Y123.587 E14.59559
G1 X153.911 Y124.771 E14.63526
G1 X153.773 Y125.709 E14.66679
G1 X153.667 Y126.305 E14.68693
G1 X153.507 Y127.054 E14.7124
G1 X153.229 Y128.213 E14.75204
G1 X153.045 Y128.88 E14.77505
G1 X152.713 Y129.941 E14.81203
G1 X152.4 Y130.862 E14.84438
G1 X152.145 Y131.527 E14.86807
G1 X151.548 Y132.922 E14.91854
G1 X151.189 Y133.701 E14.94707
G1 X150.895 Y134.288 E14.9689
G1 X150.567 Y134.882 E14.99147
G1 X149.786 Y136.222 E15.04306
G1 X149.432 Y136.787 E15.06523
G1 X149.012 Y137.399 E15.08992
G1 X148.107 Y138.644 E15.14112
G1 X147.696 Y139.172 E15.16337
G1 X147.273 Y139.664 E15.18495
G1 X146.942 Y140.028 E15.20131
G1 X146.306 Y140.669 E15.23135
G1 X145.615 Y141.251 E15.2614
G1 X144.876 Y141.769 E15.29141
G1 X144.093 Y142.22 E15.32147
G1 X143.274 Y142.6 E15.3515
G1 X142.424 Y142.906 E15.38154
G1 X141.551 Y143.136 E15.41157
G1 X140.661 Y143.287 E15.44159
G1 X139.76 Y143.359 E15.47166
G1 X138.857 Y143.352 E15.50169
G1 X138.108 Y143.284 E15.52671
G1 X134.905 Y142.876 E15.6341
G1 X132.341 Y142.629 E15.71977
G1 X129.853 Y142.459 E15.80272
G1 X127.276 Y142.356 E15.8885
G1 X124.781 Y142.327 E15.97149
G1 X122.21 Y142.371 E16.05701
G1 X119.68 Y142.484 E16.14124
G1 X117.119 Y142.672 E16.22665
G1 X114.612 Y142.928 E16.31047
G1 X111.998 Y143.265 E16.39813
G1 X111.098 Y143.341 E16.42817
G1 X110.195 Y143.337 E16.4582
G1 X109.296 Y143.253 E16.48824
G1 X108.408 Y143.089 E16.51827
G1 X107.537 Y142.848 E16.54833
G1 X106.692 Y142.531 E16.57835
G1 X105.878 Y142.14 E16.60838
G1 X105.101 Y141.679 E16.63843
G1 X104.369 Y141.151 E16.66845
G1 X103.686 Y140.56 E16.69849
G1 X102.974 Y139.816 E16.73274
G1 X102.206 Y138.921 E16.77197
G1 X101.394 Y137.929 E16.8146
G1 X100.654 Y136.901 E16.85673
G1 X99.976 Y135.814 E16.89934
G1 X99.445 Y134.908 E16.93427
G1 X99.169 Y134.404 E16.95338
G1 X98.857 Y133.779 E16.97662
G1 X98.27 Y132.517 E17.02291
G1 X97.975 Y131.817 E17.04817
G1 X97.53 Y130.638 E17.09009
G1 X97.149 Y129.535 E17.1289
G1 X96.968 Y128.947 E17.14936
G1 X96.788 Y128.272 E17.1726
G1 X96.48 Y126.989 E17.21648
G1 X96.334 Y126.265 E17.24105
G1 X96.092 Y124.769 E17.29145
G1 X96.003 Y124.097 E17.314
G1 X95.937 Y123.421 E17.33659
G1 X95.839 Y121.847 E17.38904
G1 X95.819 Y121.234 E17.40944
G1 X95.818 Y120.626 E17.42966
G1 X95.859 Y119.296 E17.47392
G1 X95.902 Y118.572 E17.49804
G1 X95.954 Y117.983 E17.51771
G1 X96.1 Y116.783 E17.55792
G1 X96.212 Y116.027 E17.58334
G1 X96.329 Y115.383 E17.60511
G1 X96.656 Y113.882 E17.6562
G1 X96.79 Y113.344 E17.67464
G1 X96.953 Y112.766 E17.69462
G1 X97.398 Y111.359 E17.7437
G1 X97.644 Y110.653 E17.76856
G1 X97.888 Y110.02 E17.79113
G1 X98.264 Y109.135 E17.82311
G1 X98.815 Y107.932 E17.86712
G1 X99.058 Y107.441 E17.88534
G1 X99.434 Y106.749 E17.91153
G1 X100.239 Y105.371 E17.96461
G1 X100.576 Y104.832 E17.98576
G1 X100.949 Y104.29 E18.00764
G1 X101.905 Y102.975 E18.06171
G1 X102.317 Y102.446 E18.08401
