;FLAVOR:Marlin
;TIME:1328
;Filament used: 0.120065m
;Layer height: 0.12
;MINX:98.693
;MINY:101.98
;MINZ:0.12
;MAXX:151.309
;MAXY:132.659
;MAXZ:11.52
;TARGET_MACHINE.NAME:Creality Ender-3
;Generated with Cura_SteamEngine 5.6.0
M140 S50
M105
M190 S50
M104 S210
M105
M109 S210
M82 ;absolute extrusion mode
; Ender 3 Custom Start G-code
G92 E0 ; Reset Extruder
G28 ; Home all axes
G1 Z2.0 F3000 ; Move Z Axis up little to prevent scratching of Heat Bed
G1 X0.1 Y20 Z0.3 F5000.0 ; Move to start position
G1 X0.1 Y200.0 Z0.3 F1500.0 E15 ; Draw the first line
G1 X0.4 Y200.0 Z0.3 F5000.0 ; Move to side a little
G1 X0.4 Y20 Z0.3 F1500.0 E30 ; Draw the second line
G92 E0 ; Reset Extruder
G1 Z2.0 F3000 ; Move Z Axis up little to prevent scratching of Heat Bed
G1 X5 Y20 Z0.3 F5000.0 ; Move over to prevent blob squish
G92 E0
G92 E0
G1 F2700 E-5
;LAYER_COUNT:96
;LAYER:0
M107
G0 F6000 X101.935 Y108.596 Z0.12
;TYPE:SKIRT
G1 F2700 E0
G1 F1200 X102.839 Y107.762 E0.01227
G1 X103.066 Y107.577 E0.01519
G1 X103.809 Y107.025 E0.02443
G1 X104.624 Y106.525 E0.03397
G1 X105.708 Y106.003 E0.04598
G1 X106.018 Y105.876 E0.04932
G1 X106.863 Y105.571 E0.05828
G1 X107.794 Y105.327 E0.06789
G1 X108.286 Y105.233 E0.07288
G1 X110.683 Y104.837 E0.09713
G1 X113.172 Y104.357 E0.12242
G1 X115.643 Y103.807 E0.14768
G1 X118.128 Y103.18 E0.17325
G1 X119.773 Y102.725 E0.19028
G1 X120.964 Y102.384 E0.20264
G1 X121.874 Y102.166 E0.21198
G1 X122.799 Y102.031 E0.22131
G1 X123.696 Y101.98 E0.23027
G1 X124.916 Y102.033 E0.24246
G1 X125.816 Y102.131 E0.25149
G1 X126.494 Y102.222 E0.25831
G1 X127.826 Y102.492 E0.27188
G1 X128.873 Y102.777 E0.2827
G1 X131.722 Y103.584 E0.31225
G1 X134.169 Y104.2 E0.33743
G1 X136.665 Y104.754 E0.36294
G1 X139.134 Y105.229 E0.38803
G1 X141.195 Y105.573 E0.40887
G1 X142.183 Y105.783 E0.41895
G1 X143.321 Y106.14 E0.43085
G1 X143.887 Y106.351 E0.43688
G1 X144.747 Y106.715 E0.4462
G1 X145.541 Y107.137 E0.45517
G1 X146.441 Y107.731 E0.46593
G1 X146.73 Y107.944 E0.46951
G1 X147.444 Y108.52 E0.47867
G1 X148.127 Y109.182 E0.48816
G1 X148.716 Y109.861 E0.49713
G1 X149.47 Y110.943 E0.51029
G1 X149.679 Y111.289 E0.51432
G1 X150.127 Y112.109 E0.52364
G1 X150.503 Y112.972 E0.53303
G1 X150.893 Y114.218 E0.54606
G1 X150.966 Y114.517 E0.54913
G1 X151.147 Y115.439 E0.55851
G1 X151.259 Y116.633 E0.57047
G1 X151.295 Y117.66 E0.58073
G1 X151.309 Y118.681 E0.59092
G1 X151.278 Y119.614 E0.60023
G1 X151.163 Y120.542 E0.60956
G1 X150.975 Y121.421 E0.61853
G1 X150.543 Y122.725 E0.63224
G1 X150.397 Y123.087 E0.63613
G1 X150.007 Y123.937 E0.64546
G1 X149.544 Y124.745 E0.65476
G1 X149.093 Y125.402 E0.66271
G1 X148.916 Y125.64 E0.66567
G1 X148.336 Y126.35 E0.67482
G1 X147.659 Y127.041 E0.68447
G1 X147.022 Y127.628 E0.69311
G1 X146.523 Y128.063 E0.69972
G1 X145.791 Y128.646 E0.70905
G1 X145.011 Y129.16 E0.71837
G1 X144.221 Y129.588 E0.72734
G1 X143.232 Y130.009 E0.73806
G1 X142.875 Y130.139 E0.74186
G1 X142.018 Y130.41 E0.75082
G1 X141.08 Y130.618 E0.76041
G1 X140.585 Y130.692 E0.76541
G1 X139.876 Y130.775 E0.77253
G1 X136.747 Y131.074 E0.80389
G1 X134.265 Y131.387 E0.82885
G1 X131.722 Y131.783 E0.85453
G1 X129.364 Y132.216 E0.87845
G1 X128.09 Y132.466 E0.89141
G1 X127.165 Y132.604 E0.90074
G1 X126.268 Y132.659 E0.90971
G1 X125.334 Y132.633 E0.91903
G1 X124.102 Y132.471 E0.93143
G1 X120.98 Y131.873 E0.96315
G1 X118.505 Y131.475 E0.98816
G1 X115.979 Y131.143 E1.01358
G1 X113.444 Y130.882 E1.03901
G1 X110.038 Y130.633 E1.07309
G1 X108.878 Y130.483 E1.08476
G1 X108.568 Y130.424 E1.08791
G1 X107.66 Y130.209 E1.09722
G1 X106.776 Y129.915 E1.10651
G1 X105.978 Y129.576 E1.11516
G1 X105.158 Y129.165 E1.12431
G1 X104.344 Y128.662 E1.13386
G1 X103.415 Y127.949 E1.14555
G1 X102.775 Y127.394 E1.154
G1 X102.386 Y127.039 E1.15926
G1 X101.737 Y126.392 E1.1684
G1 X101.121 Y125.657 E1.17797
G1 X100.437 Y124.645 E1.19016
G1 X100.198 Y124.24 E1.19485
G1 X99.758 Y123.416 E1.20417
G1 X99.394 Y122.557 E1.21348
G1 X99.107 Y121.668 E1.2228
G1 X98.897 Y120.753 E1.23217
G1 X98.757 Y119.865 E1.24114
G1 X98.693 Y118.478 E1.25499
G1 X98.723 Y116.936 E1.27038
G1 X98.763 Y115.951 E1.28022
G1 X98.844 Y115.02 E1.28954
G1 X99.007 Y114.105 E1.29881
G1 X99.175 Y113.456 E1.3055
G1 X99.268 Y113.141 E1.30878
G1 X99.571 Y112.258 E1.3181
G1 X99.956 Y111.397 E1.32751
G1 X100.601 Y110.288 E1.34031
G1 X100.771 Y110.034 E1.34336
G1 X101.304 Y109.31 E1.35233
G1 X101.935 Y108.596 E1.36184
G0 F6000 X102.071 Y108.743
G1 F1200 X102.966 Y107.917 E1.37399
G1 X103.185 Y107.738 E1.37681
G1 X103.928 Y107.186 E1.38605
G1 X104.711 Y106.705 E1.39522
G1 X105.784 Y106.188 E1.4071
G1 X106.086 Y106.064 E1.41036
G1 X106.931 Y105.759 E1.41932
G1 X107.832 Y105.523 E1.42861
G1 X108.319 Y105.43 E1.43356
G1 X110.716 Y105.034 E1.4578
G1 X113.214 Y104.552 E1.48319
G1 X115.692 Y104.001 E1.50852
G1 X118.177 Y103.374 E1.53409
G1 X119.826 Y102.918 E1.55116
G1 X121.011 Y102.578 E1.56346
G1 X121.903 Y102.364 E1.57262
G1 X122.81 Y102.231 E1.58176
G1 X123.707 Y102.18 E1.59073
G1 X124.894 Y102.232 E1.60258
G1 X125.789 Y102.329 E1.61156
G1 X126.454 Y102.418 E1.61826
G1 X127.774 Y102.685 E1.6317
G1 X128.818 Y102.969 E1.64249
G1 X131.673 Y103.778 E1.6721
G1 X134.12 Y104.394 E1.69728
G1 X136.627 Y104.95 E1.7229
G1 X139.101 Y105.426 E1.74804
G1 X141.153 Y105.769 E1.7688
G1 X142.141 Y105.979 E1.77888
G1 X143.251 Y106.327 E1.79049
G1 X143.809 Y106.535 E1.79643
G1 X144.653 Y106.892 E1.80557
G1 X145.447 Y107.314 E1.81454
G1 X146.322 Y107.892 E1.82501
G1 X146.604 Y108.1 E1.8285
G1 X147.318 Y108.676 E1.83766
G1 X147.976 Y109.313 E1.8468
G1 X148.565 Y109.992 E1.85576
G1 X149.299 Y111.046 E1.86858
G1 X149.504 Y111.385 E1.87253
G1 X149.944 Y112.189 E1.88168
G1 X150.312 Y113.032 E1.89086
G1 X150.699 Y114.266 E1.90376
G1 X150.77 Y114.556 E1.90674
G1 X150.948 Y115.458 E1.91591
G1 X151.059 Y116.64 E1.92776
G1 X151.095 Y117.663 E1.93797
G1 X151.109 Y118.674 E1.94806
G1 X151.079 Y119.59 E1.95721
G1 X150.967 Y120.5 E1.96636
G1 X150.779 Y121.379 E1.97532
G1 X150.358 Y122.65 E1.98868
G1 X150.215 Y123.004 E1.99249
G1 X149.833 Y123.838 E2.00165
G1 X149.379 Y124.632 E2.01077
G1 X148.932 Y125.283 E2.01865
G1 X148.761 Y125.513 E2.02151
G1 X148.181 Y126.223 E2.03066
G1 X147.523 Y126.894 E2.04004
G1 X146.891 Y127.477 E2.04862
G1 X146.398 Y127.907 E2.05514
G1 X145.681 Y128.479 E2.0643
G1 X144.916 Y128.984 E2.07344
G1 X144.126 Y129.412 E2.08241
G1 X143.163 Y129.821 E2.09285
G1 X142.815 Y129.948 E2.09654
G1 X141.958 Y130.219 E2.10551
G1 X141.05 Y130.42 E2.11479
G1 X140.562 Y130.493 E2.11971
G1 X139.857 Y130.576 E2.1268
G1 X136.728 Y130.875 E2.15816
G1 X134.234 Y131.19 E2.18324
G1 X131.691 Y131.585 E2.20892
G1 X129.328 Y132.019 E2.2329
G1 X128.06 Y132.268 E2.24579
G1 X127.153 Y132.404 E2.25494
G1 X126.256 Y132.459 E2.26391
G1 X125.34 Y132.433 E2.27305
G1 X124.14 Y132.275 E2.28513
G1 X121.018 Y131.677 E2.31685
G1 X118.531 Y131.277 E2.34198
G1 X115.999 Y130.944 E2.36746
G1 X113.464 Y130.683 E2.39289
G1 X110.064 Y130.435 E2.42691
G1 X108.915 Y130.286 E2.43847
G1 X108.614 Y130.229 E2.44152
G1 X107.723 Y130.019 E2.45066
G1 X106.854 Y129.731 E2.45979
G1 X106.068 Y129.397 E2.46831
G1 X105.248 Y128.986 E2.47747
G1 X104.466 Y128.503 E2.48664
G1 X103.546 Y127.798 E2.4982
G1 X102.91 Y127.246 E2.5066
G1 X102.527 Y126.897 E2.51177
G1 X101.878 Y126.25 E2.52092
G1 X101.287 Y125.545 E2.5301
G1 X100.609 Y124.543 E2.54217
G1 X100.374 Y124.146 E2.54677
G1 X99.942 Y123.338 E2.55592
G1 X99.584 Y122.495 E2.56505
G1 X99.302 Y121.623 E2.5742
G1 X99.095 Y120.722 E2.58342
G1 X98.955 Y119.834 E2.59239
G1 X98.893 Y118.482 E2.6059
G1 X98.923 Y116.944 E2.62125
G1 X98.962 Y115.968 E2.63099
G1 X99.041 Y115.055 E2.64014
G1 X99.201 Y114.155 E2.64926
G1 X99.367 Y113.512 E2.65588
G1 X99.457 Y113.206 E2.65907
G1 X99.754 Y112.339 E2.66821
G1 X100.129 Y111.498 E2.6774
G1 X100.774 Y110.389 E2.6902
G1 X100.932 Y110.153 E2.69303
G1 X101.465 Y109.429 E2.702
G1 X102.071 Y108.743 E2.71114
G0 F6000 X102.221 Y108.875
G1 F1200 X103.093 Y108.072 E2.72297
G1 X103.312 Y107.893 E2.72579
G1 X104.033 Y107.356 E2.73476
G1 X104.798 Y106.885 E2.74372
G1 X105.86 Y106.373 E2.75549
G1 X106.154 Y106.252 E2.75866
G1 X106.999 Y105.947 E2.76762
G1 X107.869 Y105.719 E2.7766
G1 X108.352 Y105.627 E2.7815
G1 X110.749 Y105.231 E2.80574
G1 X113.252 Y104.748 E2.83118
G1 X115.741 Y104.195 E2.85662
G1 X118.226 Y103.568 E2.88219
G1 X119.879 Y103.111 E2.89931
G1 X121.058 Y102.772 E2.91155
G1 X121.932 Y102.562 E2.92052
G1 X122.821 Y102.431 E2.92948
G1 X123.718 Y102.38 E2.93845
G1 X124.873 Y102.431 E2.94998
G1 X125.763 Y102.527 E2.95891
G1 X126.414 Y102.614 E2.96547
G1 X127.722 Y102.878 E2.97878
G1 X128.763 Y103.161 E2.98955
G1 X131.624 Y103.972 E3.01922
G1 X134.071 Y104.588 E3.0444
G1 X136.589 Y105.146 E3.07013
G1 X139.068 Y105.623 E3.09532
G1 X141.111 Y105.965 E3.11599
G1 X142.099 Y106.175 E3.12607
G1 X143.181 Y106.515 E3.13738
G1 X143.731 Y106.719 E3.14324
G1 X144.559 Y107.069 E3.15221
G1 X145.353 Y107.491 E3.16118
G1 X146.203 Y108.053 E3.17135
G1 X146.479 Y108.256 E3.17477
G1 X147.179 Y108.82 E3.18373
G1 X147.825 Y109.444 E3.1927
G1 X148.414 Y110.123 E3.20167
G1 X149.128 Y111.15 E3.21415
G1 X149.329 Y111.481 E3.21801
G1 X149.761 Y112.269 E3.22698
G1 X150.121 Y113.092 E3.23594
G1 X150.505 Y114.314 E3.24872
G1 X150.574 Y114.595 E3.25161
G1 X150.749 Y115.477 E3.26058
G1 X150.859 Y116.647 E3.27231
G1 X150.895 Y117.666 E3.28248
G1 X150.909 Y118.668 E3.29248
G1 X150.88 Y119.566 E3.30144
G1 X150.771 Y120.458 E3.31041
G1 X150.583 Y121.337 E3.31938
G1 X150.173 Y122.575 E3.33239
G1 X150.033 Y122.921 E3.33612
G1 X149.659 Y123.739 E3.34509
G1 X149.214 Y124.519 E3.35405
G1 X148.772 Y125.164 E3.36185
G1 X148.606 Y125.387 E3.36463
G1 X148.038 Y126.083 E3.37359
G1 X147.388 Y126.747 E3.38286
G1 X146.759 Y127.326 E3.39139
G1 X146.273 Y127.751 E3.39784
G1 X145.571 Y128.312 E3.4068
G1 X144.821 Y128.808 E3.41577
G1 X144.031 Y129.236 E3.42474
G1 X143.094 Y129.633 E3.43489
G1 X142.755 Y129.757 E3.43849
G1 X141.898 Y130.028 E3.44746
G1 X141.02 Y130.222 E3.45644
G1 X140.538 Y130.294 E3.4613
G1 X139.838 Y130.377 E3.46833
G1 X136.709 Y130.676 E3.4997
G1 X134.203 Y130.993 E3.5249
G1 X131.66 Y131.387 E3.55058
G1 X129.292 Y131.822 E3.5746
G1 X128.03 Y132.07 E3.58743
G1 X127.141 Y132.204 E3.5964
G1 X126.244 Y132.259 E3.60537
G1 X125.346 Y132.233 E3.61433
G1 X124.178 Y132.079 E3.62609
G1 X121.056 Y131.481 E3.65781
G1 X118.557 Y131.079 E3.68306
G1 X116.019 Y130.745 E3.70861
G1 X113.484 Y130.484 E3.73403
G1 X110.09 Y130.237 E3.76799
G1 X108.952 Y130.089 E3.77944
G1 X108.66 Y130.034 E3.7824
G1 X107.786 Y129.829 E3.79136
G1 X106.932 Y129.547 E3.80034
G1 X106.157 Y129.218 E3.80874
G1 X105.353 Y128.816 E3.81771
G1 X104.588 Y128.344 E3.82668
G1 X103.677 Y127.647 E3.83812
G1 X103.045 Y127.098 E3.84647
G1 X102.668 Y126.755 E3.85156
G1 X102.031 Y126.121 E3.86053
G1 X101.453 Y125.433 E3.86949
G1 X100.781 Y124.441 E3.88145
G1 X100.55 Y124.052 E3.88596
G1 X100.126 Y123.26 E3.89493
G1 X99.774 Y122.433 E3.90389
G1 X99.497 Y121.578 E3.91286
G1 X99.293 Y120.691 E3.92194
G1 X99.153 Y119.803 E3.93091
G1 X99.093 Y118.486 E3.94407
G1 X99.123 Y116.952 E3.95938
G1 X99.161 Y115.985 E3.96903
G1 X99.238 Y115.09 E3.978
G1 X99.395 Y114.205 E3.98697
G1 X99.559 Y113.568 E3.99353
G1 X99.646 Y113.271 E3.99662
G1 X99.937 Y112.42 E4.00559
G1 X100.302 Y111.599 E4.01456
G1 X100.947 Y110.49 E4.02736
G1 X101.093 Y110.272 E4.02998
G1 X101.626 Y109.548 E4.03895
G1 X102.221 Y108.875 E4.04791
G1 F2700 E-0.95209
G0 F6000 X109.566 Y115.933
G1 F2700 E4.04791
G1 F1200 X109.742 Y115.795 E4.05014
G1 X110.018 Y115.682 E4.05312
G1 X110.896 Y115.707 E4.06188
G1 X111.686 Y115.873 E4.06994
G1 X111.694 Y115.874 E4.07002
G1 X112.355 Y115.962 E4.07667
G1 X112.362 Y115.963 E4.07674
G1 X112.843 Y115.993 E4.08155
G1 X113.101 Y115.993 E4.08412
G1 X113.873 Y115.966 E4.09183
G1 X113.878 Y115.966 E4.09188
G1 X114.414 Y115.921 E4.09725
G1 X114.426 Y115.919 E4.09737
G1 X115.135 Y115.772 E4.10459
G1 X115.162 Y115.762 E4.10488
G1 X115.318 Y115.678 E4.10665
G1 X115.325 Y115.692 E4.10681
G1 X115.435 Y115.702 E4.10791
G1 X115.473 Y115.682 E4.10834
G1 X115.479 Y115.695 E4.10848
G1 X115.589 Y115.705 E4.10958
G1 X115.596 Y115.701 E4.10966
G1 X115.622 Y115.755 E4.11026
G1 X115.681 Y115.777 E4.11089
G1 X116.099 Y115.788 E4.11506
G1 X116.111 Y115.788 E4.11518
G1 X116.59 Y115.745 E4.11998
G1 X116.632 Y115.731 E4.12042
G1 X116.741 Y115.667 E4.12168
G1 X116.764 Y115.712 E4.12219
G1 X116.87 Y115.721 E4.12325
G1 X116.934 Y115.688 E4.12397
G1 X116.967 Y115.751 E4.12468
G1 X117.049 Y115.767 E4.12551
G1 X117.151 Y115.743 E4.12656
G1 X117.165 Y115.769 E4.12685
G1 X117.249 Y115.786 E4.1277
G1 X117.355 Y115.76 E4.12879
G1 X117.368 Y115.785 E4.12907
G1 X117.459 Y115.8 E4.13
G1 X117.56 Y115.768 E4.13105
G1 X117.568 Y115.785 E4.13124
G1 X117.633 Y115.807 E4.13192
G1 X117.719 Y115.804 E4.13278
G1 X117.753 Y115.797 E4.13313
G1 X117.889 Y115.742 E4.13459
G1 X117.899 Y115.767 E4.13486
G1 X118.004 Y115.784 E4.13592
G1 X118.115 Y115.737 E4.13713
G1 X118.127 Y115.768 E4.13746
G1 X118.232 Y115.786 E4.13852
G1 X118.348 Y115.739 E4.13977
G1 X118.357 Y115.762 E4.14002
G1 X118.461 Y115.781 E4.14107
G1 X118.601 Y115.725 E4.14258
G1 X118.618 Y115.772 E4.14307
G1 X118.685 Y115.8 E4.1438
G1 X119.06 Y115.811 E4.14754
G1 X119.067 Y115.811 E4.14761
G1 X119.577 Y115.79 E4.15271
G1 X119.599 Y115.787 E4.15293
G1 X119.909 Y115.703 E4.15613
G1 X119.918 Y115.731 E4.15642
G1 X119.986 Y115.763 E4.15717
G1 X120.269 Y115.778 E4.16
G1 X120.277 Y115.778 E4.16008
G1 X120.71 Y115.763 E4.16441
G1 X120.733 Y115.76 E4.16464
G1 X120.833 Y115.733 E4.16567
G1 X120.867 Y115.771 E4.16618
G1 X120.913 Y115.779 E4.16665
G1 X121.413 Y115.739 E4.17165
G1 X121.43 Y115.736 E4.17182
G1 X121.815 Y115.637 E4.17579
G1 X121.834 Y115.63 E4.17599
G1 X122.194 Y115.454 E4.17999
G1 X122.209 Y115.445 E4.18016
G1 X122.589 Y115.169 E4.18485
G1 X122.601 Y115.158 E4.18501
G1 X123.042 Y114.708 E4.1913
G1 X123.051 Y114.698 E4.19143
G1 X123.217 Y114.474 E4.19422
G1 X123.223 Y114.465 E4.19432
G1 X123.414 Y114.147 E4.19802
G1 X123.418 Y114.14 E4.19811
G1 X123.612 Y113.74 E4.20254
G1 X123.618 Y113.726 E4.20269
G1 X123.757 Y113.278 E4.20737
G1 X123.758 Y113.271 E4.20744
G1 X123.921 Y112.579 E4.21454
G1 X125.01 Y112.708 E4.22548
G1 X125.047 Y112.761 E4.22612
G1 X125.438 Y112.914 E4.23031
G1 X125.456 Y112.919 E4.2305
G1 X125.875 Y112.995 E4.23475
G1 X125.922 Y112.993 E4.23522
G1 X125.957 Y112.983 E4.23558
G1 X126.325 Y113.549 E4.24232
G1 X126.553 Y114.097 E4.24824
G1 X126.559 Y114.109 E4.24837
G1 X126.732 Y114.407 E4.25181
G1 X126.736 Y114.415 E4.2519
G1 X127.047 Y114.853 E4.25726
G1 X127.06 Y114.867 E4.25745
G1 X127.417 Y115.212 E4.26241
G1 X127.433 Y115.225 E4.26261
G1 X127.854 Y115.49 E4.26758
G1 X127.869 Y115.497 E4.26774
G1 X128.23 Y115.647 E4.27164
G1 X128.241 Y115.651 E4.27176
G1 X128.602 Y115.754 E4.2755
G1 X128.615 Y115.757 E4.27564
G1 X128.919 Y115.801 E4.2787
G1 X128.926 Y115.802 E4.27877
G1 X129.225 Y115.822 E4.28176
G1 X130.639 Y115.861 E4.29588
G1 X130.645 Y115.861 E4.29594
G1 X131.002 Y115.851 E4.2995
G1 X131.012 Y115.85 E4.2996
G1 X131.358 Y115.805 E4.30308
G1 X131.431 Y115.757 E4.30395
G1 X131.433 Y115.75 E4.30403
G1 X131.571 Y115.779 E4.30543
G1 X131.656 Y115.758 E4.30631
G1 X131.659 Y115.752 E4.30637
G1 X131.816 Y115.788 E4.30798
G1 X131.901 Y115.768 E4.30885
G1 X132.064 Y115.797 E4.31051
G1 X132.148 Y115.776 E4.31137
G1 X132.399 Y115.823 E4.31392
G1 X132.483 Y115.801 E4.31478
G1 X132.503 Y115.754 E4.31529
G1 X132.635 Y115.811 E4.31673
G1 X132.666 Y115.819 E4.31705
G1 X133.033 Y115.853 E4.32072
G1 X133.04 Y115.853 E4.32079
G1 X133.348 Y115.858 E4.32387
G1 X133.357 Y115.858 E4.32396
G1 X133.833 Y115.825 E4.32872
G1 X133.909 Y115.781 E4.3296
G1 X133.921 Y115.743 E4.32999
G1 X133.947 Y115.756 E4.33028
G1 X134.034 Y115.758 E4.33115
G1 X134.051 Y115.731 E4.33147
G1 X134.189 Y115.804 E4.33303
G1 X134.236 Y115.816 E4.33351
G1 X134.986 Y115.817 E4.34099
G1 X135.042 Y115.8 E4.34158
G1 X135.085 Y115.771 E4.3421
G1 X135.101 Y115.74 E4.34244
G1 X135.256 Y115.82 E4.34418
G1 X135.286 Y115.83 E4.3445
G1 X135.742 Y115.904 E4.34911
G1 X135.747 Y115.904 E4.34916
G1 X136.309 Y115.967 E4.3548
