;FLAVOR:Marlin
;TIME:497
;Filament used: 0.13904m
;Layer height: 0.2
;MINX:100.391
;MINY:101.223
;MINZ:0.2
;MAXX:151.101
;MAXY:132.704
;MAXZ:11.4
;TARGET_MACHINE.NAME:Creality Ender-3
;Generated with Cura_SteamEngine 5.6.0
M140 S55
M105
M190 S55
M104 S210
M105
M109 S210
M82 ;absolute extrusion mode
; Ender 3 Custom Start G-code
G92 E0 ; Reset Extruder
G28 ; Home all axes
G1 Z2.0 F3000 ; Move Z Axis up little to prevent scratching of Heat Bed
G1 X0.1 Y20 Z0.3 F5000.0 ; Move to start position
G1 X0.1 Y200.0 Z0.3 F1500.0 E15 ; Draw the first line
G1 X0.4 Y200.0 Z0.3 F5000.0 ; Move to side a little
G1 X0.4 Y20 Z0.3 F1500.0 E30 ; Draw the second line
G92 E0 ; Reset Extruder
G1 Z2.0 F3000 ; Move Z Axis up little to prevent scratching of Heat Bed
G1 X5 Y20 Z0.3 F5000.0 ; Move over to prevent blob squish
G92 E0
G92 E0
G1 F2700 E-5
;LAYER_COUNT:57
;LAYER:0
M107
G0 F9000 X103.935 Y108.168 Z0.2
;TYPE:SKIRT
G1 F2700 E0
G1 F3000 X104.586 Y107.543 E0.03002
G1 X105.66 Y106.707 E0.07528
G1 X106.161 Y106.366 E0.09544
G1 X106.992 Y105.856 E0.12787
G1 X107.799 Y105.452 E0.15789
G1 X108.381 Y105.21 E0.17885
G1 X108.757 Y105.066 E0.19224
G1 X109.669 Y104.762 E0.22422
G1 X110.222 Y104.622 E0.24319
G1 X113.187 Y103.947 E0.34433
G1 X115.635 Y103.31 E0.42846
G1 X118.06 Y102.604 E0.51247
G1 X118.813 Y102.359 E0.5388
G1 X120.243 Y101.916 E0.58859
G1 X121.144 Y101.676 E0.61961
G1 X121.778 Y101.556 E0.64107
G1 X122.97 Y101.37 E0.68119
G1 X123.532 Y101.299 E0.70003
G1 X124.503 Y101.223 E0.73243
G1 X125.477 Y101.233 E0.76483
G1 X126.457 Y101.331 E0.79758
G1 X127.679 Y101.577 E0.83904
G1 X130.556 Y102.333 E0.93798
G1 X133.021 Y102.902 E1.02212
G1 X135.462 Y103.395 E1.10495
G1 X137.977 Y103.827 E1.18982
G1 X139.496 Y104.057 E1.24092
G1 X140.382 Y104.231 E1.27095
G1 X141.107 Y104.43 E1.29596
G1 X141.646 Y104.6 E1.31476
G1 X142.711 Y104.96 E1.35215
G1 X143.617 Y105.316 E1.38452
G1 X144.503 Y105.759 E1.41747
G1 X145.69 Y106.523 E1.46442
G1 X146.24 Y106.943 E1.48744
G1 X146.68 Y107.3 E1.50628
G1 X147.395 Y107.935 E1.53809
G1 X148.078 Y108.658 E1.57117
G1 X148.268 Y108.88 E1.58089
G1 X148.847 Y109.618 E1.61209
G1 X149.395 Y110.459 E1.64547
G1 X149.757 Y111.129 E1.6708
G1 X149.9 Y111.417 E1.6815
G1 X150.294 Y112.309 E1.71393
G1 X150.606 Y113.234 E1.7464
G1 X150.841 Y114.212 E1.77985
G1 X150.912 Y114.585 E1.79248
G1 X151.052 Y115.564 E1.82538
G1 X151.101 Y116.907 E1.87007
G1 X151.072 Y117.95 E1.90478
G1 X151.003 Y119.373 E1.95216
G1 X150.907 Y120.378 E1.98574
G1 X150.745 Y121.267 E2.0158
G1 X150.462 Y122.283 E2.05087
G1 X150.027 Y123.397 E2.09065
G1 X149.829 Y123.829 E2.10646
G1 X149.383 Y124.694 E2.13883
G1 X148.881 Y125.488 E2.17007
G1 X148.267 Y126.29 E2.20366
G1 X147.588 Y127.029 E2.23704
G1 X147.318 Y127.296 E2.24967
G1 X146.594 Y127.948 E2.28208
G1 X145.817 Y128.533 E2.31443
G1 X144.996 Y129.045 E2.34661
G1 X144.339 Y129.386 E2.37123
G1 X143.924 Y129.583 E2.38651
G1 X143.027 Y129.962 E2.4189
G1 X142.168 Y130.24 E2.44893
G1 X141.51 Y130.402 E2.47146
G1 X139.867 Y130.753 E2.52734
G1 X139.573 Y130.802 E2.53726
G1 X138.41 Y131.039 E2.57673
G1 X137.007 Y131.232 E2.62384
G1 X136.319 Y131.282 E2.64678
G1 X133.743 Y131.498 E2.73276
G1 X131.232 Y131.78 E2.8168
G1 X128.69 Y132.138 E2.90218
G1 X126.161 Y132.559 E2.98745
G1 X125.194 Y132.675 E3.01985
G1 X124.291 Y132.704 E3.0499
G1 X123.258 Y132.646 E3.08431
G1 X122.544 Y132.55 E3.10827
G1 X121.341 Y132.345 E3.14886
G1 X121.164 Y132.323 E3.15479
G1 X119.7 Y132.077 E3.20417
G1 X117.178 Y131.727 E3.28885
G1 X114.637 Y131.444 E3.37389
G1 X112.476 Y131.254 E3.44604
G1 X111.581 Y131.135 E3.47607
G1 X110.591 Y130.912 E3.50982
G1 X109.38 Y130.508 E3.55228
G1 X108.728 Y130.242 E3.57571
G1 X108.079 Y129.961 E3.59923
G1 X107.238 Y129.552 E3.63033
G1 X106.596 Y129.176 E3.65508
G1 X106.061 Y128.839 E3.67611
G1 X105.422 Y128.41 E3.70171
G1 X104.701 Y127.867 E3.73173
G1 X103.949 Y127.188 E3.76543
G1 X103.058 Y126.207 E3.8095
G1 X102.377 Y125.284 E3.84765
G1 X101.873 Y124.451 E3.88004
G1 X101.455 Y123.602 E3.91151
G1 X101.325 Y123.304 E3.92232
G1 X100.972 Y122.379 E3.95525
G1 X100.704 Y121.441 E3.9877
G1 X100.523 Y120.491 E4.01987
G1 X100.43 Y119.637 E4.04844
G1 X100.391 Y118.734 E4.0785
G1 X100.402 Y118.19 E4.0966
G1 X100.481 Y116.535 E4.15171
G1 X100.55 Y115.503 E4.18611
G1 X100.661 Y114.536 E4.21848
G1 X100.858 Y113.582 E4.25088
G1 X101.137 Y112.648 E4.2833
G1 X101.47 Y111.809 E4.31332
G1 X101.993 Y110.782 E4.35166
G1 X102.195 Y110.432 E4.3651
G1 X102.721 Y109.613 E4.39747
G1 X103.316 Y108.845 E4.42978
G1 X103.935 Y108.168 E4.46029
G0 F9000 X104.212 Y108.457
G1 F3000 X104.863 Y107.832 E4.49031
G1 X105.905 Y107.023 E4.53419
G1 X106.371 Y106.707 E4.55291
G1 X107.171 Y106.214 E4.58417
G1 X107.978 Y105.81 E4.61418
G1 X108.524 Y105.583 E4.63385
G1 X108.884 Y105.445 E4.64667
G1 X109.768 Y105.15 E4.67767
G1 X110.311 Y105.012 E4.6963
G1 X113.276 Y104.337 E4.79744
G1 X115.743 Y103.695 E4.88223
G1 X118.172 Y102.988 E4.96637
G1 X118.931 Y102.741 E4.99292
G1 X120.346 Y102.303 E5.04219
G1 X121.247 Y102.063 E5.0732
G1 X121.84 Y101.951 E5.09327
G1 X123.02 Y101.767 E5.13299
G1 X123.564 Y101.698 E5.15123
G1 X124.5 Y101.623 E5.18246
G1 X125.438 Y101.631 E5.21366
G1 X126.378 Y101.723 E5.24507
G1 X127.577 Y101.964 E5.28575
G1 X130.461 Y102.722 E5.38493
G1 X132.931 Y103.292 E5.46924
G1 X135.387 Y103.788 E5.55258
G1 X137.917 Y104.223 E5.63796
G1 X139.419 Y104.45 E5.68848
G1 X140.305 Y104.624 E5.71852
G1 X141.001 Y104.816 E5.74253
G1 X141.518 Y104.979 E5.76056
G1 X142.565 Y105.332 E5.79731
G1 X143.439 Y105.674 E5.82852
G1 X144.287 Y106.096 E5.86003
G1 X145.447 Y106.841 E5.90588
G1 X145.988 Y107.254 E5.92852
G1 X146.414 Y107.599 E5.94675
G1 X147.129 Y108.234 E5.97856
G1 X147.774 Y108.918 E6.00983
G1 X147.953 Y109.127 E6.01898
G1 X148.532 Y109.865 E6.05018
G1 X149.043 Y110.649 E6.0813
G1 X149.399 Y111.307 E6.10619
G1 X149.534 Y111.579 E6.11629
G1 X149.915 Y112.438 E6.14754
G1 X150.217 Y113.328 E6.1788
G1 X150.448 Y114.287 E6.21161
G1 X150.516 Y114.643 E6.22366
G1 X150.652 Y115.579 E6.25512
G1 X150.701 Y116.896 E6.29896
G1 X150.672 Y117.931 E6.33339
G1 X150.603 Y119.354 E6.38078
G1 X150.513 Y120.306 E6.41258
G1 X150.351 Y121.195 E6.44264
G1 X150.089 Y122.138 E6.47519
G1 X149.654 Y123.252 E6.51497
G1 X149.473 Y123.646 E6.52939
G1 X149.044 Y124.481 E6.56061
G1 X148.563 Y125.245 E6.59064
G1 X147.972 Y126.02 E6.62306
G1 X147.307 Y126.745 E6.65578
G1 X147.05 Y126.999 E6.6678
G1 X146.353 Y127.629 E6.69904
G1 X145.605 Y128.194 E6.73022
G1 X144.812 Y128.69 E6.76133
G1 X144.167 Y129.025 E6.78551
G1 X143.768 Y129.215 E6.8002
G1 X142.904 Y129.581 E6.83141
G1 X142.045 Y129.859 E6.86144
G1 X141.426 Y130.011 E6.88264
G1 X139.801 Y130.358 E6.93791
G1 X139.507 Y130.407 E6.94782
G1 X138.33 Y130.647 E6.98777
G1 X136.978 Y130.833 E7.03317
G1 X136.286 Y130.883 E7.05624
G1 X133.698 Y131.1 E7.14262
G1 X131.187 Y131.382 E7.22666
G1 X128.624 Y131.743 E7.31275
G1 X126.113 Y132.162 E7.39742
G1 X125.181 Y132.275 E7.42865
G1 X124.278 Y132.304 E7.4587
G1 X123.311 Y132.25 E7.49091
G1 X122.611 Y132.156 E7.5144
G1 X121.394 Y131.949 E7.55546
G1 X121.23 Y131.929 E7.56095
G1 X119.755 Y131.681 E7.6107
G1 X117.222 Y131.329 E7.69576
G1 X114.681 Y131.047 E7.78079
G1 X112.529 Y130.857 E7.85264
G1 X111.634 Y130.738 E7.88267
G1 X110.718 Y130.533 E7.91389
G1 X109.531 Y130.137 E7.95551
G1 X108.887 Y129.875 E7.97864
G1 X108.254 Y129.601 E8.00158
G1 X107.413 Y129.192 E8.03268
G1 X106.809 Y128.838 E8.05597
G1 X106.284 Y128.507 E8.07661
G1 X105.663 Y128.09 E8.10149
G1 X104.942 Y127.547 E8.13151
G1 X104.217 Y126.891 E8.16403
G1 X103.355 Y125.939 E8.20675
G1 X102.719 Y125.076 E8.2424
G1 X102.232 Y124.274 E8.27361
G1 X101.822 Y123.442 E8.30446
G1 X101.692 Y123.144 E8.31527
G1 X101.356 Y122.269 E8.34645
G1 X101.097 Y121.366 E8.37769
G1 X100.921 Y120.447 E8.40881
G1 X100.83 Y119.62 E8.43649
G1 X100.791 Y118.717 E8.46655
G1 X100.802 Y118.209 E8.48345
G1 X100.88 Y116.561 E8.53832
G1 X100.947 Y115.548 E8.57209
G1 X101.053 Y114.616 E8.60329
G1 X101.241 Y113.696 E8.63452
G1 X101.509 Y112.796 E8.66575
G1 X101.842 Y111.957 E8.69577
G1 X102.339 Y110.982 E8.73217
G1 X102.532 Y110.648 E8.745
G1 X103.038 Y109.857 E8.77623
G1 X103.611 Y109.115 E8.80741
G1 X104.212 Y108.457 E8.83706
G0 F9000 X104.489 Y108.746
G1 F3000 X105.14 Y108.121 E8.86707
G1 X106.13 Y107.354 E8.90872
G1 X106.581 Y107.047 E8.92687
G1 X107.35 Y106.572 E8.95693
G1 X108.157 Y106.168 E8.98695
G1 X108.667 Y105.956 E9.00532
G1 X109.011 Y105.824 E9.01757
G1 X109.867 Y105.538 E9.04759
G1 X110.4 Y105.402 E9.06589
G1 X113.365 Y104.727 E9.16703
G1 X115.851 Y104.08 E9.25247
G1 X118.284 Y103.372 E9.33674
G1 X119.05 Y103.123 E9.36353
G1 X120.449 Y102.689 E9.41225
G1 X121.321 Y102.456 E9.44227
G1 X121.902 Y102.346 E9.46194
G1 X123.07 Y102.164 E9.50126
G1 X123.597 Y102.097 E9.51893
G1 X124.497 Y102.023 E9.54896
G1 X125.4 Y102.029 E9.579
G1 X126.299 Y102.115 E9.60903
G1 X127.475 Y102.351 E9.64893
G1 X130.366 Y103.111 E9.74835
G1 X132.841 Y103.682 E9.83283
G1 X135.312 Y104.181 E9.91668
G1 X137.857 Y104.619 E10.00257
G1 X139.342 Y104.843 E10.05252
G1 X140.228 Y105.017 E10.08255
G1 X140.881 Y105.198 E10.10509
G1 X141.39 Y105.358 E10.12283
G1 X142.42 Y105.705 E10.15898
G1 X143.262 Y106.033 E10.18904
G1 X144.071 Y106.433 E10.21905
G1 X145.204 Y107.159 E10.26381
G1 X145.736 Y107.565 E10.28607
G1 X146.162 Y107.91 E10.3043
G1 X146.838 Y108.509 E10.33434
G1 X147.471 Y109.179 E10.365
G1 X147.639 Y109.374 E10.37356
G1 X148.197 Y110.084 E10.40359
G1 X148.691 Y110.84 E10.43363
G1 X149.041 Y111.485 E10.45804
G1 X149.169 Y111.742 E10.46759
G1 X149.536 Y112.567 E10.49762
G1 X149.828 Y113.422 E10.52767
G1 X150.055 Y114.363 E10.55987
G1 X150.12 Y114.701 E10.57131
G1 X150.252 Y115.594 E10.60134
G1 X150.301 Y116.885 E10.64431
G1 X150.272 Y117.912 E10.67848
G1 X150.203 Y119.335 E10.72586
G1 X150.119 Y120.234 E10.7559
G1 X149.957 Y121.123 E10.78595
G1 X149.716 Y121.993 E10.81598
G1 X149.29 Y123.086 E10.85499
G1 X149.117 Y123.464 E10.86882
G1 X148.705 Y124.268 E10.89887
G1 X148.224 Y125.032 E10.9289
G1 X147.677 Y125.75 E10.95892
G1 X147.025 Y126.461 E10.991
G1 X146.781 Y126.703 E11.00243
G1 X146.112 Y127.31 E11.03248
G1 X145.392 Y127.855 E11.06251
G1 X144.627 Y128.335 E11.09255
G1 X143.995 Y128.664 E11.11625
G1 X143.612 Y128.847 E11.13037
G1 X142.781 Y129.2 E11.1604
G1 X141.922 Y129.478 E11.19042
G1 X141.343 Y129.62 E11.21025
G1 X139.735 Y129.963 E11.26494
G1 X139.441 Y130.012 E11.27485
G1 X138.25 Y130.255 E11.31528
G1 X136.949 Y130.434 E11.35896
G1 X136.253 Y130.484 E11.38217
G1 X133.653 Y130.702 E11.46895
G1 X131.142 Y130.984 E11.55299
G1 X128.558 Y131.348 E11.63978
G1 X126.064 Y131.765 E11.72388
G1 X125.168 Y131.875 E11.75391
G1 X124.265 Y131.904 E11.78396
G1 X123.364 Y131.854 E11.81397
G1 X122.678 Y131.762 E11.83699
G1 X121.446 Y131.553 E11.87855
G1 X121.296 Y131.535 E11.88358
G1 X119.81 Y131.285 E11.9337
G1 X117.266 Y130.931 E12.01913
G1 X114.725 Y130.65 E12.10416
G1 X112.582 Y130.46 E12.17571
G1 X111.687 Y130.341 E12.20574
G1 X110.806 Y130.143 E12.23578
G1 X109.682 Y129.766 E12.27521
G1 X109.038 Y129.504 E12.29833
G1 X108.428 Y129.241 E12.32043
G1 X107.615 Y128.847 E12.35047
G1 X107.022 Y128.5 E12.37333
G1 X106.507 Y128.175 E12.39358
G1 X105.904 Y127.77 E12.41774
G1 X105.183 Y127.227 E12.44776
G1 X104.513 Y126.622 E12.47779
G1 X103.677 Y125.701 E12.51916
G1 X103.061 Y124.868 E12.55361
G1 X102.591 Y124.097 E12.58365
G1 X102.181 Y123.265 E12.6145
G1 X102.065 Y123 E12.62412
G1 X101.74 Y122.158 E12.65414
G1 X101.49 Y121.29 E12.68418
G1 X101.319 Y120.403 E12.71423
G1 X101.23 Y119.603 E12.741
G1 X101.191 Y118.7 E12.77106
G1 X101.202 Y118.228 E12.78676
G1 X101.279 Y116.587 E12.8414
G1 X101.344 Y115.593 E12.87453
G1 X101.445 Y114.695 E12.90459
G1 X101.624 Y113.81 E12.93462
G1 X101.881 Y112.944 E12.96467
G1 X102.214 Y112.105 E12.99469
G1 X102.685 Y111.182 E13.02915
G1 X102.869 Y110.863 E13.0414
G1 X103.355 Y110.101 E13.07146
G1 X103.906 Y109.385 E13.10151
G1 X104.489 Y108.746 E13.13028
G1 F2700 E8.13028
G0 F9000 X111.97 Y115.958
G1 F2700 E13.13028
G1 F3000 X112.408 Y115.649 E13.14811
G1 X112.703 Y115.536 E13.15862
G1 X113.12 Y115.475 E13.17263
G1 X113.133 Y115.473 E13.17307
G1 X113.381 Y115.42 E13.18151
G1 X113.389 Y115.418 E13.18178
G1 X113.915 Y115.282 E13.19985
G1 X114.252 Y115.349 E13.21128
G1 X114.264 Y115.351 E13.21168
G1 X114.631 Y115.401 E13.224
G1 X114.648 Y115.403 E13.22457
G1 X114.953 Y115.419 E13.23473
G1 X114.967 Y115.419 E13.2352
G1 X115.29 Y115.412 E13.24594
G1 X115.382 Y115.387 E13.24911
G1 X115.634 Y115.248 E13.25868
G1 X115.694 Y115.292 E13.26116
G1 X115.822 Y115.281 E13.26543
G1 X115.842 Y115.347 E13.26773
G1 X115.942 Y115.422 E13.27188
G1 X116.013 Y115.433 E13.27427
G1 X116.557 Y115.414 E13.29238
G1 X116.647 Y115.389 E13.29548
G1 X116.891 Y115.254 E13.30476
G1 X116.994 Y115.323 E13.30888
G1 X117.142 Y115.306 E13.31384
G1 X117.195 Y115.278 E13.31583
G1 X117.232 Y115.381 E13.31947
G1 X117.336 Y115.451 E13.32364
G1 X117.466 Y115.443 E13.32797
G1 X117.566 Y115.402 E13.33157
G1 X117.67 Y115.472 E13.33574
G1 X117.802 Y115.464 E13.34014
G1 X117.914 Y115.417 E13.34418
G1 X118.012 Y115.483 E13.34811
G1 X118.144 Y115.474 E13.35251
G1 X118.462 Y115.339 E13.364
G1 X118.543 Y115.406 E13.36749
G1 X118.692 Y115.403 E13.37245
G1 X118.865 Y115.331 E13.37868
G1 X118.958 Y115.409 E13.38272
G1 X119.108 Y115.408 E13.38771
G1 X119.309 Y115.326 E13.39493
G1 X119.33 Y115.416 E13.398
G1 X119.464 Y115.509 E13.40343
G1 X119.911 Y115.593 E13.41855
G1 X119.998 Y115.59 E13.42145
G1 X120.292 Y115.514 E13.43155
G1 X120.363 Y115.575 E13.43466
G1 X120.455 Y115.589 E13.43776
G1 X120.639 Y115.575 E13.4439
G1 X120.676 Y115.569 E13.44514
G1 X120.963 Y115.491 E13.45503
G1 X121.033 Y115.554 E13.45817
G1 X121.133 Y115.57 E13.46153
G1 X121.301 Y115.553 E13.46715
G1 X121.32 Y115.55 E13.46779
G1 X121.435 Y115.527 E13.47169
G1 X121.524 Y115.768 E13.48024
G1 X121.252 Y115.919 E13.49058
G1 X121.154 Y116.049 E13.496
G1 X121.026 Y116.603 E13.51491
G1 X120.928 Y116.638 E13.51837
G1 X120.829 Y116.715 E13.52254
G1 X120.798 Y116.794 E13.52537
G1 X120.647 Y117.691 E13.55562
G1 X120.645 Y117.7 E13.55593
G1 X120.601 Y118.065 E13.56815
G1 X120.626 Y118.188 E13.57233
G1 X120.727 Y118.272 E13.5767
G1 X120.648 Y118.728 E13.59209
G1 X120.666 Y118.851 E13.59622
G1 X120.778 Y118.951 E13.60122
G1 X121.253 Y119.119 E13.61798
G1 X121.205 Y119.371 E13.62651
G1 X120.718 Y119.355 E13.64271
G1 X120.687 Y119.364 E13.64379
G1 X120.293 Y119.353 E13.6569
G1 X120.281 Y119.353 E13.6573
G1 X119.957 Y119.363 E13.66808
G1 X119.936 Y119.365 E13.66878
G1 X119.549 Y119.417 E13.68177
G1 X119.437 Y119.471 E13.6859
G1 X119.397 Y119.555 E13.689
G1 X119.257 Y119.499 E13.69401
G1 X119.174 Y119.485 E13.69681
G1 X119.109 Y119.488 E13.69898
G1 X118.992 Y119.533 E13.70315
G1 X118.962 Y119.589 E13.70526
G1 X118.765 Y119.512 E13.71229
G1 X118.637 Y119.506 E13.71656
G1 X117.985 Y119.696 E13.73914
G1 X117.936 Y119.718 E13.74093
G1 X117.82 Y119.789 E13.74545
G1 X117.772 Y119.763 E13.74727
G1 X117.712 Y119.741 E13.74939
G1 X117.36 Y119.676 E13.7613
G1 X117.339 Y119.674 E13.762
G1 X117.029 Y119.651 E13.77234
G1 X117.002 Y119.65 E13.77324
G1 X116.643 Y119.671 E13.7852
G1 X116.619 Y119.674 E13.786
G1 X116.287 Y119.735 E13.79723
G1 X116.177 Y119.795 E13.8014
G1 X116.123 Y119.918 E13.80587
G1 X116.122 Y119.928 E13.8062
G1 X115.942 Y119.813 E13.81331
G1 X115.844 Y119.782 E13.81672
G1 X115.302 Y119.754 E13.83478
G1 X115.28 Y119.754 E13.83551
G1 X114.94 Y119.775 E13.84684
G1 X114.916 Y119.778 E13.84764
G1 X114.607 Y119.834 E13.85809
G1 X114.587 Y119.839 E13.85877
G1 X114.238 Y119.941 E13.87087
G1 X114.218 Y119.948 E13.87157
G1 X113.824 Y120.11 E13.88574
G1 X113.688 Y120.132 E13.89032
G1 X113.531 Y120.113 E13.89558
G1 X113.033 Y119.893 E13.91369
G1 X113.026 Y119.89 E13.91394
G1 X112.518 Y119.689 E13.93211
G1 X111.808 Y119.221 E13.9604
G1 X111.681 Y119.065 E13.96709
G1 X111.595 Y118.86 E13.97448
G1 X111.582 Y118.706 E13.97962
G1 X111.704 Y116.409 E14.05613
G1 X111.751 Y116.259 E14.06136
G1 X111.859 Y116.073 E14.06851
G1 X111.97 Y115.958 E14.07383
G0 F9000 X112.232 Y116.264
G1 F3000 X112.6 Y116.004 E14.08881
G1 X112.804 Y115.925 E14.09609
