;FLAVOR:Marlin
;TIME:4575
;Filament used: 1.51792m
;Layer height: 0.2
;MINX:74.791
;MINY:63.31
;MINZ:0.2
;MAXX:176.975
;MAXY:165.395
;MAXZ:11.4
;TARGET_MACHINE.NAME:Creality Ender-3
;Generated with Cura_SteamEngine 5.6.0
M140 S55
M105
M190 S55
M104 S210
M105
M109 S210
M82 ;absolute extrusion mode
; Ender 3 Custom Start G-code
G92 E0 ; Reset Extruder
G28 ; Home all axes
G1 Z2.0 F3000 ; Move Z Axis up little to prevent scratching of Heat Bed
G1 X0.1 Y20 Z0.3 F5000.0 ; Move to start position
G1 X0.1 Y200.0 Z0.3 F1500.0 E15 ; Draw the first line
G1 X0.4 Y200.0 Z0.3 F5000.0 ; Move to side a little
G1 X0.4 Y20 Z0.3 F1500.0 E30 ; Draw the second line
G92 E0 ; Reset Extruder
G1 Z2.0 F3000 ; Move Z Axis up little to prevent scratching of Heat Bed
G1 X5 Y20 Z0.3 F5000.0 ; Move over to prevent blob squish
G92 E0
G92 E0
G1 F2700 E-5
;LAYER_COUNT:57
;LAYER:0
M107
G0 F9000 X88.427 Y86.212 Z0.2
;TYPE:SKIRT
G1 F2700 E0
G1 F3000 X89.116 Y85.521 E0.03246
G1 X89.88 Y84.881 E0.0656
G1 X90.627 Y84.316 E0.09676
G1 X91.503 Y83.671 E0.13294
G1 X92.781 Y82.664 E0.18705
G1 X93.96 Y81.756 E0.23655
G1 X94.732 Y81.21 E0.268
G1 X95.874 Y80.568 E0.31157
G1 X98.471 Y79.317 E0.40745
G1 X100.701 Y78.163 E0.49096
G1 X102.899 Y76.947 E0.57451
G1 X105.099 Y75.646 E0.65952
G1 X107.173 Y74.34 E0.74104
G1 X109.266 Y72.936 E0.82486
G1 X110.239 Y72.237 E0.86471
G1 X110.513 Y72.058 E0.87559
G1 X111.439 Y71.402 E0.91334
G1 X112.259 Y70.878 E0.94571
G1 X113.123 Y70.428 E0.97811
G1 X114.016 Y70.058 E1.01026
G1 X114.756 Y69.817 E1.03614
G1 X115.341 Y69.651 E1.05637
G1 X117.859 Y68.898 E1.14378
G1 X120.261 Y68.104 E1.22792
G1 X122.624 Y67.251 E1.31148
G1 X124.959 Y66.329 E1.39498
G1 X127.307 Y65.326 E1.4799
G1 X128.714 Y64.689 E1.53127
G1 X129.825 Y64.259 E1.57089
G1 X131.164 Y63.826 E1.6177
G1 X132.102 Y63.57 E1.65004
G1 X132.991 Y63.408 E1.68009
G1 X134.031 Y63.313 E1.71483
G1 X134.97 Y63.31 E1.74606
G1 X135.976 Y63.398 E1.77965
G1 X136.935 Y63.57 E1.81205
G1 X137.875 Y63.824 E1.84444
G1 X138.723 Y64.135 E1.87448
G1 X140.007 Y64.768 E1.92209
G1 X142.756 Y66.358 E2.02772
G1 X144.936 Y67.532 E2.11007
G1 X147.24 Y68.692 E2.19587
G1 X149.471 Y69.735 E2.27778
G1 X151.845 Y70.765 E2.36385
G1 X153.288 Y71.361 E2.41577
G1 X154.107 Y71.743 E2.44583
G1 X155.011 Y72.267 E2.48059
G1 X155.798 Y72.822 E2.51262
G1 X156.318 Y73.25 E2.53502
G1 X158.436 Y75.11 E2.62877
G1 X160.352 Y76.711 E2.71181
G1 X161.069 Y77.369 E2.74418
G1 X161.726 Y78.089 E2.7766
G1 X162.315 Y78.864 E2.80898
G1 X162.817 Y79.658 E2.84022
G1 X163.263 Y80.523 E2.87259
G1 X163.643 Y81.457 E2.90613
G1 X163.926 Y82.378 E2.93817
G1 X164.078 Y83.046 E2.96096
G1 X164.37 Y84.559 E3.01221
G1 X164.89 Y87.018 E3.09581
G1 X165.479 Y89.463 E3.17945
G1 X166.139 Y91.897 E3.26333
G1 X166.873 Y94.326 E3.34773
G1 X167.655 Y96.678 E3.43017
G1 X168.536 Y99.093 E3.51567
G1 X169.451 Y101.4 E3.59821
G1 X170.454 Y103.728 E3.68252
G1 X171.516 Y106.015 E3.76639
G1 X172.63 Y108.248 E3.84939
G1 X174.499 Y111.688 E3.9796
G1 X175.132 Y112.795 E4.02202
G1 X175.545 Y113.598 E4.05205
G1 X176.013 Y114.791 E4.09467
G1 X176.455 Y116.149 E4.14217
G1 X176.713 Y117.089 E4.17459
G1 X176.881 Y118.012 E4.2058
G1 X176.973 Y119.018 E4.2394
G1 X176.975 Y119.993 E4.27182
G1 X176.889 Y120.963 E4.30421
G1 X176.718 Y121.92 E4.33655
G1 X176.465 Y122.861 E4.36896
G1 X176.128 Y123.775 E4.40136
G1 X175.727 Y124.625 E4.43262
G1 X175.193 Y125.537 E4.46777
G1 X173.715 Y127.799 E4.55764
G1 X172.395 Y129.951 E4.6416
G1 X171.128 Y132.151 E4.72604
G1 X169.924 Y134.385 E4.81045
G1 X168.804 Y136.614 E4.89342
G1 X167.755 Y138.861 E4.9759
G1 X166.745 Y141.187 E5.06024
G1 X165.784 Y143.59 E5.14632
G1 X164.939 Y145.891 E5.22785
G1 X164.143 Y148.264 E5.3111
G1 X163.399 Y150.703 E5.39591
G1 X163.175 Y151.519 E5.42405
G1 X163.099 Y151.757 E5.43236
G1 X162.772 Y152.927 E5.47277
G1 X162.467 Y153.85 E5.5051
G1 X162.112 Y154.68 E5.53512
G1 X161.616 Y155.602 E5.56995
G1 X161.079 Y156.413 E5.6023
G1 X160.471 Y157.175 E5.63472
G1 X159.819 Y157.859 E5.66615
G1 X158.821 Y158.713 E5.70984
G1 X157.996 Y159.336 E5.74422
G1 X157.244 Y159.889 E5.77527
G1 X155.943 Y160.913 E5.83034
G1 X154.779 Y161.811 E5.87923
G1 X153.983 Y162.372 E5.91162
G1 X153.142 Y162.86 E5.94396
G1 X152.262 Y163.272 E5.97628
G1 X151.436 Y163.578 E6.00558
G1 X150.09 Y164.013 E6.05263
G1 X149.152 Y164.269 E6.08497
G1 X148.263 Y164.431 E6.11502
G1 X147.222 Y164.525 E6.14978
G1 X146.257 Y164.526 E6.18188
G1 X145.509 Y164.469 E6.20683
G1 X144.466 Y164.351 E6.24174
G1 X141.941 Y164.105 E6.32612
G1 X139.446 Y163.931 E6.40931
G1 X136.904 Y163.826 E6.49393
G1 X134.414 Y163.794 E6.57675
G1 X131.87 Y163.834 E6.66138
G1 X129.35 Y163.944 E6.74527
G1 X126.875 Y164.123 E6.82781
G1 X124.366 Y164.375 E6.91168
G1 X121.83 Y164.703 E6.99673
G1 X119.312 Y165.1 E7.08151
G1 X118.486 Y165.242 E7.10938
G1 X117.521 Y165.361 E7.14172
G1 X116.619 Y165.395 E7.17175
G1 X115.575 Y165.34 E7.20652
G1 X114.611 Y165.201 E7.23891
G1 X113.663 Y164.978 E7.2713
G1 X112.739 Y164.671 E7.30369
G1 X111.851 Y164.288 E7.33585
G1 X111.179 Y163.932 E7.36115
G1 X108.82 Y162.576 E7.45165
G1 X106.619 Y161.39 E7.5348
G1 X104.335 Y160.243 E7.61981
G1 X102.103 Y159.201 E7.70174
G1 X99.757 Y158.183 E7.7868
G1 X96.533 Y156.899 E7.90222
G1 X95.648 Y156.502 E7.93448
G1 X94.906 Y156.093 E7.96266
G1 X94.07 Y155.587 E7.99516
G1 X93.37 Y155.144 E8.02271
G1 X92.867 Y154.804 E8.04291
G1 X92.179 Y154.311 E8.07106
G1 X89.183 Y152.253 E8.19195
G1 X88.397 Y151.677 E8.22436
G1 X87.665 Y151.035 E8.25674
G1 X87.04 Y150.383 E8.28678
G1 X86.387 Y149.567 E8.32154
G1 X85.85 Y148.755 E8.35392
G1 X85.402 Y147.93 E8.38515
G1 X85.001 Y147.003 E8.41874
G1 X84.698 Y146.08 E8.45105
G1 X84.487 Y145.189 E8.48151
G1 X84.302 Y144.182 E8.51556
G1 X84.042 Y142.352 E8.57704
G1 X83.632 Y139.837 E8.66179
G1 X83.169 Y137.424 E8.74351
G1 X82.622 Y134.958 E8.82752
G1 X82.007 Y132.504 E8.91167
G1 X81.32 Y130.062 E8.99604
G1 X80.571 Y127.666 E9.07954
G1 X79.754 Y125.286 E9.16323
G1 X78.86 Y122.911 E9.24763
G1 X77.93 Y120.635 E9.32941
G1 X76.67 Y117.8 E9.4326
G1 X76.222 Y116.832 E9.46807
G1 X75.741 Y115.604 E9.51194
G1 X75.308 Y114.272 E9.55852
G1 X75.068 Y113.402 E9.58854
G1 X74.881 Y112.374 E9.62329
G1 X74.794 Y111.405 E9.65565
G1 X74.791 Y110.466 E9.68688
G1 X74.879 Y109.461 E9.72044
G1 X75.05 Y108.501 E9.75287
G1 X75.305 Y107.562 E9.78523
G1 X75.642 Y106.649 E9.8176
G1 X76.058 Y105.767 E9.85004
G1 X76.513 Y104.987 E9.88007
G1 X77.025 Y104.253 E9.90984
G1 X77.546 Y103.567 E9.93849
G1 X79.079 Y101.491 E10.02432
G1 X80.497 Y99.449 E10.10701
G1 X81.906 Y97.294 E10.19264
G1 X83.198 Y95.188 E10.27482
G1 X84.477 Y92.967 E10.36006
G1 X85.658 Y90.777 E10.44282
G1 X86.072 Y89.946 E10.4737
G1 X86.194 Y89.725 E10.48209
G1 X86.764 Y88.605 E10.52389
G1 X87.227 Y87.79 E10.55507
G1 X87.802 Y86.959 E10.58868
G1 X88.427 Y86.212 E10.62107
G0 F9000 X88.71 Y86.494
G1 F3000 X89.373 Y85.828 E10.65233
G1 X90.137 Y85.188 E10.68548
G1 X90.864 Y84.638 E10.7158
G1 X91.74 Y83.993 E10.75198
G1 X93.025 Y82.981 E10.80638
G1 X94.192 Y82.082 E10.85538
G1 X94.928 Y81.559 E10.88541
G1 X96.07 Y80.917 E10.92898
G1 X98.645 Y79.677 E11.02404
G1 X100.895 Y78.513 E11.1083
G1 X103.093 Y77.297 E11.19184
G1 X105.303 Y75.99 E11.27724
G1 X107.396 Y74.672 E11.35951
G1 X109.489 Y73.268 E11.44333
G1 X110.458 Y72.572 E11.48301
G1 X110.732 Y72.393 E11.4939
G1 X111.655 Y71.739 E11.53152
G1 X112.445 Y71.232 E11.56275
G1 X113.276 Y70.797 E11.59394
G1 X114.14 Y70.438 E11.62506
G1 X114.865 Y70.202 E11.65042
G1 X115.45 Y70.036 E11.67065
G1 X117.985 Y69.278 E11.75865
G1 X120.387 Y68.484 E11.84279
G1 X122.77 Y67.623 E11.92706
G1 X125.114 Y66.698 E12.01088
G1 X127.464 Y65.694 E12.09587
G1 X128.858 Y65.062 E12.14678
G1 X129.948 Y64.64 E12.18566
G1 X131.27 Y64.212 E12.23187
G1 X132.174 Y63.964 E12.26305
G1 X133.063 Y63.802 E12.29311
G1 X134.032 Y63.713 E12.32547
G1 X134.971 Y63.71 E12.3567
G1 X135.906 Y63.792 E12.38792
G1 X136.831 Y63.956 E12.41917
G1 X137.737 Y64.2 E12.45037
G1 X138.585 Y64.511 E12.48041
G1 X139.83 Y65.127 E12.52661
G1 X142.566 Y66.71 E12.63175
G1 X144.746 Y67.884 E12.7141
G1 X147.06 Y69.049 E12.80027
G1 X149.312 Y70.102 E12.88295
G1 X151.692 Y71.135 E12.96925
G1 X153.119 Y71.724 E13.02059
G1 X153.938 Y72.106 E13.05065
G1 X154.781 Y72.594 E13.08305
G1 X155.544 Y73.131 E13.11408
G1 X156.054 Y73.551 E13.13606
G1 X158.172 Y75.411 E13.22981
G1 X160.082 Y77.006 E13.31257
G1 X160.774 Y77.639 E13.34377
G1 X161.408 Y78.332 E13.37501
G1 X161.977 Y79.078 E13.40621
G1 X162.461 Y79.841 E13.43626
G1 X162.907 Y80.706 E13.46863
G1 X163.261 Y81.575 E13.49984
G1 X163.536 Y82.467 E13.53089
G1 X163.685 Y83.122 E13.55323
G1 X163.977 Y84.635 E13.60448
G1 X164.501 Y87.112 E13.68869
G1 X165.093 Y89.568 E13.77272
G1 X165.756 Y92.013 E13.85697
G1 X166.493 Y94.452 E13.94172
G1 X167.279 Y96.815 E14.02455
G1 X168.164 Y99.241 E14.11044
G1 X169.08 Y101.548 E14.19299
G1 X170.091 Y103.896 E14.27802
G1 X171.158 Y106.194 E14.36229
G1 X172.272 Y108.427 E14.44529
G1 X174.152 Y111.886 E14.57623
G1 X174.776 Y112.978 E14.61806
G1 X175.189 Y113.781 E14.6481
G1 X175.633 Y114.915 E14.6886
G1 X176.069 Y116.256 E14.7355
G1 X176.319 Y117.161 E14.76673
G1 X176.487 Y118.084 E14.79793
G1 X176.573 Y119.019 E14.82916
G1 X176.576 Y119.958 E14.86039
G1 X176.495 Y120.893 E14.89161
G1 X176.332 Y121.816 E14.92278
G1 X176.089 Y122.723 E14.95401
G1 X175.766 Y123.604 E14.98522
G1 X175.365 Y124.454 E15.01648
G1 X174.858 Y125.318 E15.0498
G1 X173.38 Y127.58 E15.13967
G1 X172.048 Y129.751 E15.22439
G1 X170.781 Y131.951 E15.30883
G1 X169.572 Y134.195 E15.3936
G1 X168.447 Y136.434 E15.47695
G1 X167.388 Y138.702 E15.5602
G1 X166.378 Y141.028 E15.64454
G1 X165.413 Y143.442 E15.73101
G1 X164.564 Y145.753 E15.81289
G1 X163.76 Y148.147 E15.89689
G1 X163.016 Y150.586 E15.9817
G1 X162.794 Y151.397 E16.00967
G1 X162.718 Y151.635 E16.01798
G1 X162.392 Y152.802 E16.05828
G1 X162.099 Y153.693 E16.08947
G1 X161.744 Y154.523 E16.1195
G1 X161.282 Y155.382 E16.15194
G1 X160.766 Y156.164 E16.1831
G1 X160.181 Y156.899 E16.21434
G1 X159.529 Y157.583 E16.24577
G1 X158.58 Y158.394 E16.28729
G1 X157.759 Y159.014 E16.32151
G1 X156.996 Y159.575 E16.35301
G1 X155.71 Y160.588 E16.40746
G1 X155.561 Y160.695 E16.41356
G1 X154.548 Y161.484 E16.45627
G1 X153.782 Y162.026 E16.48748
G1 X152.972 Y162.498 E16.51866
G1 X152.123 Y162.897 E16.54986
G1 X151.313 Y163.197 E16.57859
G1 X149.984 Y163.627 E16.62505
G1 X149.08 Y163.875 E16.65623
G1 X148.191 Y164.037 E16.68628
G1 X147.221 Y164.125 E16.71868
G1 X146.287 Y164.127 E16.74974
G1 X145.554 Y164.071 E16.77419
G1 X144.511 Y163.954 E16.8091
G1 X141.972 Y163.706 E16.89395
G1 X139.463 Y163.531 E16.9776
G1 X136.921 Y163.426 E17.06222
G1 X134.413 Y163.394 E17.14564
G1 X131.853 Y163.434 E17.2308
G1 X129.333 Y163.544 E17.3147
G1 X126.842 Y163.724 E17.39776
G1 X124.315 Y163.978 E17.48223
G1 X121.779 Y164.306 E17.56728
G1 X119.25 Y164.705 E17.65244
G1 X118.437 Y164.845 E17.67988
G1 X117.506 Y164.961 E17.71108
G1 X116.604 Y164.995 E17.7411
G1 X115.631 Y164.944 E17.77351
G1 X114.702 Y164.812 E17.80472
G1 X113.788 Y164.598 E17.83594
G1 X112.897 Y164.304 E17.86715
G1 X112.038 Y163.934 E17.89826
G1 X111.378 Y163.585 E17.92309
G1 X109.019 Y162.229 E18.01359
G1 X106.809 Y161.038 E18.09709
G1 X104.504 Y159.881 E18.18287
G1 X102.262 Y158.834 E18.26517
G1 X99.905 Y157.811 E18.35063
G1 X96.696 Y156.534 E18.4655
G1 X95.841 Y156.152 E18.49665
G1 X95.113 Y155.751 E18.52429
G1 X94.284 Y155.249 E18.55652
G1 X93.594 Y154.812 E18.58369
G1 X93.1 Y154.479 E18.6035
G1 X92.412 Y153.986 E18.63166
G1 X89.419 Y151.93 E18.75243
G1 X88.66 Y151.376 E18.78368
G1 X87.954 Y150.758 E18.81489
G1 X87.329 Y150.106 E18.84493
G1 X86.72 Y149.346 E18.87732
G1 X86.202 Y148.564 E18.90852
G1 X85.754 Y147.739 E18.93974
G1 X85.381 Y146.878 E18.97095
G1 X85.087 Y145.988 E19.00213
G1 X84.88 Y145.117 E19.0319
G1 X84.698 Y144.126 E19.06541
G1 X84.438 Y142.296 E19.12689
G1 X84.027 Y139.773 E19.21191
G1 X83.56 Y137.337 E19.29441
G1 X83.013 Y134.871 E19.37842
G1 X82.395 Y132.407 E19.46291
G1 X81.705 Y129.954 E19.54767
G1 X80.953 Y127.547 E19.63154
G1 X80.132 Y125.156 E19.71562
G1 X79.234 Y122.77 E19.80042
G1 X78.296 Y120.473 E19.88294
G1 X77.036 Y117.638 E19.98613
G1 X76.585 Y116.664 E20.02183
G1 X76.121 Y115.48 E20.06412
G1 X75.694 Y114.166 E20.11008
G1 X75.454 Y113.296 E20.14009
G1 X75.279 Y112.338 E20.17248
G1 X75.194 Y111.404 E20.20368
G1 X75.191 Y110.465 E20.23491
G1 X75.273 Y109.53 E20.26613
G1 X75.436 Y108.605 E20.29736
G1 X75.68 Y107.7 E20.32854
G1 X76.004 Y106.819 E20.35976
G1 X76.404 Y105.969 E20.39101
G1 X76.859 Y105.189 E20.42104
G1 X77.344 Y104.495 E20.4492
G1 X77.865 Y103.809 E20.47785
G1 X79.4 Y101.729 E20.56383
G1 X80.832 Y99.668 E20.6473
G1 X82.241 Y97.513 E20.73294
G1 X83.545 Y95.388 E20.81586
G1 X84.824 Y93.167 E20.90111
G1 X86.01 Y90.967 E20.98424
G1 X86.422 Y90.139 E21.015
G1 X86.544 Y89.918 E21.02339
G1 X87.112 Y88.803 E21.06501
G1 X87.575 Y87.988 E21.09619
G1 X88.109 Y87.215 E21.12744
G1 X88.71 Y86.494 E21.15865
G0 F9000 X88.994 Y86.776
G1 F3000 X89.63 Y86.135 E21.18869
G1 X90.394 Y85.495 E21.22184
G1 X91.101 Y84.96 E21.25133
G1 X91.988 Y84.307 E21.28796
G1 X93.259 Y83.305 E21.34179
G1 X93.424 Y83.186 E21.34856
G1 X94.424 Y82.408 E21.3907
G1 X95.16 Y81.885 E21.42073
G1 X96.265 Y81.266 E21.46285
G1 X98.829 Y80.032 E21.55749
G1 X101.089 Y78.863 E21.64212
G1 X103.287 Y77.647 E21.72567
G1 X105.507 Y76.334 E21.81146
G1 X107.619 Y75.004 E21.89447
G1 X109.712 Y73.6 E21.97829
G1 X110.677 Y72.907 E22.01781
G1 X110.951 Y72.728 E22.0287
G1 X111.872 Y72.075 E22.06625
G1 X112.631 Y71.586 E22.09628
G1 X113.43 Y71.166 E22.1263
G1 X114.264 Y70.818 E22.15636
G1 X114.975 Y70.587 E22.18122
G1 X115.56 Y70.42 E22.20145
G1 X118.111 Y69.658 E22.29001
G1 X120.513 Y68.864 E22.37415
G1 X122.916 Y67.995 E22.45914
G1 X125.269 Y67.067 E22.54327
G1 X127.621 Y66.062 E22.62834
G1 X129.003 Y65.435 E22.67881
G1 X130.071 Y65.021 E22.71691
G1 X131.376 Y64.598 E22.76254
G1 X132.246 Y64.358 E22.79255
G1 X133.135 Y64.196 E22.82261
G1 X134.034 Y64.113 E22.85264
G1 X134.937 Y64.109 E22.88267
G1 X135.837 Y64.186 E22.91271
G1 X136.727 Y64.342 E22.94277
G1 X137.599 Y64.576 E22.9728
G1 X138.447 Y64.887 E23.00284
G1 X139.63 Y65.473 E23.04675
G1 X142.376 Y67.062 E23.15227
G1 X144.556 Y68.236 E23.23462
G1 X146.88 Y69.406 E23.32116
G1 X149.153 Y70.469 E23.40462
G1 X151.539 Y71.505 E23.49114
G1 X152.95 Y72.087 E23.5419
G1 X153.769 Y72.469 E23.57196
G1 X154.551 Y72.921 E23.602
G1 X155.29 Y73.44 E23.63204
G1 X155.79 Y73.852 E23.65358
G1 X157.908 Y75.712 E23.74734
G1 X159.812 Y77.301 E23.82982
G1 X160.479 Y77.91 E23.85986
G1 X161.09 Y78.575 E23.8899
G1 X161.639 Y79.292 E23.91993
G1 X162.123 Y80.055 E23.94999
G1 X162.537 Y80.857 E23.98
G1 X162.879 Y81.693 E24.01005
G1 X163.146 Y82.556 E24.04009
G1 X163.292 Y83.198 E24.06199
G1 X163.584 Y84.711 E24.11324
G1 X164.112 Y87.206 E24.19806
G1 X164.707 Y89.673 E24.28247
G1 X165.373 Y92.129 E24.36711
G1 X166.113 Y94.578 E24.4522
G1 X166.903 Y96.952 E24.53541
G1 X167.792 Y99.389 E24.62169
G1 X168.709 Y101.696 E24.70426
G1 X169.728 Y104.064 E24.79001
G1 X170.8 Y106.373 E24.87468
G1 X171.914 Y108.606 E24.95768
G1 X173.805 Y112.084 E25.08935
G1 X174.42 Y113.161 E25.1306
G1 X174.833 Y113.964 E25.16063
G1 X175.26 Y115.06 E25.19975
G1 X175.684 Y116.363 E25.24533
G1 X175.926 Y117.233 E25.27536
G1 X176.089 Y118.121 E25.30539
G1 X176.173 Y119.021 E25.33546
G1 X176.177 Y119.924 E25.36549
G1 X176.101 Y120.824 E25.39553
G1 X175.946 Y121.713 E25.42555
G1 X175.713 Y122.586 E25.4556
G1 X175.404 Y123.434 E25.48562
G1 X175.02 Y124.252 E25.51567
G1 X174.523 Y125.099 E25.54834
G1 X173.045 Y127.361 E25.63821
G1 X171.701 Y129.551 E25.72367
G1 X170.434 Y131.751 E25.80811
G1 X169.22 Y134.005 E25.89326
G1 X168.09 Y136.254 E25.97697
G1 X167.021 Y138.543 E26.061
G1 X166.011 Y140.869 E26.14534
G1 X165.042 Y143.294 E26.2322
G1 X164.189 Y145.615 E26.31444
G1 X163.377 Y148.03 E26.39918
G1 X162.633 Y150.469 E26.48399
G1 X162.413 Y151.275 E26.51178
G1 X162.337 Y151.513 E26.52009
G1 X162.012 Y152.678 E26.56032
G1 X161.731 Y153.536 E26.59035
G1 X161.376 Y154.366 E26.62037
G1 X160.948 Y155.162 E26.65043
G1 X160.452 Y155.916 E26.68045
