;FLAVOR:Marlin
;TIME:4235
;Filament used: 2.55953m
;Layer height: 0.2
;MINX:53.5
;MINY:51.348
;MINZ:0.2
;MAXX:196.447
;MAXY:184.499
;MAXZ:1.8
;TARGET_MACHINE.NAME:Creality Ender-3
;Generated with Cura_SteamEngine 5.6.0
M140 S55
M105
M190 S55
M104 S210
M105
M109 S210
M82 ;absolute extrusion mode
; Ender 3 Custom Start G-code
G92 E0 ; Reset Extruder
G28 ; Home all axes
G1 Z2.0 F3000 ; Move Z Axis up little to prevent scratching of Heat Bed
G1 X0.1 Y20 Z0.3 F5000.0 ; Move to start position
G1 X0.1 Y200.0 Z0.3 F1500.0 E15 ; Draw the first line
G1 X0.4 Y200.0 Z0.3 F5000.0 ; Move to side a little
G1 X0.4 Y20 Z0.3 F1500.0 E30 ; Draw the second line
G92 E0 ; Reset Extruder
G1 Z2.0 F3000 ; Move Z Axis up little to prevent scratching of Heat Bed
G1 X5 Y20 Z0.3 F5000.0 ; Move over to prevent blob squish
G92 E0
G92 E0
G1 F2700 E-5
;LAYER_COUNT:9
;LAYER:0
M107
G0 F9000 X80.068 Y63.403 Z0.2
;TYPE:SKIRT
G1 F2700 E0
G1 F3000 X80.772 Y62.535 E0.03717
G1 X81.214 Y62.008 E0.06005
G1 X81.662 Y61.512 E0.08228
G1 X82.717 Y60.423 E0.13271
G1 X83.355 Y59.804 E0.16227
G1 X83.857 Y59.349 E0.18481
G1 X84.792 Y58.552 E0.22567
G1 X85.897 Y57.654 E0.27303
G1 X86.679 Y57.079 E0.30531
G1 X87.395 Y56.639 E0.33327
G1 X88.605 Y55.959 E0.37943
G1 X90.768 Y54.697 E0.46272
G1 X91.981 Y54.092 E0.50781
G1 X92.532 Y53.861 E0.52768
G1 X93.153 Y53.622 E0.54981
G1 X95.151 Y52.928 E0.62016
G1 X95.743 Y52.734 E0.64088
G1 X96.636 Y52.479 E0.67177
G1 X97.149 Y52.355 E0.68932
G1 X98.117 Y52.148 E0.72224
G1 X98.976 Y51.986 E0.75132
G1 X100.164 Y51.784 E0.7914
G1 X101.047 Y51.667 E0.82102
G1 X102.381 Y51.59 E0.86547
G1 X105.138 Y51.604 E0.95717
G1 X106.27 Y51.591 E0.99482
G1 X107.234 Y51.624 E1.0269
G1 X107.885 Y51.696 E1.04868
G1 X108.792 Y51.824 E1.07915
G1 X111.725 Y52.276 E1.17785
G1 X114.241 Y52.594 E1.2622
G1 X116.75 Y52.838 E1.34605
G1 X119.221 Y53.008 E1.42843
G1 X121.799 Y53.113 E1.51424
G1 X124.263 Y53.144 E1.5962
G1 X126.791 Y53.103 E1.68029
G1 X129.332 Y52.99 E1.76489
G1 X131.833 Y52.808 E1.84829
G1 X134.312 Y52.558 E1.93116
G1 X136.821 Y52.232 E2.01532
G1 X141.543 Y51.485 E2.17432
G1 X142.508 Y51.377 E2.20662
G1 X143.351 Y51.354 E2.23467
G1 X144.123 Y51.362 E2.26035
G1 X145.772 Y51.348 E2.31519
G1 X146.014 Y51.357 E2.32325
G1 X147.275 Y51.354 E2.36519
G1 X148.177 Y51.392 E2.39522
G1 X148.811 Y51.464 E2.41644
G1 X150.26 Y51.672 E2.46513
G1 X150.903 Y51.78 E2.48681
G1 X151.589 Y51.918 E2.51009
G1 X152.745 Y52.188 E2.54957
G1 X153.255 Y52.322 E2.56711
G1 X153.911 Y52.51 E2.58981
G1 X154.465 Y52.685 E2.60913
G1 X155.47 Y53.034 E2.64451
G1 X157.192 Y53.68 E2.70569
G1 X158.086 Y54.065 E2.73806
G1 X158.886 Y54.495 E2.76827
G1 X159.78 Y55.024 E2.80282
G1 X162.245 Y56.433 E2.89725
G1 X163.364 Y57.174 E2.94189
G1 X164.263 Y57.859 E2.97948
G1 X165.101 Y58.534 E3.01527
G1 X165.718 Y59.08 E3.04268
G1 X166.719 Y60.034 E3.08867
G1 X167.414 Y60.725 E3.12126
G1 X168.121 Y61.478 E3.15562
G1 X168.442 Y61.842 E3.17176
G1 X169.04 Y62.563 E3.20292
G1 X169.879 Y63.627 E3.24798
G1 X170.406 Y64.36 E3.27801
G1 X170.799 Y65.003 E3.30307
G1 X171.565 Y66.361 E3.35493
G1 X172.769 Y68.418 E3.43421
G1 X173.329 Y69.529 E3.47559
G1 X173.606 Y70.2 E3.49973
G1 X174.389 Y72.265 E3.57318
G1 X175.351 Y74.687 E3.65986
G1 X176.323 Y76.94 E3.74147
G1 X177.393 Y79.24 E3.82585
G1 X178.514 Y81.483 E3.90925
G1 X179.718 Y83.732 E3.99409
G1 X180.971 Y85.921 E4.07798
G1 X182.267 Y88.042 E4.16065
G1 X183.641 Y90.154 E4.24446
G1 X185.085 Y92.242 E4.32889
G1 X186.569 Y94.263 E4.41229
G1 X188.108 Y96.24 E4.49562
G1 X189.515 Y97.956 E4.56943
G1 X190.476 Y99.173 E4.621
G1 X191.003 Y99.906 E4.65103
G1 X191.392 Y100.543 E4.67585
G1 X192.22 Y102.008 E4.73182
G1 X193.338 Y103.914 E4.80532
G1 X193.788 Y104.772 E4.83754
G1 X194.104 Y105.514 E4.86437
G1 X194.793 Y107.328 E4.9289
G1 X195.169 Y108.416 E4.96719
G1 X195.456 Y109.398 E5.00122
G1 X195.7 Y110.414 E5.03597
G1 X195.986 Y111.722 E5.0805
G1 X196.1 Y112.325 E5.10092
G1 X196.261 Y113.331 E5.1348
G1 X196.364 Y114.116 E5.16113
G1 X196.447 Y115.471 E5.20629
G1 X196.447 Y119.562 E5.34235
G1 X196.407 Y120.464 E5.37238
G1 X196.315 Y121.224 E5.39785
G1 X195.997 Y123.259 E5.46635
G1 X195.878 Y123.895 E5.48787
G1 X195.719 Y124.581 E5.51129
G1 X195.49 Y125.438 E5.5408
G1 X195.105 Y126.753 E5.58637
G1 X194.87 Y127.462 E5.61121
G1 X194.373 Y128.804 E5.65881
G1 X194.039 Y129.645 E5.68891
G1 X193.623 Y130.559 E5.72231
G1 X193.254 Y131.224 E5.7476
G1 X192.905 Y131.804 E5.77012
G1 X191.35 Y134.516 E5.87409
G1 X190.639 Y135.592 E5.91699
G1 X190.221 Y136.147 E5.9401
G1 X188.167 Y138.769 E6.05088
G1 X186.691 Y140.777 E6.13377
G1 X185.22 Y142.901 E6.2197
G1 X183.868 Y144.974 E6.30202
G1 X182.54 Y147.146 E6.38669
G1 X181.3 Y149.307 E6.46956
G1 X180.117 Y151.512 E6.55278
G1 X178.985 Y153.774 E6.63691
G1 X177.915 Y156.071 E6.72119
G1 X176.924 Y158.365 E6.80431
G1 X175.978 Y160.737 E6.88924
G1 X174.957 Y163.544 E6.98859
G1 X174.661 Y164.387 E7.01831
G1 X174.372 Y165.144 E7.04526
G1 X174.069 Y165.878 E7.07167
G1 X173.453 Y167.115 E7.11763
G1 X172.114 Y169.41 E7.206
G1 X171.455 Y170.574 E7.25049
G1 X170.944 Y171.39 E7.28252
G1 X170.589 Y171.874 E7.30248
G1 X170.142 Y172.44 E7.32647
G1 X169.075 Y173.743 E7.38248
G1 X168.399 Y174.492 E7.41604
G1 X167.129 Y175.763 E7.4758
G1 X166.471 Y176.384 E7.50589
G1 X166.072 Y176.741 E7.5237
G1 X165.578 Y177.154 E7.54512
G1 X164.322 Y178.154 E7.59851
G1 X163.54 Y178.722 E7.63066
G1 X162.93 Y179.097 E7.65448
G1 X160.589 Y180.429 E7.74406
G1 X159.649 Y180.989 E7.78045
G1 X158.813 Y181.436 E7.81198
G1 X158.357 Y181.644 E7.82865
G1 X157.581 Y181.976 E7.85673
G1 X156.807 Y182.283 E7.88442
G1 X156.226 Y182.49 E7.90493
G1 X155.55 Y182.707 E7.92855
G1 X153.865 Y183.218 E7.98711
G1 X153.239 Y183.387 E8.00868
G1 X152.578 Y183.537 E8.03122
G1 X151.388 Y183.763 E8.07151
G1 X149.67 Y184.036 E8.12937
G1 X148.704 Y184.145 E8.1617
G1 X147.829 Y184.169 E8.19081
G1 X147.296 Y184.162 E8.20854
G1 X143.901 Y184.171 E8.32146
G1 X142.944 Y184.129 E8.35332
G1 X142.44 Y184.072 E8.37019
G1 X141.628 Y183.961 E8.39745
G1 X138.434 Y183.478 E8.50489
G1 X135.9 Y183.166 E8.58981
G1 X133.433 Y182.934 E8.67222
G1 X130.917 Y182.769 E8.75609
G1 X128.388 Y182.674 E8.84026
G1 X125.855 Y182.65 E8.92451
G1 X123.387 Y182.698 E9.00661
G1 X120.823 Y182.819 E9.09199
G1 X118.337 Y183.007 E9.17491
G1 X115.834 Y183.27 E9.25862
G1 X113.334 Y183.602 E9.3425
G1 X108.972 Y184.309 E9.48947
G1 X108.154 Y184.417 E9.51691
G1 X106.757 Y184.499 E9.56346
G1 X104.069 Y184.487 E9.65286
G1 X102.822 Y184.499 E9.69434
G1 X101.863 Y184.463 E9.72626
G1 X101.27 Y184.398 E9.7461
G1 X100.68 Y184.315 E9.76592
G1 X98.983 Y184.042 E9.82308
G1 X97.978 Y183.831 E9.85724
G1 X96.54 Y183.456 E9.90667
G1 X95.332 Y183.1 E9.94855
G1 X94.786 Y182.921 E9.96766
G1 X94.139 Y182.683 E9.99059
G1 X92.67 Y182.104 E10.04311
G1 X91.788 Y181.708 E10.07527
G1 X91.086 Y181.322 E10.10191
G1 X90.455 Y180.945 E10.12636
G1 X87.763 Y179.402 E10.22956
G1 X86.677 Y178.684 E10.27286
G1 X85.766 Y177.984 E10.31108
G1 X84.712 Y177.117 E10.35647
G1 X84.101 Y176.572 E10.3837
G1 X83.236 Y175.741 E10.42359
G1 X82.39 Y174.875 E10.46386
G1 X81.943 Y174.383 E10.48597
G1 X80.973 Y173.239 E10.53586
G1 X80.226 Y172.309 E10.57553
G1 X79.692 Y171.581 E10.60556
G1 X79.26 Y170.885 E10.63281
G1 X77.959 Y168.598 E10.72032
G1 X77.339 Y167.552 E10.76076
G1 X76.889 Y166.708 E10.79257
G1 X76.679 Y166.242 E10.80957
G1 X76.436 Y165.665 E10.8304
G1 X76.225 Y165.124 E10.84971
G1 X75.823 Y164.003 E10.88932
G1 X74.927 Y161.646 E10.97319
G1 X73.939 Y159.258 E11.05914
G1 X72.912 Y156.961 E11.14283
G1 X71.841 Y154.737 E11.22493
G1 X70.657 Y152.451 E11.31056
G1 X69.463 Y150.291 E11.39264
G1 X68.178 Y148.118 E11.47661
G1 X66.821 Y145.962 E11.56134
G1 X65.425 Y143.879 E11.64474
G1 X63.962 Y141.824 E11.72864
G1 X62.447 Y139.818 E11.81225
G1 X60.126 Y136.927 E11.93556
G1 X59.482 Y136.11 E11.97016
G1 X58.92 Y135.325 E12.00227
G1 X58.551 Y134.717 E12.02593
G1 X57.671 Y133.153 E12.08561
G1 X56.656 Y131.432 E12.15207
G1 X56.006 Y130.141 E12.20014
G1 X55.595 Y129.162 E12.23546
G1 X55.39 Y128.635 E12.25426
G1 X55.18 Y128.043 E12.27516
G1 X54.983 Y127.431 E12.29654
G1 X54.443 Y125.661 E12.35809
G1 X54.171 Y124.572 E12.39542
G1 X53.912 Y123.222 E12.44114
G1 X53.642 Y121.542 E12.49774
G1 X53.531 Y120.576 E12.53008
G1 X53.506 Y119.707 E12.55899
G1 X53.515 Y118.886 E12.5863
G1 X53.5 Y117.235 E12.64122
G1 X53.509 Y116.988 E12.64944
G1 X53.507 Y115.712 E12.69188
G1 X53.546 Y114.81 E12.72191
G1 X53.618 Y114.171 E12.74329
G1 X53.824 Y112.748 E12.79112
G1 X53.93 Y112.112 E12.81256
G1 X54.052 Y111.49 E12.83364
G1 X54.234 Y110.693 E12.86083
G1 X54.526 Y109.56 E12.89975
G1 X54.746 Y108.83 E12.92511
G1 X55.277 Y107.288 E12.97935
G1 X55.833 Y105.812 E13.03181
G1 X56.219 Y104.92 E13.06414
G1 X56.647 Y104.123 E13.09422
G1 X57.157 Y103.258 E13.12762
G1 X58.562 Y100.802 E13.22173
G1 X59.07 Y99.988 E13.25365
G1 X59.44 Y99.479 E13.27457
G1 X60.232 Y98.463 E13.31742
G1 X60.654 Y97.946 E13.33962
G1 X62.27 Y95.909 E13.4261
G1 X63.751 Y93.928 E13.50837
G1 X65.216 Y91.85 E13.59293
G1 X66.595 Y89.769 E13.67596
G1 X67.936 Y87.616 E13.76032
G1 X69.2 Y85.453 E13.84365
G1 X70.411 Y83.243 E13.92747
G1 X71.563 Y80.986 E14.01175
G1 X72.636 Y78.729 E14.09487
G1 X73.662 Y76.406 E14.17933
G1 X74.617 Y74.063 E14.26348
G1 X75.217 Y72.492 E14.31942
G1 X75.879 Y70.715 E14.38249
G1 X76.177 Y69.969 E14.40921
G1 X76.553 Y69.148 E14.43924
G1 X76.921 Y68.483 E14.46452
G1 X77.253 Y67.929 E14.486
G1 X78.37 Y65.999 E14.56017
G1 X78.82 Y65.202 E14.59061
G1 X79.312 Y64.413 E14.62154
G1 X79.623 Y63.982 E14.63921
G1 X80.068 Y63.403 E14.6635
G0 F9000 X80.379 Y63.655
G1 F3000 X81.078 Y62.792 E14.70044
G1 X81.511 Y62.276 E14.72284
G1 X81.949 Y61.79 E14.74461
G1 X82.995 Y60.71 E14.79461
G1 X83.624 Y60.1 E14.82375
G1 X84.116 Y59.653 E14.84586
G1 X85.044 Y58.862 E14.88642
G1 X86.134 Y57.976 E14.93314
G1 X86.889 Y57.42 E14.96433
G1 X87.591 Y56.988 E14.99174
G1 X88.801 Y56.308 E15.03791
G1 X90.947 Y55.055 E15.12056
G1 X92.16 Y54.45 E15.16564
G1 X92.676 Y54.234 E15.18425
G1 X93.284 Y54 E15.20592
G1 X95.275 Y53.308 E15.27602
G1 X95.853 Y53.119 E15.29625
G1 X96.73 Y52.868 E15.32659
G1 X97.233 Y52.746 E15.3438
G1 X98.191 Y52.541 E15.37639
G1 X99.043 Y52.38 E15.40523
G1 X100.217 Y52.18 E15.44484
G1 X101.07 Y52.066 E15.47346
G1 X102.379 Y51.99 E15.51707
G1 X105.141 Y52.004 E15.60894
G1 X106.257 Y51.991 E15.64606
G1 X107.19 Y52.022 E15.67711
G1 X107.829 Y52.092 E15.69849
G1 X108.731 Y52.219 E15.72878
G1 X111.675 Y52.673 E15.82786
G1 X114.191 Y52.991 E15.91221
G1 X116.717 Y53.237 E15.99662
G1 X119.205 Y53.408 E16.07957
G1 X121.783 Y53.513 E16.16538
G1 X124.264 Y53.544 E16.24791
G1 X126.809 Y53.503 E16.33256
G1 X129.35 Y53.39 E16.41716
G1 X131.866 Y53.207 E16.50107
G1 X134.364 Y52.955 E16.58457
G1 X136.873 Y52.629 E16.66872
G1 X141.588 Y51.882 E16.8275
G1 X142.519 Y51.777 E16.85866
G1 X143.347 Y51.754 E16.88621
G1 X144.122 Y51.762 E16.91199
G1 X145.757 Y51.748 E16.96637
G1 X146 Y51.757 E16.97446
G1 X147.258 Y51.754 E17.0163
G1 X148.16 Y51.792 E17.04633
G1 X148.754 Y51.86 E17.06621
G1 X150.194 Y52.067 E17.1146
G1 X150.824 Y52.172 E17.13584
G1 X151.498 Y52.307 E17.15871
G1 X152.644 Y52.575 E17.19785
G1 X153.144 Y52.706 E17.21504
G1 X153.791 Y52.892 E17.23743
G1 X154.334 Y53.063 E17.25637
G1 X155.33 Y53.409 E17.29144
G1 X157.034 Y54.048 E17.35197
G1 X157.897 Y54.418 E17.3832
G1 X158.682 Y54.839 E17.41282
G1 X159.576 Y55.368 E17.44737
G1 X162.024 Y56.767 E17.54115
G1 X163.143 Y57.508 E17.58579
G1 X164.012 Y58.17 E17.62212
G1 X164.836 Y58.834 E17.65732
G1 X165.442 Y59.37 E17.68423
G1 X166.437 Y60.318 E17.72994
G1 X167.122 Y60.999 E17.76207
G1 X167.821 Y61.743 E17.79602
G1 X168.134 Y62.098 E17.81176
G1 X168.726 Y62.811 E17.84258
G1 X169.554 Y63.861 E17.88706
G1 X170.081 Y64.594 E17.91709
G1 X170.451 Y65.2 E17.9407
G1 X171.22 Y66.563 E17.99275
G1 X172.412 Y68.598 E18.07119
G1 X172.959 Y69.682 E18.11158
G1 X173.232 Y70.342 E18.13533
G1 X174.017 Y72.413 E18.209
G1 X174.98 Y74.835 E18.29569
G1 X175.96 Y77.109 E18.37805
G1 X177.035 Y79.419 E18.46279
G1 X178.161 Y81.672 E18.54656
G1 X179.365 Y83.921 E18.63141
G1 X180.63 Y86.13 E18.71607
G1 X181.926 Y88.251 E18.79875
G1 X183.312 Y90.382 E18.8833
G1 X184.756 Y92.47 E18.96773
G1 X186.253 Y94.509 E19.05187
G1 X187.792 Y96.486 E19.1352
G1 X189.201 Y98.204 E19.2091
G1 X190.151 Y99.407 E19.26008
G1 X190.678 Y100.14 E19.29011
G1 X191.044 Y100.74 E19.31348
G1 X191.875 Y102.21 E19.36965
G1 X192.984 Y104.1 E19.44253
G1 X193.42 Y104.929 E19.47368
G1 X193.73 Y105.656 E19.49997
G1 X194.415 Y107.459 E19.56412
G1 X194.785 Y108.528 E19.60175
G1 X195.067 Y109.491 E19.63512
G1 X195.309 Y110.5 E19.66963
G1 X195.593 Y111.796 E19.71376
G1 X195.705 Y112.388 E19.7338
G1 X195.864 Y113.383 E19.76731
G1 X195.967 Y114.168 E19.79364
G1 X196.047 Y115.471 E19.83706
G1 X196.047 Y119.544 E19.97253
G1 X196.007 Y120.446 E20.00256
G1 X195.92 Y121.162 E20.02655
G1 X195.604 Y123.185 E20.09465
G1 X195.488 Y123.805 E20.11563
G1 X195.332 Y124.478 E20.13861
G1 X195.106 Y125.326 E20.1678
G1 X194.725 Y126.627 E20.21289
G1 X194.495 Y127.323 E20.23727
G1 X194.001 Y128.656 E20.28455
G1 X193.667 Y129.497 E20.31465
G1 X193.273 Y130.365 E20.34635
G1 X192.911 Y131.018 E20.37119
G1 X192.562 Y131.598 E20.3937
G1 X191.016 Y134.295 E20.49709
G1 X190.305 Y135.371 E20.53999
G1 X189.906 Y135.9 E20.56203
G1 X187.852 Y138.522 E20.67281
G1 X186.362 Y140.549 E20.75648
G1 X184.891 Y142.673 E20.84241
G1 X183.533 Y144.756 E20.92512
G1 X182.199 Y146.937 E21.01015
G1 X180.953 Y149.108 E21.09341
G1 X179.759 Y151.333 E21.17739
G1 X178.627 Y153.595 E21.26152
G1 X177.552 Y155.902 E21.34618
G1 X176.552 Y158.217 E21.43005
G1 X175.606 Y160.589 E21.51498
G1 X174.581 Y163.407 E21.61472
G1 X174.287 Y164.244 E21.64423
G1 X174.002 Y164.991 E21.67082
G1 X173.699 Y165.725 E21.69723
G1 X173.095 Y166.936 E21.74224
G1 X171.769 Y169.208 E21.82973
G1 X171.116 Y170.362 E21.87384
G1 X170.621 Y171.153 E21.90487
G1 X170.266 Y171.637 E21.92483
G1 X169.833 Y172.187 E21.94812
G1 X168.778 Y173.475 E22.00349
G1 X168.116 Y174.209 E22.03637
G1 X166.855 Y175.472 E22.09573
G1 X166.204 Y176.086 E22.12549
G1 X165.815 Y176.434 E22.14285
G1 X165.329 Y176.841 E22.16394
G1 X164.087 Y177.831 E22.21676
G1 X163.331 Y178.381 E22.24786
G1 X162.732 Y178.749 E22.27124
G1 X160.391 Y180.081 E22.36082
G1 X159.46 Y180.636 E22.39687
G1 X158.624 Y181.083 E22.4284
G1 X158.2 Y181.276 E22.4439
G1 X157.433 Y181.604 E22.47164
G1 X156.672 Y181.906 E22.49887
G1 X156.104 Y182.109 E22.51894
G1 X155.434 Y182.324 E22.54234
G1 X153.761 Y182.832 E22.60049
G1 X153.151 Y182.997 E22.62151
G1 X152.503 Y183.144 E22.64361
G1 X151.325 Y183.368 E22.68349
G1 X149.625 Y183.639 E22.74075
G1 X148.693 Y183.745 E22.77195
G1 X147.834 Y183.769 E22.80053
G1 X147.3 Y183.762 E22.81829
G1 X143.918 Y183.771 E22.93078
G1 X142.988 Y183.731 E22.96174
G1 X142.494 Y183.676 E22.97827
G1 X141.688 Y183.566 E23.00533
G1 X138.483 Y183.081 E23.11314
G1 X135.949 Y182.769 E23.19806
G1 X133.464 Y182.535 E23.28107
G1 X130.932 Y182.369 E23.36547
G1 X128.403 Y182.274 E23.44964
G1 X125.851 Y182.25 E23.53453
G1 X123.368 Y182.298 E23.61713
G1 X120.804 Y182.419 E23.7025
G1 X118.298 Y182.609 E23.78609
G1 X115.781 Y182.873 E23.87027
G1 X113.281 Y183.205 E23.95415
G1 X108.92 Y183.912 E24.10109
G1 X108.102 Y184.02 E24.12853
G1 X106.759 Y184.099 E24.17328
G1 X104.067 Y184.087 E24.26281
G1 X102.837 Y184.099 E24.30372
G1 X101.906 Y184.065 E24.33471
G1 X101.326 Y184.002 E24.35411
G1 X100.743 Y183.92 E24.3737
G1 X99.065 Y183.651 E24.43022
G1 X98.079 Y183.444 E24.46373
G1 X96.653 Y183.072 E24.51274
G1 X95.456 Y182.72 E24.55424
G1 X94.924 Y182.546 E24.57286
G1 X94.286 Y182.311 E24.59547
G1 X92.833 Y181.739 E24.64741
G1 X91.98 Y181.357 E24.6785
G1 X91.291 Y180.979 E24.70463
G1 X90.654 Y180.598 E24.72932
G1 X87.984 Y179.068 E24.83167
G1 X86.898 Y178.35 E24.87497
G1 X86.02 Y177.675 E24.91181
G1 X84.978 Y176.818 E24.95668
G1 X84.378 Y176.283 E24.98342
G1 X83.522 Y175.461 E25.02289
G1 X82.686 Y174.606 E25.06266
G1 X82.248 Y174.124 E25.08433
G1 X81.285 Y172.988 E25.13386
G1 X80.549 Y172.072 E25.17294
G1 X80.015 Y171.344 E25.20297
G1 X79.608 Y170.687 E25.22867
