;FLAVOR:Marlin
;TIME:2712
;Filament used: 1.51787m
;Layer height: 0.2
;MINX:85.203
;MINY:53.972
;MINZ:0.2
;MAXX:164.842
;MAXY:157.346
;MAXZ:23
;TARGET_MACHINE.NAME:Creality Ender-3
;Generated with Cura_SteamEngine 5.6.0
M140 S55
M105
M190 S55
M104 S210
M105
M109 S210
M82 ;absolute extrusion mode
; Ender 3 Custom Start G-code
G92 E0 ; Reset Extruder
G28 ; Home all axes
G1 Z2.0 F3000 ; Move Z Axis up little to prevent scratching of Heat Bed
G1 X0.1 Y20 Z0.3 F5000.0 ; Move to start position
G1 X0.1 Y200.0 Z0.3 F1500.0 E15 ; Draw the first line
G1 X0.4 Y200.0 Z0.3 F5000.0 ; Move to side a little
G1 X0.4 Y20 Z0.3 F1500.0 E30 ; Draw the second line
G92 E0 ; Reset Extruder
G1 Z2.0 F3000 ; Move Z Axis up little to prevent scratching of Heat Bed
G1 X5 Y20 Z0.3 F5000.0 ; Move over to prevent blob squish
G92 E0
G92 E0
G1 F2700 E-5
;LAYER_COUNT:115
;LAYER:0
M107
G0 F9000 X100.393 Y61.342 Z0.2
;TYPE:SKIRT
G1 F2700 E0
G1 F3000 X100.851 Y60.638 E0.02793
G1 X101.6 Y59.584 E0.07094
G1 X102.091 Y58.919 E0.09843
G1 X102.669 Y58.203 E0.12904
G1 X103.14 Y57.67 E0.1527
G1 X103.831 Y56.958 E0.1857
G1 X104.569 Y56.322 E0.2181
G1 X105.359 Y55.755 E0.25044
G1 X106.197 Y55.258 E0.28285
G1 X107.077 Y54.838 E0.31528
G1 X107.955 Y54.509 E0.34647
G1 X108.928 Y54.24 E0.38004
G1 X109.886 Y54.065 E0.41243
G1 X110.855 Y53.976 E0.4448
G1 X111.829 Y53.972 E0.47719
G1 X112.769 Y54.051 E0.50857
G1 X115.97 Y54.46 E0.6159
G1 X118.417 Y54.697 E0.69767
G1 X120.926 Y54.869 E0.78131
G1 X123.491 Y54.973 E0.86669
G1 X125.954 Y55.003 E0.94862
G1 X128.49 Y54.961 E1.03298
G1 X131.021 Y54.848 E1.11724
G1 X133.517 Y54.666 E1.20048
G1 X136.039 Y54.41 E1.2848
G1 X138.71 Y54.066 E1.37437
G1 X139.682 Y53.988 E1.4068
G1 X140.655 Y53.996 E1.43916
G1 X141.624 Y54.09 E1.47154
G1 X142.582 Y54.269 E1.50396
G1 X143.518 Y54.532 E1.5363
G1 X144.43 Y54.877 E1.56873
G1 X145.306 Y55.301 E1.6011
G1 X146.143 Y55.802 E1.63354
G1 X146.93 Y56.374 E1.6659
G1 X147.665 Y57.014 E1.69831
G1 X148.353 Y57.729 E1.73132
G1 X148.842 Y58.292 E1.75612
G1 X149.554 Y59.146 E1.7931
G1 X150.071 Y59.787 E1.82049
G1 X150.789 Y60.794 E1.86163
G1 X151.366 Y61.712 E1.89769
G1 X152.042 Y62.859 E1.94197
G1 X152.331 Y63.389 E1.96205
G1 X152.643 Y64.018 E1.9854
G1 X153.253 Y65.332 E2.03359
G1 X153.557 Y66.06 E2.05982
G1 X154 Y67.235 E2.10159
G1 X154.329 Y68.184 E2.135
G1 X154.533 Y68.859 E2.15845
G1 X154.855 Y70.06 E2.19981
G1 X155.087 Y71.031 E2.23301
G1 X155.228 Y71.736 E2.25692
G1 X155.467 Y73.223 E2.30702
G1 X155.563 Y73.937 E2.33098
G1 X155.634 Y74.655 E2.35498
G1 X155.717 Y75.923 E2.39724
G1 X155.753 Y76.895 E2.42959
G1 X155.754 Y77.529 E2.45068
G1 X155.712 Y79.062 E2.50168
G1 X155.678 Y81.657 E2.588
G1 X155.717 Y84.182 E2.67199
G1 X155.824 Y86.654 E2.75429
G1 X156.007 Y89.208 E2.83945
G1 X156.256 Y91.687 E2.92232
G1 X156.582 Y94.216 E3.00713
G1 X156.97 Y96.678 E3.09003
G1 X157.433 Y99.155 E3.17384
G1 X157.97 Y101.634 E3.25821
G1 X158.562 Y104.036 E3.34049
G1 X159.239 Y106.49 E3.42516
G1 X159.978 Y108.894 E3.50881
G1 X160.784 Y111.276 E3.59244
G1 X161.659 Y113.642 E3.67635
G1 X162.584 Y115.94 E3.75874
G1 X162.943 Y116.754 E3.78833
G1 X163.03 Y116.977 E3.79629
G1 X163.541 Y118.167 E3.83936
G1 X163.889 Y119.095 E3.87233
G1 X164.325 Y120.435 E3.9192
G1 X164.582 Y121.375 E3.95161
G1 X164.744 Y122.263 E3.98163
G1 X164.84 Y123.303 E4.01637
G1 X164.842 Y124.278 E4.0488
G1 X164.756 Y125.248 E4.08119
G1 X164.584 Y126.206 E4.11356
G1 X164.33 Y127.146 E4.14595
G1 X163.993 Y128.059 E4.17831
G1 X163.576 Y128.94 E4.21073
G1 X163.085 Y129.779 E4.24307
G1 X162.563 Y130.517 E4.27313
G1 X162.117 Y131.06 E4.2965
G1 X160.244 Y133.192 E4.39089
G1 X158.66 Y135.088 E4.47306
G1 X158.001 Y135.806 E4.50548
G1 X157.281 Y136.463 E4.5379
G1 X156.506 Y137.052 E4.57027
G1 X155.683 Y137.571 E4.60263
G1 X154.823 Y138.013 E4.63479
G1 X154.16 Y138.291 E4.65871
G1 X151.314 Y139.416 E4.76049
G1 X148.995 Y140.414 E4.84446
G1 X146.74 Y141.461 E4.92715
G1 X144.477 Y142.59 E5.01127
G1 X142.259 Y143.777 E5.09494
G1 X140.06 Y145.034 E5.17918
G1 X137.905 Y146.348 E5.26313
G1 X135.801 Y147.714 E5.34657
G1 X133.727 Y149.147 E5.43041
G1 X131.575 Y150.727 E5.51921
G1 X129.687 Y152.155 E5.59794
G1 X128.925 Y152.716 E5.62941
G1 X127.637 Y153.73 E5.68394
G1 X126.481 Y154.622 E5.7325
G1 X125.67 Y155.195 E5.76553
G1 X124.828 Y155.682 E5.79788
G1 X123.947 Y156.093 E5.83021
G1 X123.131 Y156.393 E5.85913
G1 X121.792 Y156.828 E5.90596
G1 X120.852 Y157.086 E5.93838
G1 X119.964 Y157.248 E5.9684
G1 X118.923 Y157.343 E6.00317
G1 X117.984 Y157.346 E6.0344
G1 X116.978 Y157.258 E6.06799
G1 X116.02 Y157.086 E6.10036
G1 X115.081 Y156.831 E6.13272
G1 X114.167 Y156.494 E6.16512
G1 X113.286 Y156.078 E6.19753
G1 X112.477 Y155.604 E6.22871
G1 X111.687 Y155.045 E6.2609
G1 X111.171 Y154.62 E6.28313
G1 X109.039 Y152.747 E6.37752
G1 X107.143 Y151.163 E6.4597
G1 X106.425 Y150.504 E6.49211
G1 X105.768 Y149.784 E6.52453
G1 X105.179 Y149.009 E6.5569
G1 X104.66 Y148.186 E6.58927
G1 X104.218 Y147.326 E6.62143
G1 X103.932 Y146.642 E6.64609
G1 X103.561 Y145.663 E6.68091
G1 X102.629 Y143.292 E6.76564
G1 X101.619 Y140.927 E6.85117
G1 X100.58 Y138.663 E6.93402
G1 X99.444 Y136.364 E7.01932
G1 X98.285 Y134.181 E7.10152
G1 X97.032 Y131.973 E7.18596
G1 X95.727 Y129.816 E7.26981
G1 X94.353 Y127.684 E7.35417
G1 X92.964 Y125.658 E7.43587
G1 X91.145 Y123.173 E7.5383
G1 X90.48 Y122.294 E7.57496
G1 X89.84 Y121.424 E7.61088
G1 X88.828 Y120.14 E7.66526
G1 X87.926 Y118.971 E7.71437
G1 X87.356 Y118.161 E7.74731
G1 X86.867 Y117.318 E7.77973
G1 X86.457 Y116.439 E7.81198
G1 X86.158 Y115.628 E7.84073
G1 X85.721 Y114.285 E7.88771
G1 X85.48 Y113.414 E7.91777
G1 X85.293 Y112.385 E7.95255
G1 X85.206 Y111.416 E7.98491
G1 X85.203 Y110.477 E8.01614
G1 X85.291 Y109.472 E8.04969
G1 X85.462 Y108.512 E8.08213
G1 X85.716 Y107.573 E8.11448
G1 X86.05 Y106.666 E8.14663
G1 X86.358 Y105.996 E8.17115
G1 X87.534 Y103.651 E8.25841
G1 X88.61 Y101.345 E8.34304
G1 X89.614 Y99.025 E8.42712
G1 X90.53 Y96.734 E8.50919
G1 X91.412 Y94.334 E8.59423
G1 X92.205 Y91.968 E8.67723
G1 X92.936 Y89.564 E8.7608
G1 X93.609 Y87.106 E8.84556
G1 X94.201 Y84.669 E8.92897
G1 X94.728 Y82.205 E9.01278
G1 X95.186 Y79.721 E9.09679
G1 X95.566 Y77.262 E9.17955
G1 X95.823 Y75.285 E9.24586
G1 X96.065 Y73.268 E9.31342
G1 X96.197 Y72.366 E9.34374
G1 X96.321 Y71.686 E9.36673
G1 X96.524 Y70.733 E9.39914
G1 X96.783 Y69.659 E9.43589
G1 X96.964 Y69.006 E9.45843
G1 X97.306 Y67.915 E9.49645
G1 X97.621 Y66.991 E9.52892
G1 X97.883 Y66.308 E9.55325
G1 X98.33 Y65.251 E9.59142
G1 X98.883 Y64.041 E9.63567
G1 X99.179 Y63.45 E9.65766
G1 X99.482 Y62.896 E9.67866
G1 X99.986 Y62.023 E9.71219
G1 X100.393 Y61.342 E9.73857
G0 F9000 X100.728 Y61.56
G1 F3000 X101.177 Y60.87 E9.76595
G1 X101.922 Y59.821 E9.80875
G1 X102.402 Y59.17 E9.83565
G1 X102.969 Y58.468 E9.86566
G1 X103.44 Y57.935 E9.88932
G1 X104.093 Y57.261 E9.92053
G1 X104.803 Y56.647 E9.95175
G1 X105.564 Y56.099 E9.98294
G1 X106.37 Y55.619 E10.01414
G1 X107.217 Y55.213 E10.04539
G1 X108.095 Y54.884 E10.07657
G1 X109 Y54.633 E10.10781
G1 X109.923 Y54.463 E10.13902
G1 X110.857 Y54.376 E10.17022
G1 X111.796 Y54.371 E10.20145
G1 X112.718 Y54.448 E10.23223
G1 X115.919 Y54.857 E10.33956
G1 X118.384 Y55.096 E10.42193
G1 X120.91 Y55.269 E10.50614
G1 X123.475 Y55.373 E10.59152
G1 X125.956 Y55.403 E10.67405
G1 X128.508 Y55.361 E10.75894
G1 X131.039 Y55.248 E10.8432
G1 X133.55 Y55.065 E10.92694
G1 X136.09 Y54.807 E11.01186
G1 X138.743 Y54.465 E11.10083
G1 X139.679 Y54.388 E11.13206
G1 X140.617 Y54.394 E11.16326
G1 X141.551 Y54.483 E11.19447
G1 X142.474 Y54.654 E11.22569
G1 X143.377 Y54.906 E11.25687
G1 X144.256 Y55.237 E11.28811
G1 X145.101 Y55.645 E11.31932
G1 X145.908 Y56.126 E11.35057
G1 X146.668 Y56.676 E11.38177
G1 X147.377 Y57.291 E11.41299
G1 X148.051 Y57.991 E11.44531
G1 X148.535 Y58.548 E11.46985
G1 X149.243 Y59.397 E11.50662
G1 X149.745 Y60.019 E11.5332
G1 X150.45 Y61.007 E11.57357
G1 X151.021 Y61.915 E11.60925
G1 X151.691 Y63.051 E11.65311
G1 X151.973 Y63.567 E11.67267
G1 X152.28 Y64.186 E11.69565
G1 X152.884 Y65.487 E11.74336
G1 X153.183 Y66.201 E11.7691
G1 X153.622 Y67.366 E11.81051
G1 X153.946 Y68.3 E11.84339
G1 X154.147 Y68.963 E11.86644
G1 X154.466 Y70.153 E11.90741
G1 X154.695 Y71.109 E11.94011
G1 X154.833 Y71.8 E11.96355
G1 X155.071 Y73.276 E12.01327
G1 X155.165 Y73.977 E12.0368
G1 X155.235 Y74.681 E12.06033
G1 X155.317 Y75.938 E12.10222
G1 X155.353 Y76.896 E12.13411
G1 X155.354 Y77.518 E12.1548
G1 X155.312 Y79.051 E12.2058
G1 X155.278 Y81.652 E12.29232
G1 X155.317 Y84.199 E12.37704
G1 X155.425 Y86.683 E12.45974
G1 X155.609 Y89.248 E12.54527
G1 X155.859 Y91.738 E12.62851
G1 X156.185 Y94.267 E12.71332
G1 X156.577 Y96.751 E12.79696
G1 X157.042 Y99.24 E12.88117
G1 X157.579 Y101.719 E12.96554
G1 X158.176 Y104.142 E13.04854
G1 X158.853 Y106.596 E13.13321
G1 X159.599 Y109.022 E13.21762
G1 X160.409 Y111.415 E13.30165
G1 X161.288 Y113.791 E13.38591
G1 X162.218 Y116.101 E13.46874
G1 X162.57 Y116.899 E13.49775
G1 X162.662 Y117.135 E13.50617
G1 X163.173 Y118.325 E13.54924
G1 X163.509 Y119.219 E13.58101
G1 X163.939 Y120.541 E13.62725
G1 X164.188 Y121.447 E13.6585
G1 X164.35 Y122.335 E13.68852
G1 X164.44 Y123.304 E13.72089
G1 X164.443 Y124.243 E13.75212
G1 X164.362 Y125.178 E13.78333
G1 X164.198 Y126.102 E13.81455
G1 X163.955 Y127.008 E13.84575
G1 X163.631 Y127.889 E13.87697
G1 X163.231 Y128.738 E13.90818
G1 X162.758 Y129.548 E13.93938
G1 X162.236 Y130.286 E13.96945
G1 X161.816 Y130.796 E13.99142
G1 X159.943 Y132.928 E14.08581
G1 X158.365 Y134.818 E14.1677
G1 X157.731 Y135.511 E14.19894
G1 X157.038 Y136.145 E14.23018
G1 X156.292 Y136.714 E14.26138
G1 X155.5 Y137.215 E14.29255
G1 X154.668 Y137.644 E14.32369
G1 X154.013 Y137.919 E14.34732
G1 X151.167 Y139.044 E14.4491
G1 X148.827 Y140.051 E14.53383
G1 X146.561 Y141.103 E14.61693
G1 X144.288 Y142.237 E14.70141
G1 X142.07 Y143.424 E14.78508
G1 X139.852 Y144.692 E14.87006
G1 X137.697 Y146.006 E14.95401
G1 X135.583 Y147.379 E15.03785
G1 X133.5 Y148.818 E15.12205
G1 X131.338 Y150.405 E15.21125
G1 X129.45 Y151.833 E15.28999
G1 X128.677 Y152.402 E15.32191
G1 X127.404 Y153.405 E15.37582
G1 X127.259 Y153.509 E15.38175
G1 X126.235 Y154.306 E15.42491
G1 X125.469 Y154.849 E15.45614
G1 X124.658 Y155.32 E15.48733
G1 X123.809 Y155.718 E15.51852
G1 X123.008 Y156.013 E15.54691
G1 X121.685 Y156.442 E15.59317
G1 X120.78 Y156.692 E15.6244
G1 X119.892 Y156.854 E15.65442
G1 X118.922 Y156.943 E15.68682
G1 X117.983 Y156.946 E15.71805
G1 X117.048 Y156.864 E15.74926
G1 X116.124 Y156.7 E15.78048
G1 X115.219 Y156.456 E15.81165
G1 X114.337 Y156.132 E15.8429
G1 X113.488 Y155.732 E15.87412
G1 X112.708 Y155.277 E15.90415
G1 X111.918 Y154.718 E15.93634
G1 X111.435 Y154.319 E15.95718
G1 X109.303 Y152.446 E16.05157
G1 X107.413 Y150.868 E16.13346
G1 X106.72 Y150.234 E16.1647
G1 X106.086 Y149.541 E16.19594
G1 X105.517 Y148.795 E16.22714
G1 X105.016 Y148.003 E16.25831
G1 X104.587 Y147.171 E16.28945
G1 X104.306 Y146.5 E16.31364
G1 X103.935 Y145.521 E16.34847
G1 X102.997 Y143.135 E16.43374
G1 X101.983 Y140.76 E16.51963
G1 X100.944 Y138.496 E16.60248
G1 X99.802 Y136.187 E16.68816
G1 X98.633 Y133.984 E16.77111
G1 X97.38 Y131.776 E16.85555
G1 X96.069 Y129.609 E16.93978
G1 X94.689 Y127.467 E17.02453
G1 X93.294 Y125.432 E17.10659
G1 X91.468 Y122.937 E17.20943
G1 X90.802 Y122.057 E17.24613
G1 X90.154 Y121.176 E17.28251
G1 X89.145 Y119.896 E17.33672
G1 X88.253 Y118.74 E17.38528
G1 X87.702 Y117.96 E17.41704
G1 X87.229 Y117.148 E17.4483
G1 X86.832 Y116.3 E17.47944
G1 X86.538 Y115.504 E17.50767
G1 X86.107 Y114.178 E17.55404
G1 X85.866 Y113.307 E17.5841
G1 X85.691 Y112.349 E17.61649
G1 X85.606 Y111.415 E17.64768
G1 X85.603 Y110.476 E17.67891
G1 X85.685 Y109.541 E17.71013
G1 X85.848 Y108.616 E17.74137
G1 X86.092 Y107.711 E17.77255
G1 X86.414 Y106.833 E17.80365
G1 X86.716 Y106.175 E17.82773
G1 X87.891 Y103.83 E17.91497
G1 X88.977 Y101.504 E18.00035
G1 X89.981 Y99.184 E18.08443
G1 X90.901 Y96.883 E18.16685
G1 X91.787 Y94.472 E18.25228
G1 X92.588 Y92.084 E18.33606
G1 X93.319 Y89.68 E18.41963
G1 X93.995 Y87.212 E18.50474
G1 X94.59 Y84.763 E18.58856
G1 X95.119 Y82.289 E18.67271
G1 X95.579 Y79.794 E18.75709
G1 X95.963 Y77.314 E18.84056
G1 X96.22 Y75.337 E18.90687
G1 X96.461 Y73.326 E18.97423
G1 X96.591 Y72.437 E19.00412
G1 X96.712 Y71.769 E19.02669
G1 X96.913 Y70.827 E19.05873
G1 X97.169 Y69.766 E19.09503
G1 X97.346 Y69.126 E19.11712
G1 X97.685 Y68.044 E19.15483
G1 X98 Y67.12 E19.1873
G1 X98.252 Y66.464 E19.21067
G1 X98.694 Y65.417 E19.24847
G1 X99.241 Y64.22 E19.29224
G1 X99.53 Y63.642 E19.31374
G1 X99.829 Y63.096 E19.33444
G1 X100.329 Y62.228 E19.36776
G1 X100.728 Y61.56 E19.39364
G0 F9000 X101.063 Y61.778
G1 F3000 X101.503 Y61.102 E19.42047
G1 X102.244 Y60.058 E19.46305
G1 X102.713 Y59.421 E19.48936
G1 X103.269 Y58.733 E19.51878
G1 X103.728 Y58.213 E19.54185
G1 X104.355 Y57.563 E19.57189
G1 X105.037 Y56.971 E19.60192
G1 X105.769 Y56.442 E19.63196
G1 X106.544 Y55.979 E19.66199
G1 X107.358 Y55.587 E19.69204
G1 X108.203 Y55.269 E19.72207
G1 X109.073 Y55.026 E19.75211
G1 X109.961 Y54.861 E19.78215
G1 X110.86 Y54.776 E19.81218
G1 X111.763 Y54.77 E19.84222
G1 X112.667 Y54.845 E19.87239
G1 X115.868 Y55.254 E19.97972
G1 X118.351 Y55.495 E20.06269
G1 X120.894 Y55.669 E20.14747
G1 X123.459 Y55.773 E20.23285
G1 X125.958 Y55.803 E20.31598
G1 X128.526 Y55.761 E20.4014
G1 X131.057 Y55.648 E20.48567
G1 X133.583 Y55.464 E20.5699
G1 X136.141 Y55.204 E20.65542
G1 X138.777 Y54.864 E20.74382
G1 X139.677 Y54.788 E20.77386
G1 X140.58 Y54.792 E20.8039
G1 X141.479 Y54.876 E20.83393
G1 X142.367 Y55.039 E20.86396
G1 X143.237 Y55.281 E20.89399
G1 X144.083 Y55.598 E20.92404
G1 X144.897 Y55.989 E20.95407
G1 X145.674 Y56.45 E20.98412
G1 X146.406 Y56.978 E21.01414
G1 X147.089 Y57.569 E21.04418
G1 X147.749 Y58.254 E21.07582
G1 X148.228 Y58.804 E21.10008
G1 X148.932 Y59.648 E21.13663
G1 X149.419 Y60.251 E21.16241
G1 X150.111 Y61.22 E21.20202
G1 X150.682 Y62.128 E21.23769
G1 X151.34 Y63.243 E21.28075
G1 X151.615 Y63.745 E21.29979
G1 X151.917 Y64.354 E21.3224
G1 X152.515 Y65.642 E21.36963
G1 X152.809 Y66.342 E21.39489
G1 X153.244 Y67.497 E21.43593
G1 X153.563 Y68.417 E21.46832
G1 X153.761 Y69.067 E21.49092
G1 X154.077 Y70.246 E21.53152
G1 X154.303 Y71.187 E21.56371
G1 X154.438 Y71.864 E21.58667
G1 X154.675 Y73.329 E21.63603
G1 X154.767 Y74.017 E21.65911
G1 X154.836 Y74.707 E21.68218
G1 X154.917 Y75.953 E21.72371
G1 X154.953 Y76.897 E21.75513
G1 X154.954 Y77.507 E21.77542
G1 X154.912 Y79.04 E21.82642
G1 X154.878 Y81.647 E21.91314
G1 X154.917 Y84.216 E21.99859
G1 X155.026 Y86.712 E22.08169
G1 X155.211 Y89.288 E22.16759
G1 X155.462 Y91.789 E22.25119
G1 X155.788 Y94.318 E22.336
G1 X156.184 Y96.824 E22.42039
G1 X156.651 Y99.325 E22.50501
G1 X157.188 Y101.804 E22.58937
G1 X157.79 Y104.249 E22.67312
G1 X158.468 Y106.703 E22.7578
G1 X159.22 Y109.15 E22.84294
G1 X160.032 Y111.548 E22.92715
G1 X160.917 Y113.94 E23.01198
G1 X161.852 Y116.263 E23.09527
G1 X162.197 Y117.044 E23.12366
G1 X162.289 Y117.28 E23.13209
G1 X162.799 Y118.466 E23.17503
G1 X163.129 Y119.343 E23.20619
G1 X163.553 Y120.648 E23.25183
G1 X163.794 Y121.519 E23.28189
G1 X163.956 Y122.407 E23.31191
G1 X164.04 Y123.306 E23.34194
G1 X164.044 Y124.209 E23.37198
G1 X163.968 Y125.109 E23.40202
G1 X163.812 Y125.999 E23.43207
G1 X163.579 Y126.871 E23.46209
G1 X163.269 Y127.719 E23.49212
G1 X162.885 Y128.537 E23.52218
G1 X162.431 Y129.317 E23.55219
G1 X161.909 Y130.055 E23.58226
G1 X161.515 Y130.532 E23.60284
G1 X159.642 Y132.664 E23.69723
G1 X158.069 Y134.549 E23.77888
G1 X157.461 Y135.216 E23.8089
G1 X156.795 Y135.827 E23.83896
G1 X156.078 Y136.376 E23.869
G1 X155.316 Y136.86 E23.89902
G1 X154.513 Y137.275 E23.92909
G1 X153.866 Y137.547 E23.95243
G1 X151.02 Y138.672 E24.05421
G1 X148.659 Y139.688 E24.1397
G1 X146.382 Y140.745 E24.2232
G1 X144.099 Y141.884 E24.30806
G1 X141.881 Y143.071 E24.39173
G1 X139.653 Y144.345 E24.47709
G1 X137.479 Y145.671 E24.56179
G1 X135.365 Y147.044 E24.64563
G1 X133.273 Y148.489 E24.73019
G1 X131.101 Y150.083 E24.8198
G1 X129.213 Y151.511 E24.89853
G1 X128.429 Y152.088 E24.93091
G1 X127.171 Y153.08 E24.9842
G1 X127.013 Y153.193 E24.99066
G1 X126.003 Y153.98 E25.03324
