;FLAVOR:Marlin
;TIME:627
;Filament used: 0.386459m
;Layer height: 0.2
;MINX:94.403
;MINY:86.87
;MINZ:0.2
;MAXX:155.602
;MAXY:148.091
;MAXZ:1.8
;TARGET_MACHINE.NAME:Creality Ender-3
;Generated with Cura_SteamEngine 5.6.0
M140 S55
M105
M190 S55
M104 S210
M105
M109 S210
M82 ;absolute extrusion mode
; Ender 3 Custom Start G-code
G92 E0 ; Reset Extruder
G28 ; Home all axes
G1 Z2.0 F3000 ; Move Z Axis up little to prevent scratching of Heat Bed
G1 X0.1 Y20 Z0.3 F5000.0 ; Move to start position
G1 X0.1 Y200.0 Z0.3 F1500.0 E15 ; Draw the first line
G1 X0.4 Y200.0 Z0.3 F5000.0 ; Move to side a little
G1 X0.4 Y20 Z0.3 F1500.0 E30 ; Draw the second line
G92 E0 ; Reset Extruder
G1 Z2.0 F3000 ; Move Z Axis up little to prevent scratching of Heat Bed
G1 X5 Y20 Z0.3 F5000.0 ; Move over to prevent blob squish
G92 E0
G92 E0
G1 F2700 E-5
;LAYER_COUNT:9
;LAYER:0
M107
G0 F9000 X102.297 Y96.823 Z0.2
;TYPE:SKIRT
G1 F2700 E0
G1 F3000 X103.344 Y95.739 E0.05013
G1 X104.067 Y95.023 E0.08397
G1 X104.819 Y94.346 E0.11762
G1 X105.899 Y93.463 E0.16402
G1 X106.639 Y92.875 E0.19546
G1 X107.419 Y92.311 E0.22747
G1 X107.978 Y91.967 E0.2493
G1 X110.267 Y90.661 E0.33696
G1 X111.385 Y90 E0.38015
G1 X112.182 Y89.575 E0.4102
G1 X112.755 Y89.319 E0.43107
G1 X113.864 Y88.866 E0.47091
G1 X114.657 Y88.566 E0.49911
G1 X115.319 Y88.342 E0.52236
G1 X116.722 Y87.921 E0.57108
G1 X117.653 Y87.669 E0.60316
G1 X118.508 Y87.476 E0.63231
G1 X119.458 Y87.301 E0.66444
G1 X121.217 Y87.012 E0.72373
G1 X122.184 Y86.898 E0.75611
G1 X123.102 Y86.87 E0.78666
G1 X124.566 Y86.887 E0.83536
G1 X125.756 Y86.88 E0.87494
G1 X127.151 Y86.885 E0.92133
G1 X128.086 Y86.927 E0.95246
G1 X128.867 Y87.024 E0.97864
G1 X130.556 Y87.299 E1.03556
G1 X131.489 Y87.471 E1.06711
G1 X132.198 Y87.628 E1.09126
G1 X133.06 Y87.855 E1.12091
G1 X133.879 Y88.091 E1.14926
G1 X134.417 Y88.261 E1.16802
G1 X135.813 Y88.75 E1.21722
G1 X136.539 Y89.028 E1.24308
G1 X137.307 Y89.344 E1.2707
G1 X138.15 Y89.74 E1.30168
G1 X138.672 Y90.031 E1.32156
G1 X139.364 Y90.443 E1.34834
G1 X142.055 Y91.986 E1.45151
G1 X142.871 Y92.506 E1.4837
G1 X143.481 Y92.966 E1.50911
G1 X145.125 Y94.3 E1.57952
G1 X145.883 Y94.979 E1.61337
G1 X147.173 Y96.263 E1.67391
G1 X147.785 Y96.911 E1.70355
G1 X148.174 Y97.347 E1.72299
G1 X148.634 Y97.898 E1.74686
G1 X149.587 Y99.096 E1.79778
G1 X150.136 Y99.852 E1.82885
G1 X150.52 Y100.475 E1.85319
G1 X151.851 Y102.813 E1.94267
G1 X152.477 Y103.874 E1.98365
G1 X153.052 Y104.997 E2.02561
G1 X153.366 Y105.73 E2.05213
G1 X153.695 Y106.571 E2.08217
G1 X153.91 Y107.169 E2.1033
G1 X154.128 Y107.845 E2.12693
G1 X154.643 Y109.541 E2.18588
G1 X154.808 Y110.15 E2.20687
G1 X154.963 Y110.838 E2.23032
G1 X155.192 Y112.036 E2.27089
G1 X155.46 Y113.696 E2.32682
G1 X155.571 Y114.662 E2.35916
G1 X155.597 Y115.549 E2.38867
G1 X155.588 Y116.376 E2.41618
G1 X155.602 Y118.014 E2.47066
G1 X155.593 Y118.258 E2.47878
G1 X155.596 Y119.514 E2.52056
G1 X155.558 Y120.416 E2.55058
G1 X155.487 Y121.045 E2.57164
G1 X155.284 Y122.465 E2.61935
G1 X155.172 Y123.137 E2.64201
G1 X155.05 Y123.758 E2.66306
G1 X154.868 Y124.555 E2.69025
G1 X154.58 Y125.678 E2.72881
G1 X154.446 Y126.146 E2.745
G1 X154.269 Y126.695 E2.76418
G1 X153.831 Y127.943 E2.80817
G1 X153.262 Y129.453 E2.86184
G1 X152.891 Y130.314 E2.89303
G1 X152.446 Y131.143 E2.92432
G1 X152.015 Y131.87 E2.95243
G1 X150.959 Y133.7 E3.0227
G1 X150.542 Y134.442 E3.05101
G1 X150.05 Y135.233 E3.08199
G1 X149.723 Y135.687 E3.1006
G1 X149.179 Y136.394 E3.13027
G1 X148.452 Y137.297 E3.16883
G1 X147.892 Y137.935 E3.19707
G1 X146.907 Y138.968 E3.24454
G1 X146.225 Y139.654 E3.27671
G1 X145.532 Y140.308 E3.30841
G1 X145.159 Y140.636 E3.32493
G1 X144.394 Y141.275 E3.35808
G1 X143.342 Y142.106 E3.40267
G1 X142.585 Y142.65 E3.43367
G1 X142.053 Y142.976 E3.45443
G1 X141.224 Y143.456 E3.48629
G1 X140.156 Y144.055 E3.52701
G1 X138.573 Y144.986 E3.5881
G1 X137.698 Y145.448 E3.62101
G1 X136.945 Y145.769 E3.64823
G1 X135.34 Y146.378 E3.70533
G1 X134.127 Y146.796 E3.748
G1 X133.307 Y147.041 E3.77647
G1 X132.451 Y147.255 E3.80581
G1 X130.634 Y147.661 E3.86774
G1 X130.087 Y147.766 E3.88626
G1 X129.287 Y147.892 E3.9132
G1 X128.401 Y148.004 E3.9429
G1 X126.974 Y148.091 E3.99045
G1 X124.287 Y148.079 E4.07982
G1 X123.041 Y148.091 E4.12127
G1 X122.139 Y148.059 E4.15129
G1 X121.292 Y147.961 E4.17964
G1 X119.435 Y147.674 E4.24214
G1 X118.509 Y147.5 E4.27348
G1 X117.894 Y147.357 E4.29448
G1 X117.103 Y147.146 E4.32171
G1 X115.749 Y146.751 E4.36862
G1 X115.03 Y146.512 E4.39382
G1 X113.513 Y145.946 E4.44767
G1 X112.853 Y145.682 E4.47132
G1 X112.002 Y145.297 E4.50238
G1 X111.306 Y144.915 E4.52879
G1 X110.628 Y144.509 E4.55507
G1 X107.968 Y142.985 E4.65704
G1 X106.882 Y142.267 E4.70034
G1 X106.081 Y141.654 E4.73389
G1 X104.825 Y140.62 E4.788
G1 X104.324 Y140.169 E4.81042
G1 X103.483 Y139.36 E4.84923
G1 X102.608 Y138.464 E4.89088
G1 X102.167 Y137.979 E4.91269
G1 X101.378 Y137.053 E4.95315
G1 X100.462 Y135.925 E5.00148
G1 X99.888 Y135.144 E5.03372
G1 X99.451 Y134.433 E5.06147
G1 X98.806 Y133.287 E5.10521
G1 X98.235 Y132.326 E5.14239
G1 X98.093 Y132.061 E5.15239
G1 X97.514 Y131.068 E5.19062
G1 X96.884 Y129.803 E5.23763
G1 X96.672 Y129.295 E5.25593
G1 X96.436 Y128.683 E5.27775
G1 X95.805 Y126.87 E5.3416
G1 X95.532 Y126.038 E5.37072
G1 X95.373 Y125.495 E5.38954
G1 X95.173 Y124.696 E5.41694
G1 X94.964 Y123.72 E5.45013
G1 X94.76 Y122.636 E5.48682
G1 X94.596 Y121.663 E5.51964
G1 X94.482 Y120.811 E5.54823
G1 X94.403 Y119.454 E5.59344
G1 X94.417 Y116.815 E5.68122
G1 X94.405 Y115.54 E5.72362
G1 X94.441 Y114.58 E5.75558
G1 X94.508 Y113.971 E5.77595
G1 X94.666 Y112.849 E5.81364
G1 X94.827 Y111.884 E5.84618
G1 X94.964 Y111.198 E5.86945
G1 X95.342 Y109.611 E5.92371
G1 X95.663 Y108.455 E5.96361
G1 X95.98 Y107.489 E5.99743
G1 X96.753 Y105.472 E6.06927
G1 X97.139 Y104.589 E6.10132
G1 X97.454 Y103.995 E6.12368
G1 X97.775 Y103.434 E6.14518
G1 X98.497 Y102.222 E6.1921
G1 X99.507 Y100.435 E6.26038
G1 X100.028 Y99.617 E6.29263
G1 X100.376 Y99.146 E6.31211
G1 X100.986 Y98.372 E6.34489
G1 X101.734 Y97.459 E6.38414
G1 X102.297 Y96.823 E6.41239
G0 F9000 X102.585 Y97.101
G1 F3000 X103.625 Y96.023 E6.46221
G1 X104.335 Y95.32 E6.49545
G1 X105.072 Y94.656 E6.52844
G1 X106.148 Y93.776 E6.57467
G1 X106.873 Y93.199 E6.60549
G1 X107.629 Y92.652 E6.63653
G1 X108.188 Y92.308 E6.65836
G1 X110.471 Y91.005 E6.74579
G1 X111.573 Y90.353 E6.78838
G1 X112.37 Y89.928 E6.81842
G1 X112.906 Y89.689 E6.83794
G1 X114.005 Y89.24 E6.87742
G1 X114.786 Y88.945 E6.90519
G1 X115.434 Y88.725 E6.92795
G1 X116.827 Y88.307 E6.97632
G1 X117.741 Y88.059 E7.00782
G1 X118.58 Y87.869 E7.03643
G1 X119.523 Y87.696 E7.06832
G1 X121.264 Y87.409 E7.12701
G1 X122.196 Y87.298 E7.15823
G1 X123.097 Y87.27 E7.18821
G1 X124.563 Y87.287 E7.23697
G1 X125.755 Y87.28 E7.27662
G1 X127.133 Y87.285 E7.32245
G1 X128.068 Y87.327 E7.35358
G1 X128.803 Y87.419 E7.37822
G1 X130.483 Y87.692 E7.43483
G1 X131.403 Y87.862 E7.46594
G1 X132.096 Y88.015 E7.48955
G1 X132.949 Y88.239 E7.51888
G1 X133.758 Y88.472 E7.54688
G1 X134.285 Y88.639 E7.56527
G1 X135.67 Y89.124 E7.61408
G1 X136.387 Y89.398 E7.63961
G1 X137.137 Y89.706 E7.66657
G1 X137.955 Y90.09 E7.69663
G1 X138.467 Y90.375 E7.71612
G1 X139.159 Y90.787 E7.74291
G1 X141.84 Y92.324 E7.84569
G1 X142.63 Y92.826 E7.87682
G1 X143.229 Y93.277 E7.90176
G1 X144.858 Y94.598 E7.97152
G1 X145.616 Y95.277 E8.00536
G1 X146.882 Y96.538 E8.0648
G1 X147.494 Y97.186 E8.09444
G1 X147.867 Y97.604 E8.11307
G1 X148.321 Y98.147 E8.13662
G1 X149.263 Y99.331 E8.18694
G1 X149.812 Y100.087 E8.21801
G1 X150.172 Y100.673 E8.24089
G1 X151.504 Y103.011 E8.33039
G1 X152.121 Y104.056 E8.37075
G1 X152.684 Y105.155 E8.41182
G1 X152.993 Y105.876 E8.43791
G1 X153.322 Y106.717 E8.46794
G1 X153.529 Y107.292 E8.48827
G1 X153.745 Y107.961 E8.51165
G1 X154.257 Y109.646 E8.57023
G1 X154.418 Y110.238 E8.59063
G1 X154.57 Y110.913 E8.61364
G1 X154.797 Y112.1 E8.65384
G1 X155.063 Y113.742 E8.70916
G1 X155.171 Y114.674 E8.74037
G1 X155.197 Y115.545 E8.76935
G1 X155.188 Y116.372 E8.79686
G1 X155.202 Y117.999 E8.85098
G1 X155.193 Y118.243 E8.8591
G1 X155.196 Y119.497 E8.90081
G1 X155.158 Y120.399 E8.93083
G1 X155.091 Y120.988 E8.95055
G1 X154.889 Y122.4 E8.99799
G1 X154.78 Y123.06 E9.02024
G1 X154.66 Y123.669 E9.04089
G1 X154.481 Y124.455 E9.0677
G1 X154.195 Y125.568 E9.10592
G1 X154.065 Y126.023 E9.12166
G1 X153.891 Y126.563 E9.14053
G1 X153.457 Y127.802 E9.18419
G1 X152.894 Y129.295 E9.23726
G1 X152.538 Y130.125 E9.2673
G1 X152.102 Y130.939 E9.29801
G1 X151.671 Y131.666 E9.32612
G1 X150.61 Y133.504 E9.39671
G1 X150.202 Y134.231 E9.42444
G1 X149.71 Y135.022 E9.45542
G1 X149.406 Y135.443 E9.47269
G1 X148.868 Y136.143 E9.50206
G1 X148.151 Y137.033 E9.54007
G1 X147.591 Y137.671 E9.5683
G1 X146.623 Y138.686 E9.61495
G1 X145.951 Y139.363 E9.64668
G1 X145.267 Y140.008 E9.67795
G1 X144.903 Y140.329 E9.69409
G1 X144.146 Y140.961 E9.72689
G1 X143.108 Y141.781 E9.77089
G1 X142.375 Y142.309 E9.80093
G1 X141.853 Y142.63 E9.82132
G1 X141.028 Y143.107 E9.85301
G1 X139.96 Y143.706 E9.89374
G1 X138.37 Y144.641 E9.95509
G1 X137.541 Y145.08 E9.98629
G1 X136.803 Y145.395 E10.01298
G1 X135.21 Y146 E10.06965
G1 X134.012 Y146.413 E10.1118
G1 X133.21 Y146.653 E10.13964
G1 X132.364 Y146.865 E10.16865
G1 X130.558 Y147.268 E10.2302
G1 X130.025 Y147.371 E10.24825
G1 X129.237 Y147.495 E10.27478
G1 X128.351 Y147.607 E10.30449
G1 X126.976 Y147.691 E10.3503
G1 X124.285 Y147.679 E10.43981
G1 X123.055 Y147.691 E10.48072
G1 X122.153 Y147.659 E10.51074
G1 X121.353 Y147.566 E10.53753
G1 X119.509 Y147.281 E10.59959
G1 X118.599 Y147.11 E10.63038
G1 X117.997 Y146.971 E10.65093
G1 X117.215 Y146.762 E10.67785
G1 X115.875 Y146.371 E10.72428
G1 X115.17 Y146.137 E10.74899
G1 X113.661 Y145.574 E10.80256
G1 X113.017 Y145.317 E10.82562
G1 X112.194 Y144.946 E10.85565
G1 X111.512 Y144.572 E10.88152
G1 X110.834 Y144.166 E10.9078
G1 X108.189 Y142.651 E11.00918
G1 X107.103 Y141.933 E11.05248
G1 X106.335 Y141.345 E11.08465
G1 X105.093 Y140.323 E11.13815
G1 X104.601 Y139.88 E11.16017
G1 X103.769 Y139.081 E11.19854
G1 X102.904 Y138.195 E11.23972
G1 X102.471 Y137.719 E11.26112
G1 X101.688 Y136.801 E11.30125
G1 X100.784 Y135.688 E11.34894
G1 X100.229 Y134.934 E11.38008
G1 X99.8 Y134.237 E11.40731
G1 X99.155 Y133.091 E11.45104
G1 X98.588 Y132.137 E11.48795
G1 X98.446 Y131.872 E11.49795
G1 X97.86 Y130.867 E11.53665
G1 X97.253 Y129.649 E11.58191
G1 X97.045 Y129.151 E11.59986
G1 X96.814 Y128.551 E11.62125
G1 X96.185 Y126.745 E11.68485
G1 X95.916 Y125.925 E11.71356
G1 X95.761 Y125.398 E11.73183
G1 X95.564 Y124.612 E11.75878
G1 X95.357 Y123.646 E11.79164
G1 X95.154 Y122.57 E11.82805
G1 X94.992 Y121.609 E11.86047
G1 X94.881 Y120.788 E11.88802
G1 X94.803 Y119.456 E11.9324
G1 X94.817 Y116.817 E12.02018
G1 X94.805 Y115.555 E12.06215
G1 X94.839 Y114.623 E12.09317
G1 X94.904 Y114.027 E12.11311
G1 X95.061 Y112.914 E12.1505
G1 X95.219 Y111.962 E12.18259
G1 X95.353 Y111.291 E12.20535
G1 X95.728 Y109.718 E12.25914
G1 X96.043 Y108.58 E12.29841
G1 X96.354 Y107.632 E12.33159
G1 X97.12 Y105.632 E12.40283
G1 X97.493 Y104.776 E12.43388
G1 X97.801 Y104.194 E12.45578
G1 X98.119 Y103.639 E12.47706
G1 X98.841 Y102.427 E12.52398
G1 X99.855 Y100.632 E12.59255
G1 X100.35 Y99.855 E12.62319
G1 X100.698 Y99.384 E12.64267
G1 X101.295 Y98.625 E12.67479
G1 X102.033 Y97.724 E12.71352
G1 X102.585 Y97.101 E12.74121
G0 F9000 X102.873 Y97.379
G1 F3000 X103.907 Y96.307 E12.79075
G1 X104.603 Y95.617 E12.82334
G1 X105.325 Y94.966 E12.85568
G1 X106.397 Y94.089 E12.90174
G1 X107.108 Y93.523 E12.93197
G1 X107.839 Y92.993 E12.962
G1 X108.398 Y92.649 E12.98383
G1 X110.675 Y91.349 E13.07104
G1 X111.761 Y90.706 E13.11302
G1 X112.558 Y90.281 E13.14306
G1 X113.057 Y90.059 E13.16122
G1 X114.146 Y89.614 E13.20035
G1 X114.915 Y89.324 E13.22769
G1 X115.549 Y89.108 E13.24996
G1 X116.932 Y88.693 E13.29799
G1 X117.83 Y88.449 E13.32894
G1 X118.652 Y88.262 E13.35698
G1 X119.588 Y88.091 E13.38862
G1 X121.312 Y87.806 E13.44674
G1 X122.209 Y87.698 E13.47679
G1 X123.092 Y87.67 E13.50618
G1 X124.56 Y87.687 E13.555
G1 X125.754 Y87.68 E13.59472
G1 X127.116 Y87.685 E13.64002
G1 X128.018 Y87.724 E13.67005
G1 X128.739 Y87.814 E13.69421
G1 X130.41 Y88.085 E13.75052
G1 X131.317 Y88.253 E13.7812
G1 X131.995 Y88.402 E13.80429
G1 X132.838 Y88.623 E13.83327
G1 X133.637 Y88.853 E13.86093
G1 X134.153 Y89.017 E13.87893
G1 X135.527 Y89.498 E13.92735
G1 X136.235 Y89.768 E13.95256
G1 X136.967 Y90.068 E13.97887
G1 X137.785 Y90.452 E14.00892
G1 X138.262 Y90.719 E14.0271
G1 X138.954 Y91.131 E14.05389
G1 X141.626 Y92.662 E14.15632
G1 X142.389 Y93.145 E14.18635
G1 X142.977 Y93.588 E14.21084
G1 X144.591 Y94.896 E14.27993
G1 X145.349 Y95.575 E14.31378
G1 X146.591 Y96.813 E14.37211
G1 X147.203 Y97.461 E14.40175
G1 X147.56 Y97.861 E14.41958
G1 X148.008 Y98.396 E14.44279
G1 X148.94 Y99.566 E14.49255
G1 X149.471 Y100.296 E14.52257
G1 X149.824 Y100.871 E14.54501
G1 X151.156 Y103.209 E14.63451
G1 X151.765 Y104.239 E14.6743
G1 X152.316 Y105.313 E14.71445
G1 X152.625 Y106.034 E14.74054
G1 X152.946 Y106.852 E14.76977
G1 X153.148 Y107.415 E14.78966
G1 X153.362 Y108.077 E14.8128
G1 X153.871 Y109.751 E14.871
G1 X154.028 Y110.326 E14.89082
G1 X154.177 Y110.988 E14.91339
G1 X154.402 Y112.164 E14.95322
G1 X154.666 Y113.789 E15.00797
G1 X154.771 Y114.686 E15.03801
G1 X154.797 Y115.541 E15.06646
G1 X154.788 Y116.368 E15.09397
G1 X154.802 Y117.984 E15.14772
G1 X154.793 Y118.228 E15.15584
G1 X154.796 Y119.48 E15.19748
G1 X154.758 Y120.382 E15.22751
G1 X154.695 Y120.931 E15.24589
G1 X154.494 Y122.335 E15.29306
G1 X154.387 Y122.983 E15.31491
G1 X154.27 Y123.58 E15.33514
G1 X154.094 Y124.355 E15.36157
G1 X153.81 Y125.458 E15.39946
G1 X153.684 Y125.9 E15.41474
G1 X153.513 Y126.431 E15.4333
G1 X153.083 Y127.661 E15.47663
G1 X152.526 Y129.137 E15.52911
G1 X152.17 Y129.967 E15.55914
G1 X151.758 Y130.735 E15.58813
G1 X151.327 Y131.462 E15.61624
G1 X150.261 Y133.308 E15.68714
G1 X149.862 Y134.02 E15.71429
G1 X149.385 Y134.788 E15.74436
G1 X149.089 Y135.199 E15.7612
G1 X148.557 Y135.892 E15.79026
G1 X147.85 Y136.769 E15.82773
G1 X147.29 Y137.407 E15.85596
G1 X146.339 Y138.404 E15.90179
G1 X145.677 Y139.072 E15.93307
G1 X145.002 Y139.708 E15.96392
G1 X144.647 Y140.022 E15.97968
G1 X143.898 Y140.647 E16.01212
G1 X142.874 Y141.456 E16.05553
G1 X142.141 Y141.984 E16.08558
G1 X141.653 Y142.284 E16.10463
G1 X140.832 Y142.758 E16.13616
G1 X139.764 Y143.357 E16.17689
G1 X138.182 Y144.288 E16.23794
G1 X137.384 Y144.712 E16.268
G1 X136.661 Y145.021 E16.29415
G1 X135.08 Y145.622 E16.3504
G1 X133.897 Y146.03 E16.39202
G1 X133.113 Y146.265 E16.41925
G1 X132.277 Y146.475 E16.44791
G1 X130.482 Y146.875 E16.50908
G1 X129.963 Y146.976 E16.52667
G1 X129.187 Y147.098 E16.55279
G1 X128.301 Y147.21 E16.5825
G1 X126.978 Y147.291 E16.62658
G1 X124.283 Y147.279 E16.71622
G1 X123.069 Y147.291 E16.7566
G1 X122.167 Y147.259 E16.78662
G1 X121.414 Y147.171 E16.81183
G1 X119.583 Y146.888 E16.87346
G1 X118.689 Y146.72 E16.90371
G1 X118.1 Y146.584 E16.92382
G1 X117.327 Y146.378 E16.95042
G1 X116.001 Y145.991 E16.99637
G1 X115.31 Y145.762 E17.02058
G1 X113.809 Y145.202 E17.07386
G1 X113.181 Y144.952 E17.09635
G1 X112.358 Y144.581 E17.12637
G1 X111.718 Y144.229 E17.15066
G1 X111.04 Y143.823 E17.17695
G1 X108.41 Y142.317 E17.27775
G1 X107.324 Y141.599 E17.32105
G1 X106.589 Y141.036 E17.35184
G1 X105.361 Y140.026 E17.40473
G1 X104.878 Y139.591 E17.42635
G1 X104.055 Y138.801 E17.46429
G1 X103.2 Y137.926 E17.50498
G1 X102.775 Y137.459 E17.52598
G1 X101.998 Y136.549 E17.56578
G1 X101.106 Y135.451 E17.61283
G1 X100.57 Y134.724 E17.64287
G1 X100.149 Y134.041 E17.66956
G1 X99.504 Y132.895 E17.7133
G1 X98.941 Y131.948 E17.74994
G1 X98.799 Y131.683 E17.75994
G1 X98.218 Y130.688 E17.79826
G1 X97.622 Y129.494 E17.84265
G1 X97.418 Y129.008 E17.86018
G1 X97.192 Y128.419 E17.88116
G1 X96.565 Y126.621 E17.9445
G1 X96.3 Y125.811 E17.97284
G1 X96.149 Y125.301 E17.99053
G1 X95.955 Y124.528 E18.01704
G1 X95.75 Y123.572 E18.04956
G1 X95.548 Y122.503 E18.08574
G1 X95.388 Y121.555 E18.11772
G1 X95.28 Y120.764 E18.14427
G1 X95.203 Y119.458 E18.18779
G1 X95.217 Y116.819 E18.27556
G1 X95.205 Y115.569 E18.31714
