;FLAVOR:Marlin
;TIME:345
;Filament used: 0.0851907m
;Layer height: 0.2
;MINX:109.174
;MINY:102.304
;MINZ:0.2
;MAXX:140.825
;MAXY:132.695
;MAXZ:11.4
;TARGET_MACHINE.NAME:Creality Ender-3
;Generated with Cura_SteamEngine 5.6.0
M140 S55
M105
M190 S55
M104 S210
M105
M109 S210
M82 ;absolute extrusion mode
; Ender 3 Custom Start G-code
G92 E0 ; Reset Extruder
G28 ; Home all axes
G1 Z2.0 F3000 ; Move Z Axis up little to prevent scratching of Heat Bed
G1 X0.1 Y20 Z0.3 F5000.0 ; Move to start position
G1 X0.1 Y200.0 Z0.3 F1500.0 E15 ; Draw the first line
G1 X0.4 Y200.0 Z0.3 F5000.0 ; Move to side a little
G1 X0.4 Y20 Z0.3 F1500.0 E30 ; Draw the second line
G92 E0 ; Reset Extruder
G1 Z2.0 F3000 ; Move Z Axis up little to prevent scratching of Heat Bed
G1 X5 Y20 Z0.3 F5000.0 ; Move over to prevent blob squish
G92 E0
G92 E0
G1 F2700 E-5
;LAYER_COUNT:57
;LAYER:0
M107
G0 F9000 X112.234 Y109.38 Z0.2
;TYPE:SKIRT
G1 F2700 E0
G1 F2288.5 X113.18 Y108.475 E0.04354
G1 X113.81 Y107.945 E0.07093
G1 X115.775 Y106.241 E0.15743
G1 X117.038 Y105.104 E0.21396
G1 X117.791 Y104.488 E0.24631
G1 X118.596 Y103.94 E0.2787
G1 X119.415 Y103.481 E0.30993
G1 X120.336 Y103.069 E0.34349
G1 X121.258 Y102.752 E0.37591
G1 X122.203 Y102.518 E0.40829
G1 X123.166 Y102.368 E0.44071
G1 X124.138 Y102.304 E0.47311
G1 X125.11 Y102.326 E0.50545
G1 X126.007 Y102.423 E0.53545
G1 X127.032 Y102.628 E0.57022
G1 X127.967 Y102.906 E0.60266
G1 X128.846 Y103.253 E0.6341
G1 X130.062 Y103.887 E0.67971
G1 X130.883 Y104.386 E0.71166
G1 X131.58 Y104.827 E0.7391
G1 X132.083 Y105.167 E0.75929
G1 X132.735 Y105.633 E0.78594
G1 X135.771 Y107.72 E0.90848
G1 X136.557 Y108.296 E0.94089
G1 X137.289 Y108.938 E0.97327
G1 X137.914 Y109.59 E1.00331
G1 X138.567 Y110.406 E1.03807
G1 X139.104 Y111.218 E1.07045
G1 X139.552 Y112.043 E1.10168
G1 X139.953 Y112.97 E1.13527
G1 X140.256 Y113.892 E1.16755
G1 X140.469 Y114.784 E1.19805
G1 X140.582 Y115.372 E1.21797
G1 X140.71 Y116.23 E1.24682
G1 X140.777 Y116.946 E1.27074
G1 X140.808 Y117.422 E1.2866
G1 X140.825 Y118.395 E1.31897
G1 X140.757 Y119.367 E1.35138
G1 X140.603 Y120.327 E1.38372
G1 X140.365 Y121.273 E1.41616
G1 X140.044 Y122.193 E1.44857
G1 X139.642 Y123.079 E1.48093
G1 X139.164 Y123.928 E1.51333
G1 X138.613 Y124.731 E1.54572
G1 X137.994 Y125.481 E1.57807
G1 X137.334 Y126.152 E1.60937
G1 X136.469 Y126.879 E1.64695
G1 X135.642 Y127.504 E1.68143
G1 X134.89 Y128.057 E1.71248
G1 X133.589 Y129.081 E1.76755
G1 X132.425 Y129.979 E1.81644
G1 X131.629 Y130.54 E1.84883
G1 X130.788 Y131.028 E1.88117
G1 X129.907 Y131.44 E1.91352
G1 X129.086 Y131.742 E1.94262
G1 X127.747 Y132.177 E1.98944
G1 X126.807 Y132.435 E2.02186
G1 X125.919 Y132.597 E2.05189
G1 X124.878 Y132.692 E2.08665
G1 X123.939 Y132.695 E2.11788
G1 X122.933 Y132.607 E2.15147
G1 X121.975 Y132.435 E2.18384
G1 X121.036 Y132.18 E2.21621
G1 X120.122 Y131.843 E2.24861
G1 X119.241 Y131.427 E2.28101
G1 X118.432 Y130.953 E2.3122
G1 X117.642 Y130.394 E2.34439
G1 X117.126 Y129.969 E2.36662
G1 X115.025 Y128.124 E2.45962
G1 X113.1 Y126.516 E2.54304
G1 X112.383 Y125.858 E2.57541
G1 X111.726 Y125.138 E2.60783
G1 X111.137 Y124.363 E2.64021
G1 X110.618 Y123.54 E2.67257
G1 X110.188 Y122.705 E2.70381
G1 X109.808 Y121.771 E2.73734
G1 X109.523 Y120.84 E2.76973
G1 X109.321 Y119.887 E2.80213
G1 X109.204 Y118.919 E2.83456
G1 X109.174 Y117.958 E2.86654
G1 X109.2 Y117.319 E2.88781
G1 X109.237 Y116.8 E2.90511
G1 X109.291 Y116.243 E2.92373
G1 X109.388 Y115.473 E2.94954
G1 X109.553 Y114.513 E2.98194
G1 X109.804 Y113.572 E3.01433
G1 X110.135 Y112.657 E3.04669
G1 X110.547 Y111.774 E3.0791
G1 X111.035 Y110.931 E3.1115
G1 X111.595 Y110.135 E3.14387
G1 X112.234 Y109.38 E3.17677
G0 F9000 X112.511 Y109.669
G1 F2288.5 X113.457 Y108.764 E3.22031
G1 X114.067 Y108.251 E3.24682
G1 X116.037 Y106.543 E3.33354
G1 X117.292 Y105.413 E3.38971
G1 X118.017 Y104.818 E3.4209
G1 X118.792 Y104.289 E3.45211
G1 X119.611 Y103.83 E3.48334
G1 X120.467 Y103.447 E3.51453
G1 X121.355 Y103.14 E3.54578
G1 X122.265 Y102.913 E3.57697
G1 X123.193 Y102.767 E3.60822
G1 X124.129 Y102.704 E3.63942
G1 X125.067 Y102.724 E3.67063
G1 X125.964 Y102.821 E3.70063
G1 X126.919 Y103.012 E3.73303
G1 X127.82 Y103.278 E3.76427
G1 X128.699 Y103.625 E3.7957
G1 X129.854 Y104.229 E3.83905
G1 X130.669 Y104.724 E3.87077
G1 X131.356 Y105.159 E3.89781
G1 X131.85 Y105.492 E3.91763
G1 X132.508 Y105.963 E3.94454
G1 X135.535 Y108.043 E4.0667
G1 X136.294 Y108.597 E4.09795
G1 X137 Y109.215 E4.12916
G1 X137.625 Y109.867 E4.1592
G1 X138.234 Y110.627 E4.19159
G1 X138.752 Y111.409 E4.22279
G1 X139.2 Y112.234 E4.25402
G1 X139.573 Y113.095 E4.28522
G1 X139.867 Y113.985 E4.3164
G1 X140.076 Y114.86 E4.34632
G1 X140.186 Y115.431 E4.36566
G1 X140.314 Y116.289 E4.39451
G1 X140.378 Y116.972 E4.41733
G1 X140.408 Y117.43 E4.4326
G1 X140.426 Y118.368 E4.4638
G1 X140.362 Y119.304 E4.495
G1 X140.215 Y120.23 E4.52619
G1 X139.987 Y121.142 E4.55745
G1 X139.679 Y122.028 E4.58865
G1 X139.293 Y122.883 E4.61985
G1 X138.834 Y123.702 E4.65108
G1 X138.304 Y124.477 E4.68231
G1 X137.708 Y125.201 E4.7135
G1 X137.076 Y125.846 E4.74353
G1 X136.228 Y126.56 E4.7804
G1 X135.405 Y127.182 E4.81472
G1 X134.642 Y127.743 E4.84621
G1 X133.356 Y128.756 E4.90066
G1 X133.207 Y128.863 E4.90676
G1 X132.194 Y129.652 E4.94947
G1 X131.428 Y130.194 E4.98068
G1 X130.618 Y130.666 E5.01186
G1 X129.769 Y131.065 E5.04306
G1 X128.963 Y131.362 E5.07163
G1 X127.64 Y131.791 E5.11789
G1 X126.735 Y132.041 E5.14912
G1 X125.847 Y132.203 E5.17914
G1 X124.877 Y132.292 E5.21154
G1 X123.938 Y132.295 E5.24277
G1 X123.003 Y132.213 E5.27399
G1 X122.079 Y132.049 E5.3052
G1 X121.174 Y131.805 E5.33638
G1 X120.292 Y131.481 E5.36763
G1 X119.443 Y131.081 E5.39884
G1 X118.663 Y130.626 E5.42888
G1 X117.873 Y130.067 E5.46107
G1 X117.39 Y129.668 E5.4819
G1 X115.289 Y127.823 E5.5749
G1 X113.37 Y126.221 E5.65804
G1 X112.678 Y125.588 E5.68924
G1 X112.044 Y124.895 E5.72048
G1 X111.475 Y124.149 E5.75168
G1 X110.974 Y123.357 E5.78285
G1 X110.544 Y122.522 E5.81409
G1 X110.19 Y121.653 E5.8453
G1 X109.914 Y120.756 E5.87652
G1 X109.718 Y119.838 E5.90774
G1 X109.604 Y118.906 E5.93897
G1 X109.574 Y117.974 E5.96998
G1 X109.599 Y117.347 E5.99085
G1 X109.635 Y116.839 E6.00779
G1 X109.688 Y116.293 E6.02604
G1 X109.782 Y115.54 E6.05127
G1 X109.94 Y114.615 E6.08249
G1 X110.18 Y113.708 E6.11369
G1 X110.498 Y112.825 E6.14491
G1 X110.893 Y111.974 E6.17611
G1 X111.362 Y111.161 E6.20733
G1 X111.901 Y110.393 E6.23853
G1 X112.511 Y109.669 E6.27002
G0 F9000 X112.788 Y109.958
G1 F2288.5 X113.734 Y109.053 E6.31357
G1 X114.324 Y108.557 E6.3392
G1 X116.299 Y106.845 E6.42614
G1 X117.546 Y105.722 E6.48195
G1 X118.243 Y105.148 E6.51198
G1 X118.988 Y104.638 E6.54201
G1 X119.775 Y104.195 E6.57205
G1 X120.599 Y103.825 E6.60209
G1 X121.452 Y103.528 E6.63213
G1 X122.328 Y103.308 E6.66217
G1 X123.22 Y103.166 E6.69221
G1 X124.121 Y103.104 E6.72225
G1 X125.024 Y103.122 E6.75229
G1 X125.921 Y103.219 E6.7823
G1 X126.807 Y103.396 E6.81235
G1 X127.674 Y103.65 E6.8424
G1 X128.514 Y103.98 E6.87242
G1 X129.646 Y104.571 E6.91489
G1 X130.455 Y105.062 E6.94637
G1 X131.133 Y105.491 E6.97305
G1 X131.617 Y105.817 E6.99246
G1 X132.282 Y106.293 E7.01966
G1 X135.3 Y108.366 E7.14144
G1 X136.031 Y108.898 E7.17151
G1 X136.711 Y109.492 E7.20154
G1 X137.336 Y110.144 E7.23158
G1 X137.901 Y110.848 E7.2616
G1 X138.401 Y111.6 E7.29164
G1 X138.833 Y112.393 E7.32167
G1 X139.193 Y113.221 E7.3517
G1 X139.478 Y114.078 E7.38174
G1 X139.683 Y114.936 E7.41108
G1 X139.79 Y115.49 E7.42985
G1 X139.918 Y116.348 E7.4587
G1 X139.979 Y116.998 E7.48042
G1 X140.008 Y117.438 E7.49508
G1 X140.027 Y118.341 E7.52512
G1 X139.967 Y119.242 E7.55516
G1 X139.827 Y120.134 E7.58519
G1 X139.609 Y121.011 E7.61524
G1 X139.314 Y121.864 E7.64526
G1 X138.944 Y122.688 E7.67531
G1 X138.503 Y123.477 E7.70537
G1 X137.995 Y124.223 E7.73539
G1 X137.422 Y124.921 E7.76542
G1 X136.79 Y125.566 E7.79546
G1 X135.987 Y126.241 E7.83035
G1 X135.168 Y126.86 E7.8645
G1 X134.394 Y127.429 E7.89645
G1 X133.123 Y128.431 E7.95028
G1 X132.974 Y128.538 E7.95638
G1 X131.963 Y129.326 E7.99901
G1 X131.226 Y129.849 E8.02907
G1 X130.447 Y130.304 E8.05907
G1 X129.63 Y130.69 E8.08913
G1 X128.84 Y130.982 E8.11714
G1 X127.533 Y131.406 E8.16284
G1 X126.663 Y131.647 E8.19287
G1 X125.775 Y131.809 E8.22289
G1 X124.875 Y131.892 E8.25295
G1 X123.972 Y131.896 E8.28299
G1 X123.072 Y131.819 E8.31303
G1 X122.183 Y131.663 E8.34305
G1 X121.311 Y131.429 E8.37308
G1 X120.462 Y131.119 E8.40314
G1 X119.645 Y130.735 E8.43317
G1 X118.865 Y130.28 E8.4632
G1 X118.128 Y129.758 E8.49324
G1 X117.654 Y129.367 E8.51368
G1 X115.553 Y127.522 E8.60667
G1 X113.64 Y125.926 E8.68954
G1 X112.973 Y125.317 E8.71958
G1 X112.362 Y124.652 E8.74961
G1 X111.813 Y123.935 E8.77965
G1 X111.329 Y123.173 E8.80967
G1 X110.914 Y122.371 E8.83971
G1 X110.572 Y121.535 E8.86975
G1 X110.305 Y120.672 E8.8998
G1 X110.115 Y119.789 E8.92984
G1 X110.004 Y118.893 E8.95987
G1 X109.974 Y117.99 E8.98992
G1 X109.998 Y117.375 E9.01039
G1 X110.033 Y116.878 E9.02696
G1 X110.085 Y116.342 E9.04487
G1 X110.176 Y115.607 E9.0695
G1 X110.327 Y114.716 E9.09956
G1 X110.556 Y113.843 E9.12958
G1 X110.861 Y112.993 E9.15961
G1 X111.24 Y112.173 E9.18966
G1 X111.69 Y111.39 E9.2197
G1 X112.207 Y110.65 E9.24972
G1 X112.788 Y109.958 E9.27977
G1 F2700 E4.27977
;MESH:DS9-Wing-2.stl
G0 F9000 X121.359 Y116.651
G0 X122.414 Y116.893
G0 X123.547 Y118.431
G0 X123.783 Y119.031
;TYPE:WALL-INNER
G1 F2700 E9.27977
G1 F2250 X123.789 Y118.402 E9.30069
G1 X123.877 Y118.172 E9.30889
G1 X124.12 Y117.956 E9.3197
G1 X124.33 Y117.897 E9.32695
G1 X125.687 Y117.871 E9.3721
G1 X125.945 Y117.923 E9.38085
G1 X126.194 Y118.13 E9.39162
G1 X126.299 Y118.471 E9.40349
G1 X126.304 Y118.872 E9.41683
G1 X127.096 Y118.192 E9.45154
G1 X127.49 Y117.992 E9.46624
G1 X127.319 Y116.968 E9.50077
G1 X126.299 Y116.248 E9.5423
G1 X126.299 Y116.455 E9.54918
G1 X126.127 Y116.876 E9.56431
G1 X125.945 Y117.003 E9.57169
G1 X125.687 Y117.055 E9.58044
G1 X124.33 Y117.027 E9.62559
G1 X124.12 Y116.97 E9.63282
G1 X123.968 Y116.865 E9.63897
G1 X123.783 Y116.533 E9.65161
G1 X123.783 Y116.1 E9.66601
G1 X123.456 Y116.387 E9.68048
G1 X122.78 Y116.894 E9.70859
G1 X122.575 Y117.014 E9.71649
G1 X122.417 Y117.895 E9.74626
G1 X123.02 Y118.299 E9.7704
G1 X123.293 Y118.506 E9.78179
G1 X123.783 Y119.031 E9.80568
G0 F9000 X123.547 Y118.431
G0 X123.958 Y119.533
G0 X124.183 Y120.356
;TYPE:WALL-OUTER
G1 F2250 X124.185 Y118.464 E9.86861
G1 X124.316 Y118.297 E9.87567
G1 X125.759 Y118.27 E9.92367
G1 X125.864 Y118.357 E9.9282
G1 X125.899 Y118.471 E9.93217
G1 X125.902 Y119.902 E9.97977
G1 X126.617 Y119.13 E10.01476
G1 X127.34 Y118.517 E10.04629
G1 X127.933 Y118.216 E10.06841
G1 X127.686 Y116.734 E10.11838
G1 X126.675 Y116.021 E10.15953
G1 X126.092 Y115.48 E10.18598
G1 X125.899 Y115.549 E10.1928
G1 X125.899 Y116.455 E10.22293
G1 X125.842 Y116.596 E10.22799
G1 X125.695 Y116.655 E10.23326
G1 X124.365 Y116.629 E10.2775
G1 X124.244 Y116.575 E10.28191
G1 X124.187 Y116.471 E10.28585
G1 X124.183 Y115.618 E10.31423
G1 X123.95 Y115.457 E10.32365
G1 X123.774 Y115.439 E10.32953
G1 X123.416 Y115.886 E10.34858
G1 X123.193 Y116.085 E10.35852
G1 X122.54 Y116.574 E10.38565
G1 X122.226 Y116.75 E10.39762
G1 X122.157 Y117.046 E10.40773
G1 X121.979 Y118.083 E10.44273
G1 X122.807 Y118.638 E10.47588
G1 X123.037 Y118.817 E10.48558
G1 X123.691 Y119.525 E10.51763
G1 X124.183 Y120.356 E10.54975
G0 F9000 X123.958 Y119.533
G0 X123.955 Y118.076
G0 X126.127 Y118.034
G0 X126.599 Y118.17
G0 X126.575 Y118.17
;TYPE:SKIN
G1 F2250 X126.474 Y117.905 E10.55919
G1 X126.329 Y117.747 E10.56632
G1 F2122.6 X126.097 Y117.593 E10.57614
G1 F1902.7 X125.702 Y117.463 E10.59249
G1 X126.097 Y117.333 E10.60885
G1 F2122.6 X126.393 Y117.138 E10.62134
G1 F2250 X126.515 Y116.841 E10.63202
G1 X126.988 Y117.176 E10.6513
G1 X127.091 Y117.793 E10.67211
G1 X126.915 Y117.887 E10.67874
G1 X126.575 Y118.17 E10.69345
G0 F9000 X126.599 Y118.17
G0 X126.527 Y117.626
G0 X125.702 Y117.463
G1 F1714.3 X124.295 Y117.462 E10.75488
G0 F9000 X123.555 Y117.684
G0 X123.475 Y118.174
G1 F2250 X122.812 Y117.726 E10.78149
G1 X122.894 Y117.259 E10.79726
G1 X123.523 Y116.789 E10.82338
G1 X123.702 Y117.113 E10.83569
G1 F2189.8 X123.995 Y117.318 E10.84791
G1 F1848 X124.295 Y117.462 E10.86138
G1 X123.995 Y117.608 E10.87489
G1 F2189.8 X123.72 Y117.8 E10.88636
G1 F2250 X123.475 Y118.174 E10.90123
G0 F9000 X123.069 Y117.412
G1 F2250 X123.469 Y117.812 E10.92004
G0 F9000 X123.755 Y117.533
G1 F2250 X123.373 Y117.15 E10.93803
G0 F9000 X126.407 Y117.371
G0 X126.408 Y117.357
G1 F2250 X126.79 Y117.739 E10.956
G0 F9000 X126.852 Y117.644
G1 F2700 E5.956
;MESH:NONMESH
G0 F300 X126.852 Y117.644 Z0.4
G0 F9000 X122.644 Y116.766
G0 X122.055 Y115.854
G0 X112.788 Y109.958
;TIME_ELAPSED:16.967560
;LAYER:1
M106 S85
;TYPE:SKIRT
G1 F2700 E10.956
G1 F958 X113.734 Y109.053 E10.99954
G1 X114.324 Y108.557 E11.02518
G1 X116.299 Y106.845 E11.11211
G1 X117.546 Y105.722 E11.16793
G1 X118.243 Y105.148 E11.19796
G1 X118.988 Y104.638 E11.22799
G1 X119.775 Y104.195 E11.25803
G1 X120.599 Y103.825 E11.28807
G1 X121.452 Y103.528 E11.31811
G1 X122.328 Y103.308 E11.34815
G1 X123.22 Y103.166 E11.37819
G1 X124.121 Y103.104 E11.40823
G1 X125.024 Y103.122 E11.43827
G1 X125.921 Y103.219 E11.46828
G1 X126.807 Y103.396 E11.49833
G1 X127.674 Y103.65 E11.52838
G1 X128.514 Y103.98 E11.5584
G1 X129.646 Y104.571 E11.60087
G1 X130.455 Y105.062 E11.63234
G1 X131.133 Y105.491 E11.65903
G1 X131.617 Y105.817 E11.67844
G1 X132.282 Y106.293 E11.70564
G1 X135.3 Y108.366 E11.82742
G1 X136.031 Y108.898 E11.85749
G1 X136.711 Y109.492 E11.88752
G1 X137.336 Y110.144 E11.91756
G1 X137.901 Y110.848 E11.94758
G1 X138.401 Y111.6 E11.97762
G1 X138.833 Y112.393 E12.00765
G1 X139.193 Y113.221 E12.03768
G1 X139.478 Y114.078 E12.06772
G1 X139.683 Y114.936 E12.09706
G1 X139.79 Y115.49 E12.11583
G1 X139.918 Y116.348 E12.14468
G1 X139.979 Y116.998 E12.16639
G1 X140.008 Y117.438 E12.18106
G1 X140.027 Y118.341 E12.2111
G1 X139.967 Y119.242 E12.24113
G1 X139.827 Y120.134 E12.27117
G1 X139.609 Y121.011 E12.30122
G1 X139.314 Y121.864 E12.33124
G1 X138.944 Y122.688 E12.36128
G1 X138.503 Y123.477 E12.39135
G1 X137.995 Y124.223 E12.42137
G1 X137.422 Y124.921 E12.4514
G1 X136.79 Y125.566 E12.48144
G1 X135.987 Y126.241 E12.51633
G1 X135.168 Y126.86 E12.55047
G1 X134.394 Y127.429 E12.58242
G1 X133.123 Y128.431 E12.63625
G1 X132.974 Y128.538 E12.64236
G1 X131.963 Y129.326 E12.68499
G1 X131.226 Y129.849 E12.71505
G1 X130.447 Y130.304 E12.74505
G1 X129.63 Y130.69 E12.77511
G1 X128.84 Y130.982 E12.80312
G1 X127.533 Y131.406 E12.84882
G1 X126.663 Y131.647 E12.87885
G1 X125.775 Y131.809 E12.90887
G1 X124.875 Y131.892 E12.93893
G1 X123.972 Y131.896 E12.96896
G1 X123.072 Y131.819 E12.99901
G1 X122.183 Y131.663 E13.02903
G1 X121.311 Y131.429 E13.05906
G1 X120.462 Y131.119 E13.08912
G1 X119.645 Y130.735 E13.11914
G1 X118.865 Y130.28 E13.14918
G1 X118.128 Y129.758 E13.17922
G1 X117.654 Y129.367 E13.19965
G1 X115.553 Y127.522 E13.29265
G1 X113.64 Y125.926 E13.37551
G1 X112.973 Y125.317 E13.40555
G1 X112.362 Y124.652 E13.43559
G1 X111.813 Y123.935 E13.46563
G1 X111.329 Y123.173 E13.49565
G1 X110.914 Y122.371 E13.52569
G1 X110.572 Y121.535 E13.55573
G1 X110.305 Y120.672 E13.58577
G1 X110.115 Y119.789 E13.61581
G1 X110.004 Y118.893 E13.64584
G1 X109.974 Y117.99 E13.67589
G1 X109.998 Y117.375 E13.69636
G1 X110.033 Y116.878 E13.71294
G1 X110.085 Y116.342 E13.73085
G1 X110.176 Y115.607 E13.75548
G1 X110.327 Y114.716 E13.78554
G1 X110.556 Y113.843 E13.81556
G1 X110.861 Y112.993 E13.84559
G1 X111.24 Y112.173 E13.87564
G1 X111.69 Y111.39 E13.90567
G1 X112.207 Y110.65 E13.9357
G1 X112.788 Y109.958 E13.96575
G1 F2700 E8.96575
;MESH:DS9-Wing-2.stl
G0 F10125 X120.299 Y116.959
G0 X121.365 Y117.138
G0 X123.544 Y118.674
G0 X123.783 Y119.227
;TYPE:WALL-INNER
G1 F2700 E13.96575
G1 F958 X123.783 Y118.418 E13.99266
G1 X123.924 Y118.116 E14.00374
G1 X124.093 Y117.976 E14.01104
G1 X124.33 Y117.904 E14.01928
G1 X125.687 Y117.878 E14.06442
G1 X125.979 Y117.947 E14.0744
G1 X126.156 Y118.087 E14.08191
G1 X126.3 Y118.337 E14.0915
G1 X126.3 Y119.121 E14.11758
G1 X127.09 Y118.448 E14.1521
G1 X127.455 Y118.202 E14.16674
